;FLAVOR:Marlin
;TIME:26375
;Filament used: 21.5058m
;Layer height: 0.2
;MINX:83.239
;MINY:67.445
;MINZ:0.2
;MAXX:216.757
;MAXY:232.555
;MAXZ:43
;Generated with Creality Slicer 4.8.2-205
M140 S60
M105
M190 S60
M104 S200
M105
M109 S200
M82 ;absolute extrusion mode

G28 ;Home

G92 E0 ;Reset Extruder
G1 Z2.0 F3000 ;Move Z Axis up
G1 X10.1 Y20 Z0.28 F5000.0 ;Move to start position
G1 X10.1 Y200.0 Z0.28 F1500.0 E15 ;Draw the first line
G1 X10.4 Y200.0 Z0.28 F5000.0 ;Move to side a little
G1 X10.4 Y20 Z0.28 F1500.0 E30 ;Draw the second line
G92 E0 ;Reset Extruder
G1 Z2.0 F3000 ;Move Z Axis up

G92 E0
G92 E0
G1 F3600 E-5
;LAYER_COUNT:215
;LAYER:0
M107
G0 F6000 X92.181 Y91.021 Z0.2
;TYPE:SKIRT
G1 F3600 E0
G1 F1200 X92.557 Y90.655 E0.01745
G1 X96.28 Y87.266 E0.1849
G1 X96.678 Y86.928 E0.20227
G1 X100.601 Y83.81 E0.36894
G1 X101.022 Y83.497 E0.38639
G1 X105.164 Y80.637 E0.5538
G1 X105.603 Y80.355 E0.57116
G1 X109.911 Y77.788 E0.73795
G1 X110.372 Y77.535 E0.75544
G1 X114.851 Y75.26 E0.92253
G1 X115.325 Y75.038 E0.93994
G1 X119.938 Y73.072 E1.10672
G1 X120.426 Y72.883 E1.12412
G1 X125.175 Y71.226 E1.29141
G1 X125.677 Y71.07 E1.3089
G1 X130.518 Y69.739 E1.47589
G1 X131.024 Y69.618 E1.49319
G1 X135.947 Y68.612 E1.66031
G1 X136.465 Y68.524 E1.67779
G1 X141.432 Y67.853 E1.84449
G1 X141.952 Y67.801 E1.86187
G1 X146.968 Y67.463 E2.02908
G1 X147.492 Y67.445 E2.04652
G1 X152.508 Y67.445 E2.21336
G1 X153.032 Y67.463 E2.23079
G1 X158.054 Y67.801 E2.39821
G1 X158.576 Y67.853 E2.41565
G1 X163.544 Y68.525 E2.58239
G1 X164.058 Y68.613 E2.59974
G1 X168.981 Y69.618 E2.76686
G1 X169.492 Y69.74 E2.78433
G1 X174.333 Y71.073 E2.95133
G1 X174.833 Y71.229 E2.96875
G1 X179.581 Y72.887 E3.13603
G1 X180.068 Y73.075 E3.15339
G1 X184.681 Y75.041 E3.32017
G1 X185.156 Y75.263 E3.33761
G1 X189.634 Y77.538 E3.50467
G1 X190.094 Y77.792 E3.52214
G1 X194.403 Y80.36 E3.68898
G1 X194.842 Y80.641 E3.70632
G1 X198.984 Y83.501 E3.87373
G1 X199.406 Y83.814 E3.89121
G1 X203.327 Y86.931 E4.05781
G1 X203.724 Y87.27 E4.07517
G1 X207.447 Y90.66 E4.24264
G1 X207.824 Y91.026 E4.26012
G1 X211.297 Y94.645 E4.42694
G1 X211.645 Y95.033 E4.44428
G1 X214.866 Y98.873 E4.61098
G1 X215.342 Y99.503 E4.63724
G1 X215.752 Y100.178 E4.66351
G1 X216.092 Y100.891 E4.68978
G1 X216.297 Y101.441 E4.70931
G1 X216.364 Y101.644 E4.71642
G1 X216.573 Y102.406 E4.7427
G1 X216.704 Y103.185 E4.76897
G1 X216.757 Y104.089 E4.79909
G1 X216.757 Y195.921 E7.85343
G1 X216.717 Y196.71 E7.87971
G1 X216.598 Y197.49 E7.90595
G1 X216.274 Y198.624 E7.94518
G1 X216.199 Y198.827 E7.95238
G1 X215.888 Y199.553 E7.97865
G1 X215.505 Y200.244 E8.00492
G1 X214.858 Y201.137 E8.0416
G1 X211.642 Y204.971 E8.20804
G1 X211.293 Y205.36 E8.22542
G1 X207.819 Y208.979 E8.39227
G1 X207.442 Y209.345 E8.40975
G1 X203.721 Y212.732 E8.5771
G1 X203.325 Y213.07 E8.59442
G1 X199.4 Y216.19 E8.76119
G1 X198.978 Y216.503 E8.77866
G1 X194.836 Y219.363 E8.94608
G1 X194.397 Y219.645 E8.96343
G1 X190.089 Y222.212 E9.13022
G1 X189.628 Y222.465 E9.14771
G1 X185.149 Y224.74 E9.3148
G1 X184.675 Y224.962 E9.33221
G1 X180.062 Y226.928 E9.49899
G1 X179.574 Y227.117 E9.5164
G1 X174.825 Y228.774 E9.68369
G1 X174.323 Y228.93 E9.70117
G1 X169.482 Y230.261 E9.86816
G1 X168.976 Y230.382 E9.88546
G1 X164.053 Y231.388 E10.05259
G1 X163.535 Y231.476 E10.07006
G1 X158.568 Y232.147 E10.23677
G1 X158.048 Y232.199 E10.25415
G1 X153.032 Y232.537 E10.42136
G1 X152.508 Y232.555 E10.4388
G1 X147.492 Y232.555 E10.60563
G1 X146.968 Y232.537 E10.62307
G1 X141.946 Y232.199 E10.79048
G1 X141.424 Y232.147 E10.80793
G1 X136.456 Y231.475 E10.97467
G1 X135.942 Y231.387 E10.99201
G1 X131.019 Y230.382 E11.15913
G1 X130.508 Y230.26 E11.1766
G1 X125.667 Y228.927 E11.34361
G1 X125.167 Y228.771 E11.36103
G1 X120.419 Y227.113 E11.5283
G1 X119.932 Y226.925 E11.54566
G1 X115.319 Y224.959 E11.71244
G1 X114.844 Y224.737 E11.72988
G1 X110.366 Y222.462 E11.89694
G1 X109.906 Y222.208 E11.91442
G1 X105.597 Y219.64 E12.08126
G1 X105.158 Y219.359 E12.09859
G1 X101.016 Y216.499 E12.26601
G1 X100.594 Y216.185 E12.2835
G1 X96.67 Y213.065 E12.45024
G1 X96.273 Y212.727 E12.46758
G1 X92.552 Y209.339 E12.63496
G1 X92.175 Y208.973 E12.65243
G1 X88.702 Y205.354 E12.81926
G1 X88.354 Y204.966 E12.8366
G1 X85.134 Y201.127 E13.00325
G1 X84.658 Y200.497 E13.02951
G1 X84.248 Y199.822 E13.05578
G1 X83.908 Y199.109 E13.08205
G1 X83.732 Y198.646 E13.09853
G1 X83.662 Y198.442 E13.1057
G1 X83.444 Y197.683 E13.13197
G1 X83.304 Y196.906 E13.15823
G1 X83.24 Y195.91 E13.19142
G1 X83.239 Y124.95 E15.55156
G1 X83.241 Y104.08 E16.2457
G1 X83.281 Y103.291 E16.27198
G1 X83.4 Y102.511 E16.29822
G1 X83.598 Y101.746 E16.3245
G1 X83.732 Y101.357 E16.33819
G1 X83.808 Y101.153 E16.34543
G1 X84.121 Y100.428 E16.37169
G1 X84.505 Y99.738 E16.39796
G1 X85.142 Y98.862 E16.43398
G1 X88.359 Y95.028 E16.60044
G1 X88.707 Y94.64 E16.61778
G1 X92.181 Y91.021 E16.78463
G0 F6000 X92.47 Y91.298
G1 F1200 X92.827 Y90.951 E16.80119
G1 X96.55 Y87.562 E16.96864
G1 X96.927 Y87.241 E16.9851
G1 X100.85 Y84.123 E17.15178
G1 X101.249 Y83.827 E17.1683
G1 X105.391 Y80.967 E17.33571
G1 X105.808 Y80.699 E17.3522
G1 X110.116 Y78.132 E17.51899
G1 X110.553 Y77.891 E17.53559
G1 X115.032 Y75.616 E17.70268
G1 X115.482 Y75.406 E17.7192
G1 X120.095 Y73.44 E17.88598
G1 X120.558 Y73.261 E17.90249
G1 X125.307 Y71.604 E18.06978
G1 X125.783 Y71.456 E18.08636
G1 X130.624 Y70.125 E18.25335
G1 X131.104 Y70.01 E18.26976
G1 X136.027 Y69.004 E18.43689
G1 X136.518 Y68.921 E18.45345
G1 X141.485 Y68.25 E18.62015
G1 X141.978 Y68.2 E18.63663
G1 X146.994 Y67.862 E18.80385
G1 X147.492 Y67.845 E18.82042
G1 X152.508 Y67.845 E18.98725
G1 X153.005 Y67.862 E19.00379
G1 X158.027 Y68.2 E19.1712
G1 X158.522 Y68.25 E19.18775
G1 X163.49 Y68.922 E19.35449
G1 X163.978 Y69.005 E19.37095
G1 X168.901 Y70.01 E19.53807
G1 X169.386 Y70.126 E19.55466
G1 X174.227 Y71.459 E19.72166
G1 X174.702 Y71.607 E19.73821
G1 X179.45 Y73.265 E19.90548
G1 X179.911 Y73.443 E19.92192
G1 X184.524 Y75.409 E20.0887
G1 X184.975 Y75.62 E20.10526
G1 X189.453 Y77.895 E20.27232
G1 X189.889 Y78.135 E20.28887
G1 X194.198 Y80.703 E20.45571
G1 X194.615 Y80.971 E20.4722
G1 X198.757 Y83.831 E20.63961
G1 X199.157 Y84.127 E20.65616
G1 X203.078 Y87.244 E20.82276
G1 X203.455 Y87.565 E20.83923
G1 X207.178 Y90.955 E21.0067
G1 X207.535 Y91.303 E21.02328
G1 X211.008 Y94.922 E21.19011
G1 X211.339 Y95.29 E21.20657
G1 X214.56 Y99.13 E21.37327
G1 X215.023 Y99.745 E21.39888
G1 X215.419 Y100.403 E21.42442
G1 X215.746 Y101.1 E21.45003
G1 X215.917 Y101.567 E21.46657
G1 X215.984 Y101.77 E21.47368
G1 X216.187 Y102.512 E21.49926
G1 X216.312 Y103.271 E21.52485
G1 X216.357 Y104.089 E21.5521
G1 X216.357 Y195.921 E24.60644
G1 X216.317 Y196.689 E24.63202
G1 X216.198 Y197.449 E24.6576
G1 X215.898 Y198.486 E24.69351
G1 X215.823 Y198.689 E24.70071
G1 X215.52 Y199.395 E24.72626
G1 X215.144 Y200.067 E24.75187
G1 X214.552 Y200.88 E24.78532
G1 X211.336 Y204.714 E24.95176
G1 X211.004 Y205.083 E24.96827
G1 X207.53 Y208.702 E25.13512
G1 X207.173 Y209.049 E25.15168
G1 X203.452 Y212.436 E25.31904
G1 X203.076 Y212.757 E25.33548
G1 X199.151 Y215.877 E25.50224
G1 X198.751 Y216.173 E25.51879
G1 X194.609 Y219.033 E25.68621
G1 X194.192 Y219.301 E25.7027
G1 X189.884 Y221.868 E25.86949
G1 X189.447 Y222.109 E25.88609
G1 X184.968 Y224.384 E26.05317
G1 X184.518 Y224.594 E26.06969
G1 X179.905 Y226.56 E26.23647
G1 X179.442 Y226.739 E26.25298
G1 X174.693 Y228.396 E26.42027
G1 X174.217 Y228.544 E26.43685
G1 X169.376 Y229.875 E26.60384
G1 X168.896 Y229.99 E26.62026
G1 X163.973 Y230.996 E26.78738
G1 X163.482 Y231.079 E26.80394
G1 X158.515 Y231.75 E26.97065
G1 X158.022 Y231.8 E26.98713
G1 X153.006 Y232.138 E27.15434
G1 X152.508 Y232.155 E27.17091
G1 X147.492 Y232.155 E27.33775
G1 X146.995 Y232.138 E27.35429
G1 X141.973 Y231.8 E27.5217
G1 X141.478 Y231.75 E27.53824
G1 X136.51 Y231.078 E27.70498
G1 X136.022 Y230.995 E27.72145
G1 X131.099 Y229.99 E27.88857
G1 X130.614 Y229.874 E27.90515
G1 X125.773 Y228.541 E28.07216
G1 X125.298 Y228.393 E28.0887
G1 X120.55 Y226.735 E28.25597
G1 X120.089 Y226.557 E28.27241
G1 X115.476 Y224.591 E28.43919
G1 X115.025 Y224.38 E28.45575
G1 X110.547 Y222.105 E28.62281
G1 X110.111 Y221.865 E28.63936
G1 X105.802 Y219.297 E28.8062
G1 X105.385 Y219.029 E28.82269
G1 X101.243 Y216.169 E28.9901
G1 X100.843 Y215.872 E29.00667
G1 X96.919 Y212.752 E29.17341
G1 X96.542 Y212.432 E29.18986
G1 X92.821 Y209.044 E29.35724
G1 X92.464 Y208.696 E29.37382
G1 X88.991 Y205.077 E29.54065
G1 X88.66 Y204.708 E29.55713
G1 X85.44 Y200.869 E29.72379
G1 X84.977 Y200.255 E29.74937
G1 X84.581 Y199.596 E29.77494
G1 X84.254 Y198.9 E29.80051
G1 X84.111 Y198.516 E29.81414
G1 X84.041 Y198.312 E29.82132
G1 X83.829 Y197.572 E29.84692
G1 X83.696 Y196.815 E29.87248
G1 X83.64 Y195.91 E29.90264
G1 X83.639 Y124.95 E32.26278
G1 X83.641 Y104.08 E32.95692
G1 X83.681 Y103.312 E32.9825
G1 X83.8 Y102.552 E33.00808
G1 X84.107 Y101.497 E33.04463
G1 X84.183 Y101.293 E33.05187
G1 X84.488 Y100.587 E33.07745
G1 X84.865 Y99.916 E33.10305
G1 X85.448 Y99.119 E33.13589
G1 X88.665 Y95.285 E33.30235
G1 X88.996 Y94.917 E33.31881
G1 X92.47 Y91.298 E33.48567
G0 F6000 X92.758 Y91.575
G1 F1200 X93.096 Y91.247 E33.50133
G1 X96.819 Y87.858 E33.66878
G1 X97.176 Y87.554 E33.68437
G1 X101.099 Y84.436 E33.85105
G1 X101.477 Y84.156 E33.86669
G1 X105.619 Y81.296 E34.03411
G1 X106.013 Y81.043 E34.04968
G1 X110.321 Y78.476 E34.21647
G1 X110.734 Y78.248 E34.23216
G1 X115.213 Y75.973 E34.39925
G1 X115.639 Y75.774 E34.41489
G1 X120.252 Y73.808 E34.58167
G1 X120.69 Y73.639 E34.59729
G1 X125.439 Y71.982 E34.76458
G1 X125.889 Y71.841 E34.78026
G1 X130.73 Y70.51 E34.94725
G1 X131.185 Y70.402 E34.9628
G1 X136.108 Y69.396 E35.12993
G1 X136.572 Y69.317 E35.14558
G1 X141.539 Y68.646 E35.31228
G1 X142.005 Y68.599 E35.32786
G1 X147.021 Y68.261 E35.49507
G1 X147.492 Y68.245 E35.51075
G1 X152.508 Y68.245 E35.67758
G1 X152.978 Y68.261 E35.69322
G1 X158 Y68.599 E35.86063
G1 X158.468 Y68.646 E35.87628
G1 X163.436 Y69.318 E36.04302
G1 X163.898 Y69.396 E36.0586
G1 X168.821 Y70.401 E36.22572
G1 X169.279 Y70.511 E36.24138
G1 X174.12 Y71.844 E36.40839
G1 X174.57 Y71.984 E36.42406
G1 X179.318 Y73.642 E36.59133
G1 X179.754 Y73.811 E36.60689
G1 X184.367 Y75.777 E36.77367
G1 X184.794 Y75.976 E36.78934
G1 X189.272 Y78.251 E36.9564
G1 X189.685 Y78.479 E36.97209
G1 X193.994 Y81.047 E37.13893
G1 X194.387 Y81.3 E37.15447
G1 X198.529 Y84.16 E37.32188
G1 X198.908 Y84.44 E37.33756
G1 X202.829 Y87.557 E37.50416
G1 X203.186 Y87.861 E37.51975
G1 X206.909 Y91.251 E37.68722
G1 X207.247 Y91.58 E37.70291
G1 X210.72 Y95.199 E37.86974
G1 X211.032 Y95.547 E37.88528
G1 X214.253 Y99.387 E38.05199
G1 X214.703 Y99.985 E38.07688
G1 X215.086 Y100.628 E38.10177
G1 X215.398 Y101.308 E38.12665
G1 X215.537 Y101.692 E38.14024
G1 X215.604 Y101.895 E38.14735
G1 X215.8 Y102.617 E38.17223
G1 X215.918 Y103.356 E38.19712
G1 X215.957 Y104.089 E38.22153
G1 X215.957 Y195.921 E41.27588
G1 X215.917 Y196.668 E41.30076
G1 X215.798 Y197.406 E41.32562
G1 X215.523 Y198.347 E41.35823
G1 X215.448 Y198.55 E41.36543
G1 X215.152 Y199.237 E41.39031
G1 X214.784 Y199.888 E41.41518
G1 X214.245 Y200.623 E41.4455
G1 X211.029 Y204.457 E41.61194
G1 X210.716 Y204.806 E41.62753
G1 X207.242 Y208.425 E41.79438
G1 X206.904 Y208.754 E41.81007
G1 X203.183 Y212.141 E41.97742
G1 X202.827 Y212.444 E41.99297
G1 X198.902 Y215.564 E42.15974
G1 X198.523 Y215.844 E42.17541
G1 X194.381 Y218.704 E42.34282
G1 X193.987 Y218.957 E42.3584
G1 X189.679 Y221.524 E42.52519
G1 X189.266 Y221.752 E42.54088
G1 X184.787 Y224.027 E42.70797
G1 X184.361 Y224.226 E42.72361
G1 X179.748 Y226.192 E42.89039
G1 X179.31 Y226.361 E42.906
G1 X174.561 Y228.018 E43.07329
G1 X174.111 Y228.159 E43.08898
G1 X169.27 Y229.49 E43.25597
G1 X168.815 Y229.598 E43.27152
G1 X163.892 Y230.604 E43.43864
G1 X163.428 Y230.683 E43.4543
G1 X158.461 Y231.354 E43.621
G1 X157.995 Y231.401 E43.63658
G1 X152.979 Y231.739 E43.80379
G1 X152.508 Y231.755 E43.81947
G1 X147.492 Y231.755 E43.9863
G1 X147.022 Y231.739 E44.00194
G1 X142 Y231.401 E44.16935
G1 X141.532 Y231.354 E44.18499
G1 X136.564 Y230.682 E44.35173
G1 X136.102 Y230.604 E44.36732
G1 X131.179 Y229.599 E44.53444
G1 X130.721 Y229.489 E44.5501
G1 X125.88 Y228.156 E44.71711
G1 X125.43 Y228.016 E44.73278
G1 X120.682 Y226.358 E44.90005
G1 X120.246 Y226.189 E44.9156
G1 X115.633 Y224.223 E45.08239
G1 X115.206 Y224.024 E45.09805
G1 X110.728 Y221.749 E45.26511
G1 X110.315 Y221.521 E45.2808
G1 X106.006 Y218.953 E45.44764
G1 X105.613 Y218.7 E45.46319
G1 X101.471 Y215.84 E45.6306
G1 X101.092 Y215.559 E45.64629
G1 X97.168 Y212.439 E45.81303
G1 X96.811 Y212.136 E45.82861
G1 X93.09 Y208.748 E45.99598
G1 X92.752 Y208.419 E46.01167
G1 X89.279 Y204.8 E46.1785
G1 X88.967 Y204.451 E46.19407
G1 X85.747 Y200.612 E46.36072
G1 X85.297 Y200.014 E46.38562
G1 X84.914 Y199.372 E46.41048
G1 X84.489 Y198.386 E46.44619
G1 X84.419 Y198.182 E46.45336
G1 X84.214 Y197.462 E46.47826
G1 X84.088 Y196.725 E46.50313
G1 X84.04 Y195.91 E46.53029
G1 X84.039 Y124.95 E48.89043
G1 X84.041 Y104.08 E49.58456
G1 X84.081 Y103.333 E49.60945
G1 X84.2 Y102.595 E49.63431
G1 X84.481 Y101.636 E49.66755
G1 X84.557 Y101.432 E49.67479
G1 X84.856 Y100.746 E49.69968
G1 X85.225 Y100.096 E49.72454
G1 X85.755 Y99.377 E49.75424
G1 X88.972 Y95.543 E49.92071
G1 X89.284 Y95.194 E49.93628
G1 X92.758 Y91.575 E50.10313
G0 F6000 X93.047 Y91.852
G1 F1200 X93.365 Y91.542 E50.1179
G1 X97.088 Y88.153 E50.28535
G1 X97.424 Y87.867 E50.30002
G1 X101.347 Y84.749 E50.4667
G1 X101.704 Y84.485 E50.48146
G1 X105.846 Y81.625 E50.64888
G1 X106.218 Y81.386 E50.66358
G1 X110.526 Y78.819 E50.83038
G1 X110.915 Y78.605 E50.84514
G1 X115.394 Y76.33 E51.01223
G1 X115.795 Y76.142 E51.02696
G1 X120.408 Y74.176 E51.19374
G1 X120.822 Y74.016 E51.20851
G1 X125.571 Y72.359 E51.3758
G1 X125.995 Y72.227 E51.39057
G1 X130.836 Y70.896 E51.55755
G1 X131.265 Y70.794 E51.57222
G1 X136.188 Y69.788 E51.73934
G1 X136.625 Y69.713 E51.75409
G1 X141.592 Y69.042 E51.92079
G1 X142.032 Y68.998 E51.9355
G1 X147.048 Y68.66 E52.10271
G1 X147.492 Y68.645 E52.11749
G1 X152.508 Y68.645 E52.28432
G1 X152.951 Y68.66 E52.29906
G1 X157.973 Y68.998 E52.46647
G1 X158.415 Y69.043 E52.48125
G1 X163.383 Y69.715 E52.64799
G1 X163.818 Y69.788 E52.66266
G1 X168.741 Y70.793 E52.82978
G1 X169.173 Y70.897 E52.84456
G1 X174.014 Y72.23 E53.01156
G1 X174.438 Y72.362 E53.02633
G1 X179.186 Y74.02 E53.1936
G1 X179.598 Y74.179 E53.20829
G1 X184.211 Y76.145 E53.37507
G1 X184.612 Y76.333 E53.3898
G1 X189.09 Y78.608 E53.55686
G1 X189.48 Y78.822 E53.57166
G1 X193.789 Y81.39 E53.7385
G1 X194.16 Y81.629 E53.75318
G1 X198.302 Y84.489 E53.92059
G1 X198.659 Y84.754 E53.93538
G1 X202.58 Y87.871 E54.10198
G1 X202.917 Y88.157 E54.11668
G1 X206.64 Y91.547 E54.28415
G1 X206.958 Y91.857 E54.29892
G1 X210.431 Y95.476 E54.46575
G1 X210.726 Y95.804 E54.48042
G1 X213.947 Y99.644 E54.64712
G1 X214.382 Y100.226 E54.67129
G1 X214.751 Y100.852 E54.69546
G1 X215.157 Y101.817 E54.73028
G1 X215.224 Y102.02 E54.73739
G1 X215.414 Y102.722 E54.76158
G1 X215.525 Y103.439 E54.78571
G1 X215.557 Y104.089 E54.80735
G1 X215.557 Y195.921 E57.8617
G1 X215.517 Y196.646 E57.88585
G1 X215.398 Y197.363 E57.91002
G1 X215.148 Y198.208 E57.93933
G1 X215.073 Y198.411 E57.94653
G1 X214.784 Y199.078 E57.9707
G1 X214.424 Y199.708 E57.99484
G1 X213.939 Y200.366 E58.02203
G1 X210.723 Y204.2 E58.18847
G1 X210.427 Y204.529 E58.20319
G1 X206.953 Y208.148 E58.37004
G1 X206.635 Y208.458 E58.38481
G1 X202.914 Y211.845 E58.55216
G1 X202.578 Y212.131 E58.56684
G1 X198.653 Y215.251 E58.7336
G1 X198.296 Y215.515 E58.74837
G1 X194.154 Y218.375 E58.91579
G1 X193.782 Y218.614 E58.93049
G1 X189.474 Y221.181 E59.09729
G1 X189.085 Y221.395 E59.11205
G1 X184.606 Y223.67 E59.27914
G1 X184.205 Y223.858 E59.29387
G1 X179.592 Y225.824 E59.46065
G1 X179.178 Y225.984 E59.47541
G1 X174.429 Y227.641 E59.64271
G1 X174.005 Y227.773 E59.65748
G1 X169.164 Y229.104 E59.82446
G1 X168.735 Y229.206 E59.83913
G1 X163.812 Y230.212 E60.00625
G1 X163.375 Y230.287 E60.021
G1 X158.408 Y230.958 E60.1877
G1 X157.968 Y231.002 E60.20241
G1 X152.952 Y231.34 E60.36962
G1 X152.508 Y231.355 E60.3844
G1 X147.492 Y231.355 E60.55123
