;FLAVOR:Marlin
;TIME:1610
;Filament used: 0.803034m
;Layer height: 0.16
;MINX:93.447
;MINY:93.444
;MINZ:0.24
;MAXX:126.553
;MAXY:126.561
;MAXZ:14.87
;Generated with Creality Slicer 4.8.2-205
M140 S60
M105
M190 S60
M104 S200
M105
M109 S200
M82 ;absolute extrusion mode

G28 ;Home

G92 E0 ;Reset Extruder
G1 Z2.0 F3000 ;Move Z Axis up
G1 X10.1 Y20 Z0.28 F5000.0 ;Move to start position
G1 X10.1 Y200.0 Z0.28 F1500.0 E15 ;Draw the first line
G1 X10.4 Y200.0 Z0.28 F5000.0 ;Move to side a little
G1 X10.4 Y20 Z0.28 F1500.0 E30 ;Draw the second line
G92 E0 ;Reset Extruder
G1 Z2.0 F3000 ;Move Z Axis up

G92 E0
G92 E0
G1 F3600 E-5
;LAYER_COUNT:74
;LAYER:-6
M107
G0 F7200 X98.843 Y99.099 Z0.24
;TYPE:SUPPORT-INTERFACE
G1 F3600 E0
G1 F1125 X99.1 Y98.842 E0.02901
G1 X99.207 Y98.742 E0.0407
G1 X99.502 Y98.483 E0.07204
G1 X99.717 Y98.316 E0.09377
G1 X99.965 Y98.148 E0.11768
G1 X100.201 Y98.008 E0.13959
G1 X100.246 Y97.984 E0.14366
G1 X100.823 Y97.638 E0.19736
G1 X101.49 Y97.093 E0.26612
G1 X101.593 Y96.994 E0.27752
G1 X101.699 Y96.903 E0.28867
G1 X101.998 Y96.661 E0.31938
G1 X102.232 Y96.497 E0.34219
G1 X102.629 Y96.257 E0.37922
G1 X102.752 Y96.188 E0.39048
G1 X103.102 Y96.01 E0.42182
G1 X103.195 Y95.966 E0.43003
G1 X103.56 Y95.808 E0.46178
G1 X103.838 Y95.708 E0.48537
G1 X104.114 Y95.629 E0.50828
G1 X104.384 Y95.567 E0.5304
G1 X104.437 Y95.558 E0.53469
G1 X105.093 Y95.407 E0.58842
G1 X105.931 Y95.077 E0.66031
G1 X105.992 Y95.048 E0.6657
G1 X106.149 Y94.981 E0.67933
G1 X106.475 Y94.855 E0.70723
G1 X106.774 Y94.761 E0.73225
G1 X107.208 Y94.658 E0.76785
G1 X107.393 Y94.622 E0.7829
G1 X107.749 Y94.565 E0.81168
G1 X107.891 Y94.547 E0.8231
G1 X108.237 Y94.514 E0.85085
G1 X108.56 Y94.504 E0.87664
G1 X108.851 Y94.514 E0.89989
G1 X109.116 Y94.538 E0.92113
G1 X109.175 Y94.546 E0.92588
G1 X109.846 Y94.606 E0.97966
G1 X110.725 Y94.553 E1.04995
G1 X110.81 Y94.541 E1.0568
G1 X110.977 Y94.525 E1.07019
G1 X111.298 Y94.507 E1.09586
G1 X111.642 Y94.511 E1.12332
G1 X112.105 Y94.549 E1.1604
G1 X112.27 Y94.568 E1.17366
G1 X112.627 Y94.625 E1.20252
G1 X112.775 Y94.653 E1.21454
G1 X113.14 Y94.736 E1.24442
G1 X113.404 Y94.812 E1.26635
G1 X113.713 Y94.924 E1.29259
G1 X113.941 Y95.023 E1.31243
G1 X113.994 Y95.049 E1.31714
G1 X114.614 Y95.313 E1.37093
G1 X115.423 Y95.525 E1.43769
G1 X115.567 Y95.551 E1.44937
G1 X115.693 Y95.581 E1.45971
G1 X116.047 Y95.674 E1.48893
G1 X116.36 Y95.78 E1.5153
G1 X116.77 Y95.952 E1.5508
G1 X116.931 Y96.027 E1.56497
G1 X117.255 Y96.192 E1.594
G1 X117.374 Y96.258 E1.60486
G1 X117.704 Y96.454 E1.6355
G1 X117.936 Y96.612 E1.6579
G1 X118.173 Y96.797 E1.6819
G1 X118.387 Y96.984 E1.70459
G1 X118.43 Y97.025 E1.70933
G1 X118.938 Y97.465 E1.76298
G1 X119.662 Y97.927 E1.83153
G1 X119.772 Y97.986 E1.8415
G1 X119.856 Y98.036 E1.8493
G1 X120.175 Y98.241 E1.87957
G1 X120.434 Y98.434 E1.90535
G1 X120.776 Y98.728 E1.94135
G1 X120.901 Y98.843 E1.95491
G1 X121.158 Y99.1 E1.98393
G1 X121.258 Y99.207 E1.99562
G1 X121.517 Y99.502 E2.02695
G1 X121.684 Y99.717 E2.04868
G1 X121.852 Y99.965 E2.07259
G1 X121.992 Y100.201 E2.0945
G1 X122.016 Y100.246 E2.09857
G1 X122.362 Y100.823 E2.15227
G1 X122.907 Y101.49 E2.22103
G1 X123.006 Y101.593 E2.23243
G1 X123.097 Y101.699 E2.24359
G1 X123.339 Y101.998 E2.27429
G1 X123.503 Y102.232 E2.2971
G1 X123.743 Y102.629 E2.33413
G1 X123.812 Y102.752 E2.34539
G1 X123.99 Y103.102 E2.37673
G1 X124.034 Y103.195 E2.38495
G1 X124.194 Y103.565 E2.41713
G1 X124.291 Y103.836 E2.4401
G1 X124.371 Y104.114 E2.46319
G1 X124.433 Y104.384 E2.48531
G1 X124.442 Y104.437 E2.4896
G1 X124.593 Y105.093 E2.54333
G1 X124.923 Y105.931 E2.61522
G1 X124.95 Y105.987 E2.62019
G1 X125.019 Y106.149 E2.63424
G1 X125.145 Y106.475 E2.66214
G1 X125.239 Y106.774 E2.68716
G1 X125.342 Y107.208 E2.72277
G1 X125.376 Y107.381 E2.73684
G1 X125.434 Y107.738 E2.76571
G1 X125.452 Y107.88 E2.77714
G1 X125.486 Y108.23 E2.80521
G1 X125.496 Y108.555 E2.83116
G1 X125.486 Y108.851 E2.8548
G1 X125.462 Y109.116 E2.87604
G1 X125.454 Y109.175 E2.8808
G1 X125.394 Y109.846 E2.93457
G1 X125.447 Y110.725 E3.00487
G1 X125.458 Y110.802 E3.01107
G1 X125.474 Y110.966 E3.02423
G1 X125.493 Y111.288 E3.04998
G1 X125.489 Y111.642 E3.07824
G1 X125.451 Y112.105 E3.11532
G1 X125.432 Y112.268 E3.12842
G1 X125.377 Y112.616 E3.15654
G1 X125.349 Y112.766 E3.16872
G1 X125.264 Y113.14 E3.19934
G1 X125.19 Y113.398 E3.22076
G1 X125.076 Y113.713 E3.2475
G1 X124.98 Y113.935 E3.26681
G1 X124.951 Y113.994 E3.27206
G1 X124.687 Y114.614 E3.32585
G1 X124.475 Y115.423 E3.39261
G1 X124.451 Y115.559 E3.40363
G1 X124.419 Y115.693 E3.41463
G1 X124.326 Y116.047 E3.44385
G1 X124.22 Y116.36 E3.47022
G1 X124.048 Y116.77 E3.50572
G1 X123.973 Y116.931 E3.51989
G1 X123.808 Y117.255 E3.54892
G1 X123.748 Y117.364 E3.55885
G1 X123.546 Y117.704 E3.59042
G1 X123.388 Y117.936 E3.61282
G1 X123.206 Y118.17 E3.63649
G1 X123.016 Y118.387 E3.65951
G1 X122.975 Y118.43 E3.66425
G1 X122.535 Y118.938 E3.7179
G1 X122.073 Y119.662 E3.78646
G1 X122.011 Y119.778 E3.79696
G1 X121.972 Y119.843 E3.80301
G1 X121.759 Y120.175 E3.83449
G1 X121.562 Y120.439 E3.86079
G1 X121.272 Y120.776 E3.89628
G1 X121.157 Y120.901 E3.90984
G1 X120.9 Y121.158 E3.93885
G1 X120.793 Y121.258 E3.95054
G1 X120.5 Y121.515 E3.98165
G1 X120.283 Y121.684 E4.00361
G1 X120.036 Y121.851 E4.02741
G1 X119.799 Y121.992 E4.04942
G1 X119.754 Y122.016 E4.05349
G1 X119.177 Y122.362 E4.1072
G1 X118.51 Y122.907 E4.17595
G1 X118.407 Y123.006 E4.18736
G1 X118.301 Y123.097 E4.19851
G1 X118.002 Y123.339 E4.22921
G1 X117.768 Y123.503 E4.25202
G1 X117.371 Y123.743 E4.28905
G1 X117.248 Y123.812 E4.30031
G1 X116.898 Y123.99 E4.33165
G1 X116.805 Y124.034 E4.33987
G1 X116.44 Y124.192 E4.37162
G1 X116.162 Y124.292 E4.3952
G1 X115.886 Y124.371 E4.41812
G1 X115.616 Y124.433 E4.44023
G1 X115.563 Y124.442 E4.44452
G1 X114.907 Y124.593 E4.49825
G1 X114.069 Y124.923 E4.57015
G1 X114.008 Y124.952 E4.57554
G1 X113.851 Y125.019 E4.58916
G1 X113.525 Y125.145 E4.61706
G1 X113.226 Y125.239 E4.64208
G1 X112.792 Y125.342 E4.67769
G1 X112.609 Y125.378 E4.69258
G1 X112.251 Y125.435 E4.72151
G1 X112.109 Y125.453 E4.73294
G1 X111.763 Y125.486 E4.76068
G1 X111.44 Y125.496 E4.78648
G1 X111.149 Y125.486 E4.80972
G1 X110.884 Y125.462 E4.83096
G1 X110.825 Y125.454 E4.83571
G1 X110.154 Y125.394 E4.88949
G1 X109.275 Y125.447 E4.95978
G1 X109.19 Y125.459 E4.96664
G1 X109.023 Y125.475 E4.98003
G1 X108.702 Y125.493 E5.00569
G1 X108.358 Y125.489 E5.03315
G1 X107.895 Y125.451 E5.07024
G1 X107.73 Y125.432 E5.08349
G1 X107.373 Y125.375 E5.11235
G1 X107.225 Y125.347 E5.12438
G1 X106.86 Y125.264 E5.15426
G1 X106.596 Y125.188 E5.17618
G1 X106.287 Y125.076 E5.20242
G1 X106.059 Y124.977 E5.22226
G1 X106.006 Y124.951 E5.22697
G1 X105.386 Y124.687 E5.28077
G1 X104.577 Y124.475 E5.34752
G1 X104.433 Y124.449 E5.3592
G1 X104.307 Y124.419 E5.36954
G1 X103.953 Y124.326 E5.39876
G1 X103.64 Y124.22 E5.42514
G1 X103.227 Y124.047 E5.46088
G1 X103.069 Y123.973 E5.47481
G1 X102.745 Y123.808 E5.50383
G1 X102.626 Y123.742 E5.51469
G1 X102.296 Y123.546 E5.54533
G1 X102.064 Y123.388 E5.56774
G1 X101.827 Y123.203 E5.59174
G1 X101.611 Y123.014 E5.61465
G1 X101.57 Y122.975 E5.61917
G1 X101.062 Y122.535 E5.67281
G1 X100.338 Y122.073 E5.74137
G1 X100.223 Y122.012 E5.75176
G1 X99.825 Y121.759 E5.78941
G1 X99.561 Y121.562 E5.8157
G1 X99.214 Y121.263 E5.85226
G1 X99.099 Y121.157 E5.86475
G1 X98.842 Y120.9 E5.89376
G1 X98.734 Y120.784 E5.90641
G1 X98.483 Y120.498 E5.93679
G1 X98.316 Y120.283 E5.95852
G1 X98.148 Y120.035 E5.98243
G1 X98.007 Y119.797 E6.00451
G1 X97.984 Y119.754 E6.0084
G1 X97.638 Y119.177 E6.06211
G1 X97.093 Y118.51 E6.13087
G1 X96.994 Y118.407 E6.14227
G1 X96.899 Y118.296 E6.15393
G1 X96.661 Y118.002 E6.18413
G1 X96.497 Y117.768 E6.20694
G1 X96.257 Y117.371 E6.24397
G1 X96.188 Y117.248 E6.25523
G1 X96.01 Y116.898 E6.28657
G1 X95.966 Y116.805 E6.29478
G1 X95.806 Y116.435 E6.32696
G1 X95.708 Y116.162 E6.35011
G1 X95.63 Y115.89 E6.3727
G1 X95.566 Y115.61 E6.39563
G1 X95.559 Y115.566 E6.39918
G1 X95.407 Y114.907 E6.45317
G1 X95.077 Y114.069 E6.52506
G1 X95.045 Y114.003 E6.53092
G1 X94.972 Y113.829 E6.54598
G1 X94.856 Y113.53 E6.57158
G1 X94.761 Y113.226 E6.597
G1 X94.658 Y112.791 E6.63269
G1 X94.622 Y112.607 E6.64765
G1 X94.564 Y112.247 E6.67676
G1 X94.547 Y112.109 E6.68786
G1 X94.514 Y111.763 E6.71561
G1 X94.504 Y111.439 E6.74148
G1 X94.514 Y111.143 E6.76512
G1 X94.538 Y110.884 E6.78589
G1 X94.546 Y110.825 E6.79064
G1 X94.606 Y110.154 E6.84441
G1 X94.553 Y109.275 E6.91471
G1 X94.538 Y109.167 E6.92341
G1 X94.525 Y109.021 E6.93511
G1 X94.507 Y108.702 E6.96062
G1 X94.511 Y108.358 E6.98808
G1 X94.549 Y107.895 E7.02516
G1 X94.568 Y107.732 E7.03826
G1 X94.627 Y107.362 E7.06817
G1 X94.654 Y107.222 E7.07955
G1 X94.736 Y106.86 E7.10918
G1 X94.81 Y106.602 E7.1306
G1 X94.924 Y106.287 E7.15734
G1 X95.02 Y106.065 E7.17665
G1 X95.049 Y106.006 E7.1819
G1 X95.313 Y105.386 E7.23569
G1 X95.525 Y104.577 E7.30245
G1 X95.555 Y104.416 E7.31552
G1 X95.581 Y104.307 E7.32447
G1 X95.674 Y103.953 E7.35368
G1 X95.78 Y103.64 E7.38006
G1 X95.952 Y103.23 E7.41555
G1 X96.027 Y103.069 E7.42973
G1 X96.192 Y102.745 E7.45875
G1 X96.252 Y102.636 E7.46869
G1 X96.454 Y102.296 E7.50025
G1 X96.612 Y102.064 E7.52266
G1 X96.791 Y101.834 E7.54592
G1 X96.998 Y101.598 E7.57098
G1 X97.025 Y101.57 E7.57409
G1 X97.465 Y101.062 E7.62773
G1 X97.927 Y100.338 E7.69629
G1 X97.99 Y100.22 E7.70697
G1 X98.029 Y100.155 E7.71302
G1 X98.241 Y99.825 E7.74433
G1 X98.438 Y99.561 E7.77062
G1 X98.728 Y99.224 E7.80611
G1 X98.843 Y99.099 E7.81967
G0 F7200 X99.2 Y98.748
G1 F1125 X99.2 Y121.25 E9.61588
G0 F7200 X100.8 Y122.367
G1 F1125 X100.8 Y97.651 E11.58882
G0 F7200 X102.4 Y96.395
G1 F1125 X102.4 Y123.607 E13.761
G0 F7200 X104 Y124.338
G1 F1125 X104 Y95.661 E16.05012
G0 F7200 X105.6 Y95.207
G1 F1125 X105.6 Y124.778 E18.4106
G0 F7200 X107.2 Y125.341
G1 F1125 X107.2 Y94.659 E20.85977
G0 F7200 X108.8 Y94.513
G1 F1125 X108.8 Y125.488 E23.33233
G0 F7200 X110.4 Y125.415
G1 F1125 X110.4 Y94.572 E25.79435
G0 F7200 X112 Y94.541
G1 F1125 X112 Y125.464 E28.26276
G0 F7200 X113.6 Y125.117
G1 F1125 X113.6 Y94.884 E30.67609
G0 F7200 X115.2 Y95.467
G1 F1125 X115.2 Y124.526 E32.99571
G0 F7200 X116.8 Y124.037
G1 F1125 X116.8 Y95.966 E35.23645
G0 F7200 X118.4 Y96.997
G1 F1125 X118.4 Y123.013 E37.31316
G0 F7200 X120 Y121.873
G1 F1125 X120 Y98.129 E39.20851
G0 F7200 X121.6 Y99.609
G1 F1125 X121.6 Y120.389 E40.86726
G0 F7200 X123.2 Y118.177
G1 F1125 X123.2 Y101.827 E42.17239
G0 F7200 X124.8 Y105.619
G1 F1125 X124.8 Y114.349 E42.86926
G1 F3600 E37.86926
G0 F7200 X125.697 Y114.959
G0 X125.217 Y116.735
G0 X124.668 Y117.898
G0 X124.025 Y118.849
G0 X122.062 Y121.489
G0 X120.91 Y122.544
G0 X117.902 Y124.666
G0 X116.487 Y125.306
G0 X113.008 Y126.385
G0 X111.438 Y126.561
G0 X107.795 Y126.511
G0 X106.259 Y126.199
G0 X102.792 Y125.019
G0 X101.438 Y124.249
G0 X98.511 Y122.062
G0 X97.562 Y121.026
G0 X96.765 Y119.791
G0 X97.6 Y119.13
G1 F3600 E42.86926
G1 F1125 X97.6 Y100.85 E44.32844
G0 F7200 X96 Y103.126
G1 F1125 X96 Y116.876 E45.42603
G1 F3600 E40.42603
G0 F300 X96 Y116.876 Z0.48
G0 F7200 X96.41 Y117.623
;TIME_ELAPSED:38.513506
;LAYER:-5
;TYPE:SUPPORT
G1 F3600 E45.42603
G1 F1125 X102.385 Y123.598 E46.10054
G1 X102.295 Y123.545 E46.10888
G1 X102.063 Y123.387 E46.13128
G1 X101.826 Y123.202 E46.15528
G1 X101.61 Y123.013 E46.17819
G1 X101.57 Y122.974 E46.18265
G1 X101.061 Y122.533 E46.23641
G1 X100.338 Y122.072 E46.30486
G1 X100.222 Y122.011 E46.31532
G1 X99.825 Y121.758 E46.3529
G1 X99.56 Y121.561 E46.37926
G1 X99.214 Y121.261 E46.41581
G1 X99.098 Y121.156 E46.4283
G1 X98.842 Y120.899 E46.45726
G1 X98.734 Y120.783 E46.46991
G1 X98.483 Y120.496 E46.50034
G1 X98.315 Y120.282 E46.52206
G1 X98.147 Y120.034 E46.54597
G1 X98.007 Y119.795 E46.56808
G1 X97.984 Y119.753 E46.5719
G1 X97.638 Y119.176 E46.62561
G1 X97.092 Y118.509 E46.69442
G1 X96.993 Y118.406 E46.70582
G1 X96.899 Y118.294 E46.71749
G1 X96.66 Y118.001 E46.74768
G1 X96.497 Y117.767 E46.77044
G1 F3600 E41.77044
G0 F7200 X95.816 Y118.65
G0 X97.67 Y121.185
G0 X98.511 Y122.062
G0 X101.438 Y124.249
G0 X102.385 Y123.598
G1 F3600 E46.77044
G1 F1125 X102.625 Y123.741 E46.79274
G1 X102.745 Y123.807 E46.80367
G1 X103.068 Y123.972 E46.83262
G1 X103.226 Y124.045 E46.84652
G1 X103.639 Y124.219 E46.88229
G1 X103.953 Y124.324 E46.90872
G1 X104.306 Y124.418 E46.93788
G1 X104.433 Y124.448 E46.9483
G1 X104.576 Y124.474 E46.9599
G1 X104.71 Y124.509 E46.97095
G1 X95.496 Y115.295 E48.01111
G1 X95.407 Y114.906 E48.04296
G1 X95.076 Y114.068 E48.11489
G1 X95.045 Y114.002 E48.12071
G1 X94.972 Y113.827 E48.13584
G1 X94.856 Y113.529 E48.16137
G1 X94.761 Y113.225 E48.18679
G1 X94.736 Y113.121 E48.19533
G1 X106.883 Y125.268 E49.56659
G1 X107.224 Y125.346 E49.59451
G1 X107.372 Y125.374 E49.60654
G1 X107.729 Y125.431 E49.63539
G1 X107.895 Y125.449 E49.64872
G1 X108.357 Y125.488 E49.68573
G1 X108.518 Y125.489 E49.69859
G1 X94.504 Y111.475 E51.28061
G1 X94.504 Y111.437 E51.28364
G1 X94.514 Y111.142 E51.3072
G1 X94.538 Y110.883 E51.32796
G1 X94.546 Y110.824 E51.33272
G1 X94.605 Y110.161 E51.38585
G1 X109.854 Y125.411 E53.10735
G1 X110.153 Y125.393 E53.13126
G1 X110.824 Y125.453 E53.18503
G1 X110.883 Y125.461 E53.18978
G1 X111.149 Y125.485 E53.2111
G1 X111.35 Y125.492 E53.22716
G1 X94.506 Y108.649 E55.1286
G1 X94.511 Y108.357 E55.15191
G1 X94.548 Y107.894 E55.18899
G1 X94.567 Y107.731 E55.20209
G1 X94.626 Y107.361 E55.23199
G1 X94.627 Y107.355 E55.23248
G1 X112.642 Y125.37 E57.26617
G1 X112.792 Y125.341 E57.27836
G1 X113.226 Y125.238 E57.31397
G1 X113.525 Y125.144 E57.33899
G1 X113.745 Y125.058 E57.35785
G1 X94.938 Y106.251 E59.48094
G1 X95.02 Y106.063 E59.49731
G1 X95.049 Y106.005 E59.50249
G1 X95.313 Y105.385 E59.55628
G1 X95.348 Y105.247 E59.56765
G1 X114.753 Y124.653 E61.75831
G1 X114.906 Y124.592 E61.77145
G1 X115.563 Y124.441 E61.82527
G1 X115.616 Y124.432 E61.82956
G1 X115.884 Y124.37 E61.85152
G1 X95.63 Y104.115 E64.13802
G1 X95.673 Y103.952 E64.15148
G1 X95.78 Y103.639 E64.17788
G1 X95.951 Y103.229 E64.21334
G1 X96.017 Y103.088 E64.22577
G1 X116.91 Y123.981 E66.58435
G1 X117.248 Y123.811 E66.61455
G1 X117.371 Y123.742 E66.62581
G1 X117.767 Y123.502 E66.66277
G1 X117.813 Y123.47 E66.66724
G1 X96.528 Y102.185 E69.07008
G1 X96.611 Y102.063 E69.08186
G1 X96.791 Y101.833 E69.10517
G1 X96.998 Y101.597 E69.13023
G1 X97.024 Y101.568 E69.13334
G1 X97.164 Y101.406 E69.15043
G1 X118.593 Y122.836 E71.56958
G1 X119.176 Y122.361 E71.62961
G1 X119.399 Y122.227 E71.65037
G1 X97.763 Y100.592 E74.09278
G1 X97.927 Y100.337 E74.11698
G1 X97.99 Y100.218 E74.12772
G1 X98.029 Y100.154 E74.13371
G1 X98.24 Y99.824 E74.16497
G1 X98.312 Y99.726 E74.17468
G1 X120.274 Y121.688 E76.65394
G1 X120.283 Y121.683 E76.65476
G1 X120.5 Y121.514 E76.67672
G1 X120.792 Y121.256 E76.70782
G1 X120.899 Y121.157 E76.71946
G1 X121.028 Y121.028 E76.73402
G1 X98.97 Y98.97 E79.22412
G1 X99.099 Y98.842 E79.23862
G1 X99.206 Y98.742 E79.25032
G1 X99.501 Y98.483 E79.28165
G1 X99.716 Y98.316 E79.30338
G1 X99.724 Y98.31 E79.30418
G1 X121.686 Y120.272 E81.78344
G1 X121.758 Y120.174 E81.79315
G1 X121.971 Y119.843 E81.82457
G1 X122.009 Y119.778 E81.83058
G1 X122.072 Y119.662 E81.84112
G1 X122.235 Y119.407 E81.86527
G1 X100.6 Y97.771 E84.30768
G1 X100.822 Y97.638 E84.32833
G1 X101.405 Y97.162 E84.38841
G1 X122.835 Y118.592 E86.80762
G1 X122.974 Y118.43 E86.82466
G1 X123.015 Y118.386 E86.82946
G1 X123.204 Y118.17 E86.85237
G1 X123.387 Y117.935 E86.87614
G1 X123.47 Y117.813 E86.88792
G1 X102.186 Y96.529 E89.29064
G1 X102.231 Y96.496 E89.2951
G1 X102.628 Y96.257 E89.33209
G1 X102.751 Y96.187 E89.34338
G1 X103.088 Y96.017 E89.37351
G1 X123.981 Y116.91 E91.7321
G1 X124.047 Y116.77 E91.74445
G1 X124.218 Y116.36 E91.77991
G1 X124.325 Y116.046 E91.80639
G1 X124.368 Y115.883 E91.81985
G1 X104.114 Y95.629 E94.1063
G1 X104.383 Y95.566 E94.12835
G1 X104.436 Y95.557 E94.13264
G1 X105.092 Y95.406 E94.18637
G1 X105.245 Y95.346 E94.19949
G1 X124.65 Y114.751 E96.3901
G1 X124.686 Y114.614 E96.4014
G1 X124.95 Y113.994 E96.4552
G1 X124.979 Y113.935 E96.46044
G1 X125.061 Y113.747 E96.47682
G1 X106.254 Y94.94 E98.59991
G1 X106.474 Y94.854 E98.61877
