;FLAVOR:Marlin
;TIME:3580
;Filament used: 1.69315m
;Layer height: 0.16
;MINX:133.437
;MINY:133.437
;MINZ:0.24
;MAXX:166.55
;MAXY:166.549
;MAXZ:34.43
;Generated with Creality Slicer 4.8.2-205
M140 S60
M105
M190 S60
M104 S200
M105
M109 S200
M82 ;absolute extrusion mode

G28 ;Home

G92 E0 ;Reset Extruder
G1 Z2.0 F3000 ;Move Z Axis up
G1 X10.1 Y20 Z0.28 F5000.0 ;Move to start position
G1 X10.1 Y200.0 Z0.28 F1500.0 E15 ;Draw the first line
G1 X10.4 Y200.0 Z0.28 F5000.0 ;Move to side a little
G1 X10.4 Y20 Z0.28 F1500.0 E30 ;Draw the second line
G92 E0 ;Reset Extruder
G1 Z2.0 F3000 ;Move Z Axis up

G92 E0
G92 E0
G1 F3600 E-5
;LAYER_COUNT:175
;LAYER:-6
M107
G0 F7200 X138.842 Y139.095 Z0.24
;TYPE:SUPPORT-INTERFACE
G1 F3600 E0
G1 F1125 X139.097 Y138.842 E0.02867
G1 X139.207 Y138.739 E0.0407
G1 X139.497 Y138.484 E0.07153
G1 X139.714 Y138.317 E0.09339
G1 X139.972 Y138.143 E0.11823
G1 X140.809 Y137.654 E0.19561
G1 X141.527 Y137.061 E0.26994
G1 X141.63 Y136.961 E0.2814
G1 X141.686 Y136.913 E0.28729
G1 X141.967 Y136.686 E0.31612
G1 X142.229 Y136.502 E0.34168
G1 X142.579 Y136.29 E0.37434
G1 X142.72 Y136.211 E0.38724
G1 X143.064 Y136.034 E0.41813
G1 X143.181 Y135.978 E0.42848
G1 X143.536 Y135.823 E0.4594
G1 X143.814 Y135.721 E0.48304
G1 X144.081 Y135.643 E0.50524
G1 X145.038 Y135.429 E0.58352
G1 X145.818 Y135.133 E0.65012
G1 X145.978 Y135.058 E0.66422
G1 X146.322 Y134.909 E0.69415
G1 X146.575 Y134.818 E0.71561
G1 X146.878 Y134.731 E0.74077
G1 X147.118 Y134.673 E0.76048
G1 X147.317 Y134.636 E0.77664
G1 X147.769 Y134.568 E0.81313
G1 X147.915 Y134.55 E0.82487
G1 X148.264 Y134.519 E0.85284
G1 X148.578 Y134.511 E0.87791
G1 X148.853 Y134.523 E0.89988
G1 X149.698 Y134.607 E0.96767
G1 X150.145 Y134.597 E1.00336
G1 X150.145 Y134.624 E1.00551
G1 X151.055 Y134.516 E1.07866
G1 X151.331 Y134.501 E1.10073
G1 X151.659 Y134.505 E1.12691
G1 X151.909 Y134.52 E1.1469
G1 X152.217 Y134.559 E1.17169
G1 X152.618 Y134.623 E1.2041
G1 X152.768 Y134.651 E1.21628
G1 X153.132 Y134.734 E1.24608
G1 X153.396 Y134.81 E1.26801
G1 X153.684 Y134.915 E1.29248
G1 X154.56 Y135.295 E1.3687
G1 X155.33 Y135.508 E1.43248
G1 X155.759 Y135.593 E1.46739
G1 X156.073 Y135.676 E1.49331
G1 X156.352 Y135.769 E1.51679
G1 X156.613 Y135.873 E1.53921
G1 X156.841 Y135.978 E1.55925
G1 X156.935 Y136.024 E1.56761
G1 X157.276 Y136.203 E1.59835
G1 X157.403 Y136.275 E1.61
G1 X157.727 Y136.472 E1.64027
G1 X157.961 Y136.635 E1.66303
G1 X158.188 Y136.816 E1.68621
G1 X158.851 Y137.413 E1.75743
G1 X158.856 Y137.406 E1.75811
G1 X159.59 Y137.893 E1.82843
G1 X159.921 Y138.074 E1.85854
G1 X160.172 Y138.232 E1.88222
G1 X160.441 Y138.427 E1.90874
G1 X160.605 Y138.56 E1.92559
G1 X160.878 Y138.809 E1.95509
G1 X161.152 Y139.084 E1.98608
G1 X161.229 Y139.167 E1.99511
G1 X161.499 Y139.475 E2.02781
G1 X161.669 Y139.694 E2.04994
G1 X161.836 Y139.943 E2.07387
G1 X162.319 Y140.765 E2.14998
G1 X162.923 Y141.507 E2.22635
G1 X163.03 Y141.616 E2.23854
G1 X163.076 Y141.669 E2.24414
G1 X163.319 Y141.967 E2.27484
G1 X163.492 Y142.212 E2.29878
G1 X163.709 Y142.568 E2.33206
G1 X163.805 Y142.738 E2.34764
G1 X163.972 Y143.062 E2.37674
G1 X164.028 Y143.182 E2.38731
G1 X164.183 Y143.538 E2.4183
G1 X164.279 Y143.802 E2.44073
G1 X164.366 Y144.096 E2.4652
G1 X164.424 Y144.353 E2.48623
G1 X164.437 Y144.437 E2.49302
G1 X164.586 Y145.098 E2.54711
G1 X164.95 Y146.016 E2.62594
G1 X165.028 Y146.167 E2.6395
G1 X165.075 Y146.269 E2.64847
G1 X165.217 Y146.686 E2.68363
G1 X165.288 Y146.945 E2.70507
G1 X165.34 Y147.187 E2.72483
G1 X165.36 Y147.298 E2.73383
G1 X165.426 Y147.69 E2.76556
G1 X165.447 Y147.853 E2.77868
G1 X165.484 Y148.22 E2.80812
G1 X165.496 Y148.528 E2.83273
G1 X165.487 Y148.816 E2.85573
G1 X165.462 Y149.103 E2.87873
G1 X165.451 Y149.171 E2.88422
G1 X165.389 Y149.844 E2.93817
G1 X165.446 Y150.78 E3.01303
G1 X165.466 Y150.914 E3.02384
G1 X165.492 Y151.214 E3.04788
G1 X165.499 Y151.504 E3.07104
G1 X165.487 Y151.782 E3.09325
G1 X165.455 Y152.106 E3.11924
G1 X165.438 Y152.243 E3.13026
G1 X165.38 Y152.606 E3.1596
G1 X165.354 Y152.742 E3.17065
G1 X165.27 Y153.112 E3.20094
G1 X165.186 Y153.397 E3.22466
G1 X165.082 Y153.683 E3.24895
G1 X164.704 Y154.55 E3.32445
G1 X164.473 Y155.403 E3.39499
G1 X164.418 Y155.706 E3.41957
G1 X164.344 Y156.002 E3.44393
G1 X164.257 Y156.279 E3.4671
G1 X164.161 Y156.532 E3.4887
G1 X164.038 Y156.805 E3.51261
G1 X163.989 Y156.907 E3.52164
G1 X163.812 Y157.253 E3.55266
G1 X163.742 Y157.379 E3.56417
G1 X163.559 Y157.687 E3.59277
G1 X163.388 Y157.936 E3.61688
G1 X163.202 Y158.173 E3.64093
G1 X162.579 Y158.874 E3.71579
G1 X162.088 Y159.627 E3.78755
G1 X162.045 Y159.707 E3.7948
G1 X161.852 Y160.039 E3.82545
G1 X161.687 Y160.285 E3.8491
G1 X161.476 Y160.56 E3.87676
G1 X161.363 Y160.695 E3.89082
G1 X161.212 Y160.857 E3.9085
G1 X160.953 Y161.118 E3.93785
G1 X160.839 Y161.225 E3.95033
G1 X160.556 Y161.476 E3.98052
G1 X160.337 Y161.646 E4.00265
G1 X160.087 Y161.818 E4.02688
G1 X159.847 Y161.96 E4.04914
G1 X159.798 Y161.984 E4.05349
G1 X159.216 Y162.329 E4.1075
G1 X158.92 Y162.574 E4.13817
G1 X158.896 Y162.548 E4.14099
G1 X158.251 Y163.144 E4.2111
G1 X158.046 Y163.311 E4.2322
G1 X157.758 Y163.515 E4.26038
G1 X157.588 Y163.624 E4.2765
G1 X157.364 Y163.751 E4.29705
G1 X156.923 Y163.977 E4.33661
G1 X156.791 Y164.039 E4.34825
G1 X156.446 Y164.187 E4.37821
G1 X156.167 Y164.288 E4.4019
G1 X155.897 Y164.366 E4.42433
G1 X154.974 Y164.571 E4.49981
G1 X154.338 Y164.798 E4.55371
G1 X154.019 Y164.947 E4.58182
G1 X153.942 Y164.981 E4.58853
G1 X153.604 Y165.117 E4.61762
G1 X153.292 Y165.216 E4.64375
G1 X152.801 Y165.335 E4.68407
G1 X152.619 Y165.372 E4.6989
G1 X152.256 Y165.429 E4.72823
G1 X152.106 Y165.448 E4.7403
G1 X151.754 Y165.482 E4.76853
G1 X151.433 Y165.492 E4.79417
G1 X151.149 Y165.482 E4.81685
G1 X150.213 Y165.391 E4.89192
G1 X149.322 Y165.435 E4.96313
G1 X149.028 Y165.476 E4.98682
G1 X148.729 Y165.496 E5.01074
G1 X148.426 Y165.499 E5.03493
G1 X148.162 Y165.485 E5.05604
G1 X147.847 Y165.45 E5.08133
G1 X147.722 Y165.433 E5.0914
G1 X147.373 Y165.376 E5.11963
G1 X147.221 Y165.346 E5.132
G1 X146.847 Y165.26 E5.16263
G1 X146.567 Y165.177 E5.18595
G1 X146.313 Y165.083 E5.20756
G1 X145.477 Y164.713 E5.28054
G1 X145.029 Y164.597 E5.31748
G1 X145.036 Y164.564 E5.32017
G1 X144.189 Y164.392 E5.38917
G1 X143.921 Y164.32 E5.41132
G1 X143.604 Y164.212 E5.43805
G1 X143.387 Y164.125 E5.45671
G1 X143.208 Y164.043 E5.47243
G1 X143.055 Y163.968 E5.48603
G1 X142.752 Y163.812 E5.51323
G1 X142.617 Y163.737 E5.52556
G1 X142.302 Y163.549 E5.55484
G1 X142.053 Y163.379 E5.57891
G1 X141.828 Y163.203 E5.60171
G1 X141.211 Y162.653 E5.66769
G1 X141.126 Y162.578 E5.67674
G1 X140.568 Y162.196 E5.73072
G1 X140.227 Y162.009 E5.76177
G1 X139.965 Y161.856 E5.78598
G1 X139.745 Y161.708 E5.80715
G1 X139.486 Y161.508 E5.83327
G1 X139.159 Y161.215 E5.86832
G1 X139.06 Y161.12 E5.87927
G1 X138.803 Y160.857 E5.90862
G1 X138.717 Y160.762 E5.91885
G1 X138.456 Y160.457 E5.9509
G1 X138.3 Y160.249 E5.97165
G1 X138.121 Y159.978 E5.99758
G1 X137.705 Y159.248 E6.06465
G1 X137.692 Y159.255 E6.06583
G1 X137.339 Y158.776 E6.11332
G1 X137.065 Y158.474 E6.14587
G1 X136.963 Y158.37 E6.1575
G1 X136.897 Y158.293 E6.1656
G1 X136.687 Y158.033 E6.19227
G1 X136.49 Y157.75 E6.2198
G1 X136.26 Y157.37 E6.25526
G1 X136.183 Y157.229 E6.26808
G1 X136.014 Y156.895 E6.29796
G1 X135.954 Y156.765 E6.30939
G1 X135.803 Y156.412 E6.34004
G1 X135.706 Y156.137 E6.36331
G1 X135.63 Y155.871 E6.3854
G1 X135.432 Y154.968 E6.45919
G1 X135.09 Y154.077 E6.53537
G1 X134.993 Y153.879 E6.55297
G1 X134.886 Y153.62 E6.57534
G1 X134.793 Y153.346 E6.59844
G1 X134.712 Y153.053 E6.62271
G1 X134.647 Y152.742 E6.64807
G1 X134.619 Y152.586 E6.66072
G1 X134.561 Y152.201 E6.6918
G1 X134.545 Y152.056 E6.70344
G1 X134.514 Y151.683 E6.73332
G1 X134.508 Y151.394 E6.7564
G1 X134.521 Y151.102 E6.77973
G1 X134.609 Y150.271 E6.84643
G1 X134.603 Y150.27 E6.84692
G1 X134.564 Y149.33 E6.92202
G1 X134.522 Y149.008 E6.94794
G1 X134.502 Y148.718 E6.97114
G1 X134.501 Y148.404 E6.99621
G1 X134.515 Y148.165 E7.01532
G1 X134.549 Y147.852 E7.04045
G1 X134.561 Y147.764 E7.04754
G1 X134.627 Y147.355 E7.08061
G1 X134.65 Y147.24 E7.08997
G1 X134.733 Y146.877 E7.1197
G1 X134.828 Y146.556 E7.14642
G1 X134.918 Y146.31 E7.16733
G1 X135.26 Y145.536 E7.23487
G1 X135.295 Y145.45 E7.24229
G1 X135.538 Y144.545 E7.31709
G1 X135.579 Y144.309 E7.33621
G1 X135.648 Y144.023 E7.35969
G1 X135.736 Y143.741 E7.38327
G1 X135.834 Y143.48 E7.40553
G1 X135.976 Y143.165 E7.43311
G1 X136.03 Y143.054 E7.44296
G1 X136.194 Y142.738 E7.47138
G1 X136.276 Y142.592 E7.48475
G1 X136.471 Y142.27 E7.5148
G1 X136.632 Y142.04 E7.53721
G1 X136.821 Y141.802 E7.56147
G1 X137.42 Y141.138 E7.63285
G1 X137.415 Y141.135 E7.63332
G1 X137.423 Y141.126 E7.63428
G1 X137.925 Y140.36 E7.70738
G1 X138.059 Y140.109 E7.7301
G1 X138.217 Y139.854 E7.75404
G1 X138.389 Y139.614 E7.77761
G1 X138.562 Y139.399 E7.79964
G1 X138.75 Y139.192 E7.82196
G1 X138.842 Y139.095 E7.83263
G0 F7200 X139.2 Y138.745
G1 F1125 X139.2 Y161.251 E9.62916
G0 F7200 X140.8 Y162.354
G1 F1125 X140.8 Y137.659 E11.60042
G0 F7200 X142.4 Y136.398
G1 F1125 X142.4 Y163.607 E13.77236
G0 F7200 X144 Y164.341
G1 F1125 X144 Y135.666 E16.06132
G0 F7200 X145.6 Y135.215
G1 F1125 X145.6 Y164.767 E18.42029
G0 F7200 X147.2 Y165.341
G1 F1125 X147.2 Y134.657 E20.86962
G0 F7200 X148.8 Y134.521
G1 F1125 X148.8 Y165.492 E23.34186
G0 F7200 X150.4 Y165.409
G1 F1125 X150.4 Y134.593 E25.80173
G0 F7200 X152 Y134.532
G1 F1125 X152 Y165.459 E28.27045
G0 F7200 X153.6 Y165.119
G1 F1125 X153.6 Y134.885 E30.68386
G0 F7200 X155.2 Y135.473
G1 F1125 X155.2 Y164.521 E33.0026
G0 F7200 X156.8 Y164.035
G1 F1125 X156.8 Y135.96 E35.24367
G0 F7200 X158.4 Y137.007
G1 F1125 X158.4 Y163.007 E37.3191
G0 F7200 X160 Y161.87
G1 F1125 X160 Y138.124 E39.21461
G0 F7200 X161.6 Y139.606
G1 F1125 X161.6 Y160.399 E40.87439
G0 F7200 X163.2 Y158.176
G1 F1125 X163.2 Y141.822 E42.17984
G0 F7200 X164.8 Y145.638
G1 F1125 X164.8 Y154.33 E42.87367
G1 F3600 E37.87367
G0 F7200 X165.71 Y154.906
G0 X165.259 Y156.639
G0 X164.668 Y157.904
G0 X162.551 Y160.908
G0 X161.562 Y162.008
G0 X160.659 Y162.715
G0 X158.125 Y164.543
G0 X156.833 Y165.18
G0 X153.035 Y166.374
G0 X151.816 Y166.545
G0 X148.064 Y166.545
G0 X146.588 Y166.293
G0 X142.964 Y165.102
G0 X141.735 Y164.451
G0 X138.81 Y162.33
G0 X137.625 Y161.124
G0 X137.443 Y160.879
G0 X136.847 Y159.902
G0 X137.6 Y159.13
G1 F3600 E42.87367
G1 F1125 X137.6 Y140.855 E44.33246
G0 F7200 X136 Y143.115
G1 F1125 X136 Y156.864 E45.42997
G1 F3600 E40.42997
G0 F300 X136 Y156.864 Z0.48
G0 F7200 X136.417 Y157.631
;TIME_ELAPSED:38.649178
;LAYER:-5
;TYPE:SUPPORT
G1 F3600 E45.42997
G1 F1125 X142.383 Y163.596 E46.10341
G1 X142.302 Y163.548 E46.11092
G1 X142.053 Y163.378 E46.13499
G1 X141.827 Y163.202 E46.15785
G1 X141.211 Y162.652 E46.22377
G1 X141.126 Y162.577 E46.23282
G1 X140.567 Y162.195 E46.28687
G1 X140.227 Y162.008 E46.31784
G1 X139.964 Y161.855 E46.34213
G1 X139.744 Y161.707 E46.3633
G1 X139.486 Y161.506 E46.3894
G1 X139.159 Y161.213 E46.42445
G1 X139.06 Y161.119 E46.43535
G1 X138.802 Y160.856 E46.46476
G1 X138.716 Y160.761 E46.47499
G1 X138.455 Y160.456 E46.50703
G1 X138.3 Y160.248 E46.52774
G1 X138.12 Y159.977 E46.55371
G1 X137.704 Y159.247 E46.62078
G1 X137.692 Y159.254 E46.62188
G1 X137.338 Y158.775 E46.66943
G1 X137.064 Y158.473 E46.70198
G1 X136.962 Y158.369 E46.71361
G1 X136.896 Y158.292 E46.7217
G1 X136.687 Y158.032 E46.74833
G1 X136.489 Y157.749 E46.7759
G1 F3600 E41.7759
G0 F7200 X135.833 Y158.668
G0 X137.625 Y161.124
G0 X138.691 Y162.209
G0 X141.429 Y164.242
G0 X142.383 Y163.596
G1 F3600 E46.7759
G1 F1125 X142.616 Y163.736 E46.7976
G1 X142.752 Y163.811 E46.81
G1 X143.055 Y163.967 E46.8372
G1 X143.208 Y164.042 E46.8508
G1 X143.387 Y164.123 E46.86649
G1 X143.603 Y164.211 E46.8851
G1 X143.92 Y164.319 E46.91184
G1 X144.188 Y164.391 E46.93399
G1 X144.694 Y164.493 E46.97519
G1 X135.504 Y155.303 E48.01264
G1 X135.431 Y154.967 E48.04009
G1 X135.089 Y154.075 E48.11634
G1 X134.993 Y153.878 E48.13384
G1 X134.886 Y153.618 E48.15628
G1 X134.793 Y153.345 E48.1793
G1 X134.728 Y153.113 E48.19853
G1 X146.881 Y165.266 E49.57047
G1 X147.221 Y165.345 E49.59833
G1 X147.372 Y165.375 E49.61062
G1 X147.722 Y165.432 E49.63893
G1 X147.846 Y165.449 E49.64892
G1 X148.161 Y165.484 E49.67422
G1 X148.425 Y165.498 E49.69532
G1 X148.526 Y165.496 E49.70338
G1 X134.509 Y151.479 E51.28575
G1 X134.507 Y151.393 E51.29261
G1 X134.52 Y151.1 E51.31602
G1 X134.609 Y150.27 E51.38266
G1 X134.602 Y150.269 E51.38322
G1 X134.597 Y150.154 E51.39241
G1 X149.851 Y165.407 E53.11436
G1 X150.212 Y165.39 E53.14321
G1 X151.149 Y165.48 E53.21835
G1 X151.345 Y165.487 E53.234
G1 X134.501 Y148.643 E55.1355
G1 X134.501 Y148.403 E55.15465
G1 X134.514 Y148.164 E55.17376
G1 X134.548 Y147.851 E55.19889
G1 X134.561 Y147.762 E55.20607
G1 X134.626 Y147.354 E55.23905
G1 X152.638 Y165.366 E57.2724
G1 X152.801 Y165.334 E57.28566
G1 X153.292 Y165.215 E57.32599
G1 X153.604 Y165.115 E57.35214
G1 X153.744 Y165.058 E57.36421
G1 X134.941 Y146.255 E59.48685
G1 X135.259 Y145.535 E59.54968
G1 X135.294 Y145.449 E59.5571
G1 X135.348 Y145.248 E59.57371
G1 X154.75 Y164.649 E61.76392
G1 X154.973 Y164.57 E61.7828
G1 X155.883 Y164.368 E61.85721
G1 X135.625 Y144.111 E64.14405
G1 X135.647 Y144.022 E64.15137
G1 X135.736 Y143.74 E64.17498
G1 X135.833 Y143.479 E64.1972
G1 X135.975 Y143.164 E64.22478
G1 X136.014 Y143.085 E64.23182
G1 X156.91 Y163.981 E66.59074
G1 X156.923 Y163.975 E66.59188
G1 X157.363 Y163.75 E66.63133
G1 X157.587 Y163.623 E66.65188
G1 X157.758 Y163.514 E66.66807
G1 X157.815 Y163.472 E66.67372
G1 X136.528 Y142.185 E69.07678
G1 X136.631 Y142.039 E69.09105
G1 X136.82 Y141.801 E69.11531
G1 X137.17 Y141.413 E69.15702
G1 X158.588 Y162.831 E71.57487
G1 X158.896 Y162.547 E71.60831
G1 X158.92 Y162.573 E71.61113
G1 X159.215 Y162.328 E71.64174
G1 X159.393 Y162.222 E71.65828
G1 X137.768 Y140.596 E74.09955
G1 X137.925 Y140.359 E74.12225
G1 X138.059 Y140.108 E74.14496
G1 X138.216 Y139.852 E74.16893
G1 X138.309 Y139.723 E74.18163
G1 X160.274 Y161.688 E76.66122
G1 X160.337 Y161.645 E76.66731
G1 X160.556 Y161.475 E76.68944
G1 X160.839 Y161.223 E76.71969
G1 X160.953 Y161.117 E76.73212
G1 X161.035 Y161.035 E76.74137
G1 X138.969 Y138.969 E79.23238
G1 X139.096 Y138.841 E79.24677
G1 X139.205 Y138.739 E79.25869
G1 X139.496 Y138.484 E79.28957
G1 X139.712 Y138.317 E79.31137
G1 X139.724 Y138.31 E79.31247
G1 X161.691 Y160.277 E81.7923
G1 X161.851 Y160.039 E81.81519
G1 X162.044 Y159.707 E81.84585
G1 X162.087 Y159.626 E81.85317
G1 X162.232 Y159.404 E81.87433
G1 X140.603 Y137.774 E84.31606
G1 X140.808 Y137.654 E84.33502
G1 X141.405 Y137.162 E84.39677
G1 X162.831 Y158.589 E86.81558
G1 X163.201 Y158.172 E86.86008
G1 X163.387 Y157.935 E86.88413
G1 X163.471 Y157.814 E86.89589
G1 X142.187 Y136.531 E89.29855
G1 X142.228 Y136.502 E89.30256
G1 X142.578 Y136.29 E89.33523
G1 X142.719 Y136.211 E89.34813
G1 X143.063 Y136.034 E89.37901
G1 X143.092 Y136.021 E89.38155
G1 X163.985 Y156.914 E91.74013
G1 X163.987 Y156.906 E91.74079
G1 X164.037 Y156.805 E91.74978
G1 X164.16 Y156.532 E91.77368
G1 X164.256 Y156.279 E91.79528
G1 X164.342 Y156.001 E91.81851
G1 X164.371 Y155.886 E91.82798
G1 X144.119 Y135.634 E94.1142
G1 X145.037 Y135.429 E94.18928
G1 X145.248 Y135.349 E94.2073
G1 X164.649 Y154.749 E96.39739
G1 X164.702 Y154.55 E96.41383
G1 X165.055 Y153.741 E96.48429
G1 X146.253 Y134.939 E98.60682
G1 X146.321 Y134.908 E98.61279
G1 X146.574 Y134.817 E98.63425
G1 X146.877 Y134.73 E98.65941
G1 X147.117 Y134.673 E98.6791
G1 X147.315 Y134.635 E98.6952
G1 X147.358 Y134.63 E98.69865
G1 X165.372 Y152.644 E100.73223
G1 X165.379 Y152.606 E100.73531
G1 X165.437 Y152.242 E100.76474
G1 X165.454 Y152.105 E100.77576
G1 X165.486 Y151.782 E100.80167
G1 X165.497 Y151.503 E100.82395
G1 X165.494 Y151.352 E100.83601
G1 X148.657 Y134.515 E102.73672
G1 X148.852 Y134.523 E102.7523
G1 X149.696 Y134.606 E102.81999
G1 X150.144 Y134.596 E102.85576
G1 X150.144 Y134.623 E102.85792
G1 X150.176 Y134.62 E102.86048
G1 X165.389 Y149.833 E104.57786
G1 X165.45 Y149.171 E104.63093
G1 X165.461 Y149.103 E104.63642
G1 X165.486 Y148.815 E104.6595
G1 X165.495 Y148.527 E104.6825
