;FLAVOR:Marlin
;TIME:1255
;Filament used: 0.568192m
;Layer height: 0.2
;MINX:138.321
;MINY:137.425
;MINZ:0.24
;MAXX:161.683
;MAXY:162.575
;MAXZ:15.29
;Generated with Creality Slicer 4.8.2-205
M140 S60
M105
M190 S60
M104 S200
M105
M109 S200
M82 ;absolute extrusion mode

G28 ;Home

G92 E0 ;Reset Extruder
G1 Z2.0 F3000 ;Move Z Axis up
G1 X10.1 Y20 Z0.28 F5000.0 ;Move to start position
G1 X10.1 Y200.0 Z0.28 F1500.0 E15 ;Draw the first line
G1 X10.4 Y200.0 Z0.28 F5000.0 ;Move to side a little
G1 X10.4 Y20 Z0.28 F1500.0 E30 ;Draw the second line
G92 E0 ;Reset Extruder
G1 Z2.0 F3000 ;Move Z Axis up

G92 E0
G92 E0
G1 F3600 E-5
;LAYER_COUNT:71
;LAYER:-6
M107
G0 F7200 X140.894 Y143.143 Z0.24
;TYPE:SUPPORT-INTERFACE
G1 F3600 E0
G1 F1125 X141.097 Y142.965 E0.02155
G1 X141.338 Y142.778 E0.0459
G1 X141.681 Y142.548 E0.07887
G1 X141.827 Y142.457 E0.0926
G1 X147.563 Y139.145 E0.62132
G1 X147.715 Y139.064 E0.63507
G1 X148.026 Y138.91 E0.66277
G1 X148.309 Y138.791 E0.68727
G1 X148.581 Y138.696 E0.71027
G1 X148.863 Y138.619 E0.73361
G1 X149.128 Y138.563 E0.75523
G1 X149.437 Y138.519 E0.78014
G1 X149.866 Y138.488 E0.81448
G1 X150.02 Y138.482 E0.82678
G1 X150.105 Y138.485 E0.83357
G1 X150.481 Y138.509 E0.86364
G1 X150.779 Y138.546 E0.88761
G1 X151.063 Y138.601 E0.9107
G1 X151.354 Y138.677 E0.93471
G1 X151.608 Y138.76 E0.95604
G1 X151.885 Y138.871 E0.97986
G1 X152.289 Y139.068 E1.01574
G1 X152.459 Y139.157 E1.03106
G1 X158.176 Y142.459 E1.55807
G1 X158.32 Y142.548 E1.57158
G1 X158.621 Y142.749 E1.60047
G1 X158.876 Y142.942 E1.626
G1 X159.074 Y143.114 E1.64693
G1 X159.283 Y143.319 E1.6703
G1 X159.47 Y143.527 E1.69263
G1 X159.659 Y143.768 E1.71708
G1 X159.915 Y144.142 E1.75326
G1 X159.957 Y144.209 E1.75957
G1 X160.002 Y144.291 E1.76704
G1 X160.177 Y144.637 E1.79799
G1 X160.297 Y144.917 E1.8223
G1 X160.393 Y145.188 E1.84525
G1 X160.471 Y145.459 E1.86776
G1 X160.531 Y145.737 E1.89047
G1 X160.577 Y146.048 E1.91556
G1 X160.611 Y146.501 E1.95182
G1 X160.619 Y146.707 E1.96828
G1 X160.619 Y153.338 E2.49759
G1 X160.615 Y153.464 E2.50766
G1 X160.591 Y153.841 E2.53781
G1 X160.554 Y154.139 E2.56178
G1 X160.499 Y154.423 E2.58487
G1 X160.424 Y154.709 E2.60848
G1 X160.342 Y154.961 E2.62963
G1 X160.22 Y155.262 E2.65555
G1 X160.017 Y155.677 E2.69243
G1 X159.953 Y155.797 E2.70329
G1 X159.898 Y155.884 E2.7115
G1 X159.694 Y156.186 E2.7406
G1 X159.512 Y156.421 E2.76432
G1 X159.315 Y156.646 E2.7882
G1 X159.109 Y156.854 E2.81156
G1 X158.903 Y157.035 E2.83345
G1 X158.662 Y157.222 E2.8578
G1 X158.322 Y157.45 E2.89048
G1 X158.176 Y157.541 E2.90421
G1 X152.437 Y160.855 E3.43322
G1 X152.293 Y160.932 E3.44625
G1 X151.974 Y161.09 E3.47467
G1 X151.694 Y161.208 E3.49892
G1 X151.419 Y161.304 E3.52217
G1 X151.137 Y161.381 E3.54551
G1 X150.872 Y161.437 E3.56713
G1 X150.563 Y161.481 E3.59204
G1 X150.134 Y161.512 E3.62638
G1 X149.98 Y161.518 E3.63868
G1 X149.895 Y161.515 E3.64547
G1 X149.519 Y161.491 E3.67554
G1 X149.221 Y161.454 E3.69952
G1 X148.937 Y161.399 E3.72261
G1 X148.646 Y161.323 E3.74661
G1 X148.392 Y161.24 E3.76794
G1 X148.115 Y161.129 E3.79177
G1 X147.711 Y160.932 E3.82764
G1 X147.541 Y160.843 E3.84296
G1 X141.824 Y157.541 E4.36997
G1 X141.669 Y157.445 E4.38452
G1 X141.379 Y157.251 E4.41237
G1 X141.124 Y157.058 E4.4379
G1 X140.926 Y156.886 E4.45884
G1 X140.715 Y156.678 E4.48249
G1 X140.526 Y156.469 E4.50498
G1 X140.341 Y156.233 E4.52892
G1 X140.08 Y155.85 E4.56591
G1 X140.043 Y155.791 E4.57147
G1 X139.992 Y155.698 E4.57994
G1 X139.82 Y155.356 E4.6105
G1 X139.701 Y155.079 E4.63456
G1 X139.61 Y154.819 E4.65655
G1 X139.528 Y154.534 E4.68022
G1 X139.469 Y154.263 E4.70236
G1 X139.423 Y153.952 E4.72746
G1 X139.388 Y153.485 E4.76484
G1 X139.381 Y153.293 E4.78018
G1 X139.381 Y146.662 E5.30949
G1 X139.385 Y146.536 E5.31956
G1 X139.409 Y146.159 E5.34971
G1 X139.446 Y145.861 E5.37368
G1 X139.501 Y145.577 E5.39677
G1 X139.576 Y145.291 E5.42037
G1 X139.658 Y145.039 E5.44153
G1 X139.78 Y144.738 E5.46745
G1 X139.983 Y144.323 E5.50433
G1 X140.049 Y144.199 E5.51554
G1 X140.102 Y144.116 E5.52341
G1 X140.306 Y143.814 E5.5525
G1 X140.488 Y143.579 E5.57622
G1 X140.685 Y143.354 E5.6001
G1 X140.894 Y143.143 E5.6238
G0 F7200 X140.8 Y143.237
G1 F1125 X140.8 Y156.761 E6.70335
G0 F7200 X142.4 Y157.873
G1 F1125 X142.4 Y142.126 E7.96034
G0 F7200 X144 Y141.202
G1 F1125 X144 Y158.797 E9.36485
G0 F7200 X145.6 Y159.721
G1 F1125 X145.6 Y140.278 E10.91687
G0 F7200 X147.2 Y139.354
G1 F1125 X147.2 Y160.646 E12.61649
G0 F7200 X148.8 Y161.363
G1 F1125 X148.8 Y138.636 E14.43066
G0 F7200 X150.4 Y138.504
G1 F1125 X150.4 Y161.493 E16.26574
G0 F7200 X152 Y161.078
G1 F1125 X152 Y138.928 E18.03385
G0 F7200 X153.6 Y139.817
G1 F1125 X153.6 Y160.184 E19.65963
G0 F7200 X155.2 Y159.26
G1 F1125 X155.2 Y140.741 E21.1379
G0 F7200 X156.8 Y141.665
G1 F1125 X156.8 Y158.336 E22.46865
G0 F7200 X158.4 Y157.398
G1 F1125 X158.4 Y142.602 E23.64973
G0 F7200 X160 Y144.288
G1 F1125 X160 Y155.709 E24.5614
G1 F3600 E19.5614
G0 F300 X160 Y155.709 Z0.54
G0 F7200 X161.195 Y155.691
G0 X161.539 Y154.656
G0 X161.683 Y153.361
G0 X161.674 Y146.448
G0 X161.539 Y145.448
G0 X161.287 Y144.524
G0 X160.159 Y144.603
;TIME_ELAPSED:23.079983
;LAYER:-5
;TYPE:SUPPORT
G1 F3600 E24.5614
G1 F1125 X157.797 Y142.241 E24.89471
G1 X158.175 Y142.459 E24.93825
G1 X158.319 Y142.547 E24.95509
G1 X158.62 Y142.748 E24.9912
G1 X158.875 Y142.941 E25.02311
G1 X159.073 Y143.114 E25.04935
G1 X159.282 Y143.318 E25.07849
G1 X159.469 Y143.527 E25.10647
G1 X159.658 Y143.768 E25.13703
G1 X159.914 Y144.141 E25.18217
G1 X159.956 Y144.208 E25.19006
G1 X160.001 Y144.29 E25.1994
G0 F7200 X157.797 Y142.241
G1 F1125 X154.449 Y140.307 E25.58519
G1 X160.607 Y146.465 E26.45415
G1 X160.61 Y146.5 E26.45766
G1 X160.618 Y146.706 E26.47823
G1 X160.618 Y147.89 E26.59637
G1 X151.431 Y138.703 E27.89275
G1 X151.352 Y138.677 E27.90105
G1 X151.062 Y138.601 E27.93096
G1 X150.778 Y138.545 E27.95985
G1 X150.48 Y138.508 E27.98981
G1 X150.103 Y138.484 E28.0275
G1 X150.019 Y138.481 E28.03589
G1 X149.865 Y138.488 E28.05127
G1 X149.806 Y138.492 E28.05717
G1 X160.618 Y149.304 E29.58286
G1 X160.618 Y150.719 E29.72405
G1 X148.592 Y138.693 E31.42105
G1 X148.58 Y138.696 E31.42229
G1 X148.308 Y138.79 E31.451
G1 X148.025 Y138.91 E31.48167
G1 X147.714 Y139.063 E31.51626
G1 X147.607 Y139.121 E31.5284
G1 X160.618 Y152.133 E33.36446
G1 X160.618 Y153.338 E33.4847
G1 X160.614 Y153.464 E33.49728
G1 X160.61 Y153.539 E33.50477
G1 X146.709 Y139.638 E35.46635
G1 X145.812 Y140.155 E35.56966
G1 X160.409 Y154.752 E37.62945
G1 X160.34 Y154.961 E37.65141
G1 X160.219 Y155.262 E37.68378
G1 X160.016 Y155.677 E37.72988
G1 X159.982 Y155.74 E37.73702
G1 X144.916 Y140.673 E39.86307
G1 X144.019 Y141.191 E39.96643
G1 X159.389 Y156.561 E42.1353
G1 X159.314 Y156.646 E42.14661
G1 X159.108 Y156.853 E42.17575
G1 X158.901 Y157.034 E42.20319
G1 X158.661 Y157.221 E42.23354
G1 X158.645 Y157.231 E42.23543
G1 X143.123 Y141.709 E44.42575
G1 X142.226 Y142.226 E44.52905
G1 X157.772 Y157.772 E46.72276
G1 X156.875 Y158.29 E46.82612
G1 X141.353 Y142.767 E49.01651
G1 X141.337 Y142.777 E49.01839
G1 X141.097 Y142.964 E49.04875
G1 X140.893 Y143.142 E49.07577
G1 X140.684 Y143.353 E49.1054
G1 X140.609 Y143.438 E49.11671
G1 X155.979 Y158.807 E51.28551
G1 X155.082 Y159.325 E51.38887
G1 X140.016 Y144.258 E53.51491
G1 X139.983 Y144.321 E53.52201
G1 X139.78 Y144.736 E53.56811
G1 X139.658 Y145.038 E53.60061
G1 X139.589 Y145.246 E53.62247
G1 X154.186 Y159.842 E55.6822
G1 X153.29 Y160.361 E55.78552
G1 X139.389 Y146.46 E57.7471
G1 X139.384 Y146.535 E57.7546
G1 X139.38 Y146.661 E57.76718
G1 X139.38 Y147.865 E57.88731
G1 X152.392 Y160.877 E59.72344
G1 X152.293 Y160.931 E59.7347
G1 X151.974 Y161.088 E59.77017
G1 X151.694 Y161.207 E59.80053
G1 X151.419 Y161.303 E59.82959
G1 X151.406 Y161.305 E59.83091
G1 X139.38 Y149.28 E61.52783
G1 X139.38 Y150.694 E61.66892
G1 X150.193 Y161.506 E63.19468
G1 X150.133 Y161.51 E63.20068
G1 X149.98 Y161.517 E63.21597
G1 X149.895 Y161.514 E63.22445
G1 X149.519 Y161.49 E63.26205
G1 X149.22 Y161.453 E63.29211
G1 X148.937 Y161.397 E63.32089
G1 X148.646 Y161.322 E63.35088
G1 X148.568 Y161.296 E63.35908
G1 X139.38 Y152.108 E64.65561
G1 X139.38 Y153.292 E64.77375
G1 X139.387 Y153.484 E64.79292
G1 X139.391 Y153.533 E64.79783
G1 X145.549 Y159.691 E65.66679
G1 X142.202 Y157.758 E66.05245
G1 X139.84 Y155.397 E66.38568
G0 F7200 X139.992 Y155.697
G1 F1125 X140.043 Y155.79 E66.39626
G1 X140.079 Y155.849 E66.40316
G1 X140.34 Y156.232 E66.4494
G1 X140.526 Y156.468 E66.47939
G1 X140.714 Y156.677 E66.50744
G1 X140.925 Y156.885 E66.537
G1 X141.123 Y157.057 E66.56317
G1 X141.378 Y157.25 E66.59508
G1 X141.668 Y157.444 E66.62989
G1 X141.824 Y157.54 E66.64817
G1 X142.202 Y157.758 E66.69171
G1 F3600 E61.69171
G0 F300 X142.202 Y157.758 Z0.74
G0 F7200 X141.669 Y158.681
G0 X147.236 Y161.885
G0 X147.866 Y162.145
G0 X148.704 Y162.439
G0 X149.189 Y161.652
;TIME_ELAPSED:47.200113
;LAYER:-4
;TYPE:SUPPORT-INTERFACE
G1 F3600 E66.69171
G1 F1500 X149.492 Y161.69 E66.70187
G1 X149.896 Y161.715 E66.71533
G1 X150.143 Y161.712 E66.72355
G1 X150.576 Y161.681 E66.73798
G1 X150.899 Y161.635 E66.74884
G1 X151.066 Y161.6 E66.75451
G1 X148.919 Y161.6 E66.82592
G1 X148.894 Y161.595 E66.82677
G1 X148.597 Y161.517 E66.83698
G1 X148.329 Y161.43 E66.84635
G1 X148.025 Y161.308 E66.85725
G1 X147.804 Y161.2 E66.86543
G1 X152.202 Y161.2 E67.01171
G1 X152.379 Y161.112 E67.01828
G1 X152.531 Y161.031 E67.02401
G1 X152.931 Y160.8 E67.03937
G1 X147.067 Y160.8 E67.23441
G1 X146.374 Y160.4 E67.26102
G1 X153.623 Y160.4 E67.50213
G1 X154.316 Y160 E67.52874
G1 X145.681 Y160 E67.81594
G1 X144.989 Y159.6 E67.84253
G1 X155.009 Y159.6 E68.17579
G1 X155.702 Y159.2 E68.20241
G1 X144.296 Y159.2 E68.58177
G1 X143.603 Y158.8 E68.60838
G1 X156.394 Y158.8 E69.03382
G1 X157.087 Y158.4 E69.06043
G1 X142.911 Y158.4 E69.53192
G1 X142.218 Y158 E69.55854
G1 X157.78 Y158 E70.07613
G1 X158.279 Y157.712 E70.09529
G1 X158.436 Y157.614 E70.10145
G1 X158.456 Y157.6 E70.10226
G1 X141.54 Y157.6 E70.66489
G1 X141.261 Y157.414 E70.67604
G1 X141.009 Y157.223 E70.68656
G1 X140.982 Y157.2 E70.68774
G1 X159.017 Y157.2 E71.28759
G1 X159.025 Y157.194 E71.28792
G1 X159.249 Y156.996 E71.29786
G1 X159.444 Y156.8 E71.30706
G1 X140.555 Y156.8 E71.93531
G1 X140.367 Y156.59 E71.94468
G1 X140.217 Y156.4 E71.95274
G1 X159.781 Y156.4 E72.60344
G1 X159.845 Y156.318 E72.6069
G1 X160.06 Y156 E72.61966
G1 X139.94 Y156 E73.28886
G1 X139.915 Y155.963 E73.29034
G1 X139.816 Y155.793 E73.29689
G1 X139.718 Y155.6 E73.30408
G1 X160.277 Y155.6 E73.98788
G1 X160.408 Y155.332 E73.9978
G1 X160.461 Y155.2 E74.00253
G1 X139.535 Y155.2 E74.69853
G1 X139.514 Y155.15 E74.70034
G1 X139.418 Y154.876 E74.70999
G1 X139.396 Y154.8 E74.71263
G1 X160.605 Y154.8 E75.41804
G1 X160.618 Y154.761 E75.41941
G1 X160.695 Y154.466 E75.42955
G1 X160.707 Y154.4 E75.43178
G1 X139.293 Y154.4 E76.14401
G1 X139.272 Y154.302 E76.14735
G1 X139.227 Y154 E76.1575
G1 X160.773 Y154 E76.87412
G1 X160.79 Y153.868 E76.87855
G1 X160.806 Y153.6 E76.88748
G1 X139.195 Y153.6 E77.60626
G1 X139.189 Y153.507 E77.60936
G1 X139.181 Y153.309 E77.61595
G1 X139.181 Y153.2 E77.61958
G1 X160.819 Y153.2 E78.33926
G1 X160.819 Y152.8 E78.35257
G1 X139.181 Y152.8 E79.07225
G1 X139.181 Y152.4 E79.08555
G1 X160.819 Y152.4 E79.80524
G1 X160.819 Y152 E79.81854
G1 X139.181 Y152 E80.53822
G1 X139.181 Y151.6 E80.55153
G1 X160.819 Y151.6 E81.27121
G1 X160.819 Y151.2 E81.28451
G1 X139.181 Y151.2 E82.0042
G1 X139.181 Y150.8 E82.0175
G1 X160.819 Y150.8 E82.73718
G1 X160.819 Y150.4 E82.75049
G1 X139.181 Y150.4 E83.47017
G1 X139.181 Y150 E83.48348
G1 X160.819 Y150 E84.20316
G1 X160.819 Y149.6 E84.21646
G1 X139.181 Y149.6 E84.93614
G1 X139.181 Y149.2 E84.94945
G1 X160.819 Y149.2 E85.66913
G1 X160.819 Y148.8 E85.68244
G1 X139.181 Y148.8 E86.40212
G1 X139.181 Y148.4 E86.41542
G1 X160.819 Y148.4 E87.13511
G1 X160.819 Y148 E87.14841
G1 X139.181 Y148 E87.86809
G1 X139.181 Y147.6 E87.8814
G1 X160.819 Y147.6 E88.60108
G1 X160.819 Y147.2 E88.61438
G1 X139.181 Y147.2 E89.33407
G1 X139.181 Y146.8 E89.34737
G1 X160.819 Y146.8 E90.06705
G1 X160.819 Y146.691 E90.07068
G1 X160.811 Y146.493 E90.07727
G1 X160.805 Y146.4 E90.08037
G1 X139.194 Y146.4 E90.79915
G1 X139.21 Y146.132 E90.80808
G1 X139.227 Y146 E90.81251
G1 X160.773 Y146 E91.52913
G1 X160.728 Y145.698 E91.53929
G1 X160.707 Y145.6 E91.54262
G1 X139.293 Y145.6 E92.25485
G1 X139.306 Y145.528 E92.25729
G1 X139.382 Y145.239 E92.26723
G1 X139.395 Y145.2 E92.26859
G1 X160.604 Y145.2 E92.97401
G1 X160.581 Y145.121 E92.97674
G1 X160.479 Y144.833 E92.98691
G1 X160.465 Y144.8 E92.9881
G1 X139.539 Y144.8 E93.6841
G1 X139.592 Y144.668 E93.68883
G1 X139.723 Y144.4 E93.69875
G1 X160.282 Y144.4 E94.38255
G1 X160.184 Y144.207 E94.38975
G1 X160.076 Y144.023 E94.39684
G1 X160.061 Y144 E94.39776
G1 X139.94 Y144 E95.06698
G1 X140.155 Y143.682 E95.07975
G1 X140.219 Y143.6 E95.08321
G1 X159.783 Y143.6 E95.73391
G1 X159.633 Y143.41 E95.74196
G1 X159.445 Y143.2 E95.75134
G1 X140.556 Y143.2 E96.37959
G1 X140.752 Y143.002 E96.38886
G1 X140.977 Y142.804 E96.39882
G1 X140.983 Y142.8 E96.39906
G1 X159.018 Y142.8 E96.99891
G1 X158.991 Y142.777 E97.00009
G1 X158.739 Y142.586 E97.01061
G1 X158.46 Y142.4 E97.02176
G1 X141.544 Y142.4 E97.58439
G1 X141.564 Y142.386 E97.5852
G1 X141.721 Y142.288 E97.59136
G1 X142.22 Y142 E97.61052
G1 X157.782 Y142 E98.12811
G1 X157.089 Y141.6 E98.15473
G1 X142.913 Y141.6 E98.62622
G1 X143.606 Y141.2 E98.65284
G1 X156.397 Y141.2 E99.07827
G1 X155.704 Y140.8 E99.10488
G1 X144.298 Y140.8 E99.48424
G1 X144.991 Y140.4 E99.51086
G1 X155.011 Y140.4 E99.84412
G1 X154.319 Y140 E99.87071
G1 X145.684 Y140 E100.15791
G1 X146.377 Y139.6 E100.18452
G1 X153.626 Y139.6 E100.42563
G1 X152.933 Y139.2 E100.45224
G1 X147.069 Y139.2 E100.64728
G1 X147.469 Y138.969 E100.66264
G1 X147.621 Y138.888 E100.66837
G1 X147.798 Y138.8 E100.67494
G1 X152.196 Y138.8 E100.82122
G1 X151.975 Y138.692 E100.8294
G1 X151.671 Y138.57 E100.8403
G1 X151.401 Y138.482 E100.84974
G1 X151.106 Y138.405 E100.85988
G1 X151.081 Y138.4 E100.86073
G1 X148.934 Y138.4 E100.93214
G1 X149.101 Y138.365 E100.93781
G1 X149.424 Y138.319 E100.94867
G1 X149.857 Y138.288 E100.9631
G1 X150.104 Y138.285 E100.97132
G1 X150.508 Y138.31 E100.98478
G1 X150.811 Y138.348 E100.99494
G1 F3600 E95.99494
G0 F300 X150.811 Y138.348 Z0.94
G0 F7200 X150.917 Y137.49
G0 X149.814 Y137.425
G0 X148.602 Y137.586
G0 X147.589 Y137.938
G0 X140.716 Y141.914
G0 X139.904 Y142.63
G0 X139.127 Y143.665
G0 X138.659 Y144.672
G0 X138.445 Y145.498
G0 X138.321 Y146.482
G0 X139.184 Y146.535
;TIME_ELAPSED:91.787820
;LAYER:-3
;TYPE:SUPPORT-INTERFACE
G1 F3600 E100.99494
G1 F1500 X139.18 Y146.654 E100.9989
G1 X139.18 Y153.308 E101.22021
G1 X139.188 Y153.506 E101.2268
G1 X139.199 Y153.656 E101.23181
G1 X139.199 Y146.292 E101.47673
G1 X139.209 Y146.131 E101.4821
G1 X139.246 Y145.834 E101.49205
G1 X139.305 Y145.527 E101.50245
G1 X139.381 Y145.238 E101.51239
G1 X139.472 Y144.961 E101.52209
G1 X139.591 Y144.667 E101.53264
G1 X139.599 Y144.65 E101.53326
G1 X139.599 Y155.349 E101.88911
G1 X139.638 Y155.441 E101.89244
G1 X139.815 Y155.792 E101.90551
G1 X139.914 Y155.962 E101.91205
G1 X139.999 Y156.086 E101.91705
G1 X139.999 Y143.909 E102.32206
G1 X140.154 Y143.681 E102.33123
G1 X140.331 Y143.451 E102.34089
G1 X140.399 Y143.373 E102.34433
G1 X140.399 Y156.625 E102.78509
G1 X140.566 Y156.812 E102.79343
G1 X140.795 Y157.037 E102.80411
G1 X140.799 Y157.04 E102.80427
G1 X140.799 Y142.958 E103.27264
G1 X140.976 Y142.803 E103.28047
G1 X141.199 Y142.631 E103.28983
G1 X141.199 Y157.366 E103.77992
G1 X141.26 Y157.413 E103.78248
G1 X141.562 Y157.614 E103.79455
G1 X141.599 Y157.636 E103.79598
G1 X141.599 Y142.362 E104.304
G1 X141.72 Y142.287 E104.30873
G1 X141.999 Y142.125 E104.31946
G1 X141.999 Y157.872 E104.84321
G1 X142.399 Y158.103 E104.85857
G1 X142.399 Y141.894 E105.39769
G1 X142.799 Y141.663 E105.41305
G1 X142.799 Y158.334 E105.96753
G1 X143.199 Y158.565 E105.98289
G1 X143.199 Y141.432 E106.55274
G1 X143.599 Y141.202 E106.56808
G1 X143.599 Y158.796 E107.15326
G1 X143.999 Y159.027 E107.16863
G1 X143.999 Y140.971 E107.76917
G1 X144.399 Y140.74 E107.78454
