;FLAVOR:Marlin
;TIME:9132
;Filament used: 5.46757m
;Layer height: 0.16
;MINX:123.393
;MINY:123.387
;MINZ:0.24
;MAXX:176.593
;MAXY:176.447
;MAXZ:41.87
;Generated with Creality Slicer 4.8.2-205
M140 S60
M105
M190 S60
M104 S200
M105
M109 S200
M82 ;absolute extrusion mode

G28 ;Home

G92 E0 ;Reset Extruder
G1 Z2.0 F3000 ;Move Z Axis up
G1 X10.1 Y20 Z0.28 F5000.0 ;Move to start position
G1 X10.1 Y200.0 Z0.28 F1500.0 E15 ;Draw the first line
G1 X10.4 Y200.0 Z0.28 F5000.0 ;Move to side a little
G1 X10.4 Y20 Z0.28 F1500.0 E30 ;Draw the second line
G92 E0 ;Reset Extruder
G1 Z2.0 F3000 ;Move Z Axis up

G92 E0
G92 E0
G1 F3600 E-5
;LAYER_COUNT:213
;LAYER:-6
M107
G0 F7200 X131.02 Y132.847 Z0.24
;TYPE:SUPPORT-INTERFACE
G1 F3600 E0
G1 F1125 X131.228 Y132.656 E0.02254
G1 X131.59 Y132.366 E0.05957
G1 X132.082 Y131.918 E0.11268
G1 X132.36 Y131.607 E0.14598
G1 X132.676 Y131.222 E0.18574
G1 X133.1 Y130.786 E0.23429
G1 X133.229 Y130.665 E0.2484
G1 X133.533 Y130.405 E0.28034
G1 X133.637 Y130.321 E0.29101
G1 X133.949 Y130.086 E0.32219
G1 X134.184 Y129.932 E0.34461
G1 X134.554 Y129.72 E0.37865
G1 X135.11 Y129.354 E0.43179
G1 X135.432 Y129.092 E0.46493
G1 X135.829 Y128.742 E0.50717
G1 X136.301 Y128.387 E0.55432
G1 X136.478 Y128.265 E0.57148
G1 X136.798 Y128.069 E0.60143
G1 X136.917 Y128 E0.61241
G1 X137.239 Y127.829 E0.64152
G1 X137.523 Y127.701 E0.66638
G1 X137.935 Y127.544 E0.70158
G1 X138.54 Y127.27 E0.75459
G1 X138.903 Y127.059 E0.78811
G1 X139.322 Y126.791 E0.82781
G1 X139.845 Y126.514 E0.87505
G1 X140.04 Y126.421 E0.8923
G1 X140.375 Y126.283 E0.92122
G1 X140.522 Y126.226 E0.93381
G1 X140.877 Y126.103 E0.9638
G1 X141.161 Y126.025 E0.98731
G1 X141.566 Y125.941 E1.02032
G1 X142.207 Y125.765 E1.07338
G1 X142.58 Y125.621 E1.1053
G1 X143.109 Y125.395 E1.15122
G1 X143.645 Y125.213 E1.1964
G1 X143.868 Y125.149 E1.21492
G1 X144.217 Y125.065 E1.24358
G1 X144.404 Y125.027 E1.25881
G1 X144.731 Y124.97 E1.28531
G1 X145.043 Y124.936 E1.31036
G1 X145.44 Y124.918 E1.34208
G1 X146.102 Y124.846 E1.39524
G1 X146.616 Y124.731 E1.43728
G1 X146.973 Y124.633 E1.46683
G1 X147.286 Y124.567 E1.49237
G1 X147.494 Y124.533 E1.50919
G1 X147.734 Y124.508 E1.52845
G1 X148.222 Y124.469 E1.56753
G1 X148.366 Y124.463 E1.57903
G1 X148.726 Y124.457 E1.60778
G1 X149.017 Y124.471 E1.63103
G1 X149.404 Y124.514 E1.66211
G1 X150.07 Y124.545 E1.71533
G1 X150.6 Y124.509 E1.75774
G1 X150.961 Y124.467 E1.78675
G1 X151.281 Y124.451 E1.81233
G1 X151.515 Y124.449 E1.831
G1 X151.719 Y124.459 E1.84731
G1 X152.2 Y124.495 E1.88581
G1 X152.361 Y124.513 E1.89874
G1 X152.721 Y124.563 E1.92776
G1 X153.009 Y124.622 E1.95122
G1 X153.443 Y124.74 E1.98712
G1 X154.095 Y124.874 E2.04026
G1 X154.508 Y124.916 E2.07339
G1 X154.995 Y124.946 E2.11234
G1 X155.6 Y125.032 E2.16112
G1 X155.797 Y125.069 E2.17712
G1 X156.175 Y125.159 E2.20814
G1 X156.312 Y125.196 E2.21947
G1 X156.678 Y125.309 E2.25004
G1 X156.954 Y125.414 E2.27362
G1 X157.323 Y125.582 E2.30598
G1 X157.947 Y125.817 E2.35921
G1 X158.354 Y125.926 E2.39284
G1 X158.867 Y126.04 E2.43479
G1 X159.414 Y126.207 E2.48044
G1 X159.611 Y126.278 E2.49716
G1 X159.953 Y126.418 E2.52666
G1 X160.098 Y126.482 E2.53931
G1 X160.459 Y126.657 E2.57133
G1 X160.684 Y126.784 E2.59196
G1 X161.073 Y127.039 E2.62908
G1 X161.651 Y127.367 E2.68213
G1 X162.03 Y127.533 E2.71516
G1 X162.492 Y127.714 E2.75477
G1 X163.029 Y127.975 E2.80243
G1 X163.184 Y128.059 E2.8165
G1 X163.532 Y128.268 E2.84891
G1 X163.631 Y128.332 E2.85832
G1 X163.941 Y128.546 E2.88839
G1 X164.183 Y128.738 E2.91305
G1 X164.829 Y129.318 E2.98235
G1 X164.837 Y129.309 E2.98331
G1 X165.386 Y129.682 E3.03629
G1 X165.837 Y129.949 E3.07813
G1 X166.319 Y130.286 E3.12507
G1 X166.499 Y130.426 E3.14327
G1 X166.77 Y130.657 E3.1717
G1 X166.881 Y130.756 E3.18357
G1 X167.153 Y131.02 E3.21383
G1 X167.344 Y131.228 E3.23637
G1 X167.634 Y131.59 E3.2734
G1 X168.082 Y132.082 E3.32651
G1 X168.393 Y132.36 E3.35981
G1 X168.778 Y132.676 E3.39957
G1 X169.214 Y133.1 E3.44812
G1 X169.335 Y133.229 E3.46223
G1 X169.595 Y133.533 E3.49417
G1 X169.679 Y133.637 E3.50484
G1 X169.914 Y133.949 E3.53602
G1 X170.065 Y134.178 E3.55791
G1 X170.28 Y134.554 E3.59249
G1 X170.646 Y135.11 E3.64562
G1 X170.908 Y135.432 E3.67876
G1 X171.258 Y135.829 E3.72101
G1 X171.613 Y136.301 E3.76815
G1 X171.729 Y136.47 E3.78451
G1 X171.936 Y136.805 E3.81595
G1 X171.993 Y136.904 E3.82507
G1 X172.171 Y137.239 E3.85535
G1 X172.299 Y137.523 E3.88021
G1 X172.456 Y137.935 E3.91541
G1 X172.73 Y138.54 E3.96842
G1 X172.941 Y138.903 E4.00194
G1 X173.209 Y139.322 E4.04164
G1 X173.482 Y139.836 E4.0881
G1 X173.579 Y140.04 E4.10613
G1 X173.717 Y140.375 E4.13505
G1 X173.769 Y140.508 E4.14645
G1 X173.897 Y140.877 E4.17763
G1 X173.975 Y141.161 E4.20114
G1 X174.059 Y141.566 E4.23416
G1 X174.235 Y142.207 E4.28722
G1 X174.379 Y142.58 E4.31913
G1 X174.605 Y143.109 E4.36505
G1 X174.784 Y143.636 E4.40948
G1 X174.854 Y143.877 E4.42951
G1 X174.934 Y144.212 E4.45701
G1 X174.968 Y144.377 E4.47045
G1 X175.03 Y144.731 E4.49914
G1 X175.064 Y145.043 E4.52419
G1 X175.082 Y145.44 E4.55592
G1 X175.154 Y146.102 E4.60907
G1 X175.269 Y146.616 E4.65112
G1 X175.367 Y146.973 E4.68067
G1 X175.433 Y147.286 E4.7062
G1 X175.469 Y147.509 E4.72423
G1 X175.492 Y147.727 E4.74173
G1 X175.53 Y148.215 E4.7808
G1 X175.537 Y148.368 E4.79303
G1 X175.543 Y148.72 E4.82113
G1 X175.529 Y149.017 E4.84487
G1 X175.486 Y149.404 E4.87595
G1 X175.455 Y150.07 E4.92917
G1 X175.491 Y150.6 E4.97157
G1 X175.532 Y150.951 E4.99978
G1 X175.549 Y151.281 E5.02616
G1 X175.551 Y151.511 E5.04452
G1 X175.541 Y151.719 E5.06114
G1 X175.505 Y152.198 E5.09949
G1 X175.487 Y152.361 E5.11258
G1 X175.438 Y152.714 E5.14102
G1 X175.378 Y153.009 E5.16506
G1 X175.26 Y153.443 E5.20096
G1 X175.126 Y154.095 E5.25409
G1 X175.084 Y154.508 E5.28723
G1 X175.055 Y154.986 E5.32545
G1 X174.97 Y155.591 E5.37422
G1 X174.932 Y155.793 E5.39063
G1 X174.841 Y156.175 E5.42198
G1 X174.804 Y156.312 E5.4333
G1 X174.691 Y156.678 E5.46388
G1 X174.586 Y156.954 E5.48745
G1 X174.418 Y157.323 E5.51982
G1 X174.183 Y157.947 E5.57304
G1 X174.074 Y158.354 E5.60667
G1 X173.963 Y158.855 E5.64764
G1 X173.793 Y159.409 E5.69389
G1 X173.717 Y159.623 E5.71202
G1 X173.581 Y159.956 E5.74073
G1 X173.517 Y160.099 E5.75324
G1 X173.346 Y160.453 E5.78462
G1 X173.216 Y160.684 E5.80578
G1 X172.961 Y161.073 E5.84291
G1 X172.633 Y161.651 E5.89596
G1 X172.467 Y162.03 E5.92899
G1 X172.286 Y162.492 E5.9686
G1 X172.026 Y163.027 E6.01608
G1 X171.945 Y163.178 E6.02976
G1 X171.733 Y163.531 E6.06263
G1 X171.668 Y163.631 E6.07215
G1 X171.454 Y163.94 E6.10215
G1 X171.264 Y164.18 E6.12658
G1 X170.682 Y164.829 E6.19617
G1 X170.691 Y164.837 E6.19713
G1 X170.318 Y165.386 E6.25011
G1 X170.051 Y165.837 E6.29195
G1 X169.714 Y166.319 E6.3389
G1 X169.574 Y166.499 E6.3571
G1 X169.35 Y166.762 E6.38468
G1 X169.23 Y166.895 E6.39897
G1 X168.98 Y167.153 E6.42765
G1 X168.772 Y167.344 E6.45019
G1 X168.41 Y167.634 E6.48722
G1 X167.918 Y168.082 E6.54033
G1 X167.64 Y168.393 E6.57363
G1 X167.324 Y168.778 E6.61339
G1 X166.9 Y169.214 E6.66194
G1 X166.771 Y169.335 E6.67606
G1 X166.467 Y169.595 E6.70799
G1 X166.363 Y169.679 E6.71866
G1 X166.053 Y169.913 E6.74966
G1 X165.816 Y170.068 E6.77227
G1 X165.446 Y170.28 E6.80631
G1 X164.89 Y170.646 E6.85944
G1 X164.568 Y170.908 E6.89258
G1 X164.171 Y171.258 E6.93483
G1 X163.699 Y171.613 E6.98197
G1 X163.526 Y171.732 E6.99873
G1 X163.194 Y171.936 E7.02984
G1 X163.106 Y171.987 E7.03796
G1 X162.76 Y172.171 E7.06924
G1 X162.477 Y172.299 E7.09403
G1 X162.065 Y172.456 E7.12923
G1 X161.46 Y172.73 E7.18224
G1 X161.097 Y172.941 E7.21576
G1 X160.678 Y173.209 E7.25546
G1 X160.155 Y173.486 E7.3027
G1 X159.96 Y173.579 E7.31995
G1 X159.625 Y173.717 E7.34887
G1 X159.482 Y173.772 E7.3611
G1 X159.123 Y173.897 E7.39144
G1 X158.839 Y173.975 E7.41495
G1 X158.434 Y174.059 E7.44797
G1 X157.793 Y174.235 E7.50103
G1 X157.42 Y174.379 E7.53295
G1 X156.891 Y174.605 E7.57887
G1 X156.355 Y174.787 E7.62405
G1 X156.132 Y174.851 E7.64257
G1 X155.783 Y174.935 E7.67123
G1 X155.599 Y174.972 E7.68621
G1 X155.269 Y175.03 E7.71295
G1 X154.957 Y175.064 E7.73801
G1 X154.56 Y175.082 E7.76973
G1 X153.898 Y175.154 E7.82288
G1 X153.384 Y175.269 E7.86493
G1 X153.027 Y175.367 E7.89448
G1 X152.714 Y175.433 E7.92001
G1 X152.506 Y175.467 E7.93684
G1 X152.266 Y175.492 E7.9561
G1 X151.778 Y175.531 E7.99518
G1 X151.634 Y175.537 E8.00668
G1 X151.274 Y175.543 E8.03542
G1 X150.983 Y175.529 E8.05868
G1 X150.596 Y175.486 E8.08976
G1 X149.93 Y175.455 E8.14298
G1 X149.4 Y175.491 E8.18539
G1 X149.039 Y175.533 E8.2144
G1 X148.719 Y175.549 E8.23997
G1 X148.485 Y175.551 E8.25865
G1 X148.281 Y175.541 E8.27496
G1 X147.8 Y175.505 E8.31346
G1 X147.639 Y175.487 E8.32639
G1 X147.279 Y175.437 E8.3554
G1 X146.991 Y175.378 E8.37887
G1 X146.557 Y175.26 E8.41477
G1 X145.905 Y175.126 E8.4679
G1 X145.492 Y175.084 E8.50104
G1 X145.005 Y175.054 E8.53999
G1 X144.4 Y174.968 E8.58877
G1 X144.203 Y174.931 E8.60477
G1 X143.825 Y174.841 E8.63579
G1 X143.688 Y174.804 E8.64711
G1 X143.322 Y174.691 E8.67769
G1 X143.046 Y174.586 E8.70126
G1 X142.677 Y174.418 E8.73363
G1 X142.053 Y174.183 E8.78685
G1 X141.646 Y174.074 E8.82049
G1 X141.133 Y173.96 E8.86243
G1 X140.586 Y173.793 E8.90809
G1 X140.389 Y173.722 E8.9248
G1 X140.042 Y173.58 E8.95473
G1 X139.897 Y173.515 E8.96742
G1 X139.541 Y173.343 E8.99898
G1 X139.316 Y173.216 E9.0196
G1 X138.927 Y172.961 E9.05673
G1 X138.349 Y172.633 E9.10978
G1 X137.97 Y172.467 E9.14281
G1 X137.508 Y172.286 E9.18242
G1 X136.969 Y172.024 E9.23025
G1 X136.816 Y171.941 E9.24415
G1 X136.468 Y171.732 E9.27655
G1 X136.36 Y171.662 E9.28683
G1 X136.059 Y171.454 E9.31603
G1 X135.817 Y171.262 E9.34069
G1 X135.171 Y170.682 E9.40999
G1 X135.163 Y170.691 E9.41095
G1 X134.614 Y170.318 E9.46393
G1 X134.163 Y170.051 E9.50577
G1 X133.68 Y169.713 E9.55283
G1 X133.501 Y169.574 E9.57092
G1 X133.23 Y169.343 E9.59934
G1 X133.103 Y169.228 E9.61302
G1 X132.847 Y168.98 E9.64147
G1 X132.653 Y168.768 E9.66441
G1 X132.366 Y168.41 E9.70104
G1 X131.918 Y167.918 E9.75415
G1 X131.607 Y167.64 E9.78745
G1 X131.222 Y167.324 E9.82721
G1 X130.786 Y166.9 E9.87576
G1 X130.657 Y166.762 E9.89084
G1 X130.405 Y166.467 E9.92181
G1 X130.321 Y166.363 E9.93248
G1 X130.086 Y166.051 E9.96366
G1 X129.932 Y165.816 E9.98609
G1 X129.72 Y165.446 E10.02012
G1 X129.354 Y164.89 E10.07326
G1 X129.092 Y164.568 E10.1064
G1 X128.742 Y164.171 E10.14864
G1 X128.387 Y163.699 E10.19579
G1 X128.264 Y163.52 E10.21313
G1 X128.064 Y163.194 E10.24366
G1 X128 Y163.083 E10.25388
G1 X127.829 Y162.761 E10.28299
G1 X127.701 Y162.477 E10.30785
G1 X127.544 Y162.065 E10.34305
G1 X127.27 Y161.46 E10.39606
G1 X127.059 Y161.097 E10.42958
G1 X126.79 Y160.677 E10.46939
G1 X126.51 Y160.148 E10.51717
G1 X126.421 Y159.96 E10.53377
G1 X126.283 Y159.625 E10.56269
G1 X126.226 Y159.478 E10.57528
G1 X126.103 Y159.123 E10.60527
G1 X126.025 Y158.839 E10.62878
G1 X125.941 Y158.434 E10.6618
G1 X125.765 Y157.793 E10.71486
G1 X125.621 Y157.42 E10.74677
G1 X125.395 Y156.891 E10.79269
G1 X125.211 Y156.348 E10.83846
G1 X125.146 Y156.123 E10.85715
G1 X125.062 Y155.77 E10.88612
G1 X125.027 Y155.596 E10.90029
G1 X124.97 Y155.269 E10.92678
G1 X124.936 Y154.957 E10.95183
G1 X124.918 Y154.56 E10.98356
G1 X124.846 Y153.898 E11.03671
G1 X124.731 Y153.384 E11.07876
G1 X124.633 Y153.027 E11.10831
G1 X124.566 Y152.709 E11.13425
G1 X124.533 Y152.506 E11.15067
G1 X124.508 Y152.266 E11.16993
G1 X124.468 Y151.769 E11.20973
G1 X124.463 Y151.634 E11.22051
G1 X124.457 Y151.279 E11.24885
G1 X124.471 Y150.982 E11.27259
G1 X124.515 Y150.585 E11.30447
G1 X124.546 Y149.921 E11.35753
G1 X124.52 Y149.478 E11.39296
G1 X124.473 Y149.003 E11.43106
G1 X124.46 Y148.408 E11.47857
G1 X124.465 Y148.211 E11.4943
G1 X124.495 Y147.798 E11.52735
G1 X124.508 Y147.667 E11.53786
G1 X124.559 Y147.295 E11.56783
G1 X124.618 Y147.004 E11.59153
G1 X124.845 Y146.159 E11.66138
G1 X124.83 Y146.156 E11.6626
G1 X124.92 Y145.402 E11.72321
G1 X124.937 Y145.032 E11.75278
G1 X124.973 Y144.704 E11.77912
G1 X125.005 Y144.496 E11.79592
G1 X125.042 Y144.315 E11.81066
G1 X125.159 Y143.825 E11.85088
G1 X125.196 Y143.688 E11.8622
G1 X125.309 Y143.322 E11.89278
G1 X125.416 Y143.04 E11.91686
G1 X125.582 Y142.677 E11.94872
G1 X125.817 Y142.053 E12.00194
G1 X125.926 Y141.646 E12.03558
G1 X126.04 Y141.133 E12.07753
G1 X126.204 Y140.595 E12.12242
G1 X126.276 Y140.394 E12.13947
G1 X126.42 Y140.042 E12.16982
G1 X126.482 Y139.902 E12.18205
G1 X126.66 Y139.536 E12.21453
G1 X126.784 Y139.316 E12.23469
G1 X127.039 Y138.927 E12.27182
G1 X127.367 Y138.349 E12.32487
G1 X127.533 Y137.97 E12.3579
G1 X127.714 Y137.508 E12.39751
G1 X127.977 Y136.967 E12.44553
G1 X128.055 Y136.822 E12.45867
G1 X128.268 Y136.468 E12.49165
G1 X128.332 Y136.369 E12.50106
G1 X128.546 Y136.059 E12.53113
G1 X128.738 Y135.817 E12.55579
G1 X129.318 Y135.171 E12.62509
G1 X129.309 Y135.163 E12.62605
G1 X129.682 Y134.614 E12.67903
G1 X129.949 Y134.163 E12.72087
G1 X130.286 Y133.681 E12.76781
G1 X130.426 Y133.501 E12.78602
G1 X130.65 Y133.238 E12.81359
G1 X130.772 Y133.103 E12.82812
G1 X131.02 Y132.847 E12.85657
G0 F7200 X131.2 Y132.681
G1 F1125 X131.2 Y167.302 E15.62017
G0 F7200 X132.8 Y168.928
G1 F1125 X132.8 Y131.094 E18.64024
G0 F7200 X134.4 Y129.808
G1 F1125 X134.4 Y170.191 E21.86378
G0 F7200 X136 Y171.407
G1 F1125 X136 Y128.613 E25.27979
G0 F7200 X137.6 Y127.671
G1 F1125 X137.6 Y172.322 E28.84402
G0 F7200 X139.2 Y173.139
G1 F1125 X139.2 Y126.869 E32.53749
G0 F7200 X140.8 Y126.129
G1 F1125 X140.8 Y173.858 E36.34743
G0 F7200 X142.4 Y174.313
G1 F1125 X142.4 Y125.69 E40.22873
G0 F7200 X144 Y125.117
G1 F1125 X144 Y174.882 E44.20119
G0 F7200 X145.6 Y175.094
G1 F1125 X145.6 Y124.9 E48.20789
G0 F7200 X147.2 Y124.585
G1 F1125 X147.2 Y175.42 E52.26576
G0 F7200 X148.8 Y175.545
G1 F1125 X148.8 Y124.461 E56.3435
G0 F7200 X150.4 Y124.522
G1 F1125 X150.4 Y175.476 E60.41087
G0 F7200 X152 Y175.514
G1 F1125 X152 Y124.481 E64.48455
G0 F7200 X153.6 Y124.773
G1 F1125 X153.6 Y175.221 E68.51152
G0 F7200 X155.2 Y175.038
G1 F1125 X155.2 Y124.976 E72.50769
G0 F7200 X156.8 Y125.356
G1 F1125 X156.8 Y174.636 E76.44143
G0 F7200 X158.4 Y174.069
G1 F1125 X158.4 Y125.937 E80.28354
G0 F7200 X160 Y126.439
G1 F1125 X160 Y173.56 E84.04494
G0 F7200 X161.6 Y172.667
G1 F1125 X161.6 Y127.339 E87.66321
G0 F7200 X163.2 Y128.069
G1 F1125 X163.2 Y171.933 E91.16463
G0 F7200 X164.8 Y170.72
G1 F1125 X164.8 Y129.292 E94.47159
G0 F7200 X166.4 Y130.349
G1 F1125 X166.4 Y169.65 E97.60877
G0 F7200 X168 Y168.008
G1 F1125 X168 Y131.992 E100.48372
G0 F7200 X169.6 Y133.54
G1 F1125 X169.6 Y166.466 E103.11202
G0 F7200 X171.2 Y164.252
G1 F1125 X171.2 Y135.764 E105.38605
G0 F7200 X172.8 Y138.661
G1 F1125 X172.8 Y161.357 E107.19774
G0 F7200 X174.4 Y157.371
G1 F1125 X174.4 Y142.63 E108.37443
G1 F3600 E103.37443
G0 F7200 X175.365 Y142.179
G0 X174.707 Y139.983
G0 X172.847 Y136.255
G0 X170.417 Y132.856
G0 X167.468 Y129.853
G0 X164.091 Y127.362
G0 X160.373 Y125.441
G0 X156.432 Y124.127
G0 X152.305 Y123.436
G0 X150.87 Y123.407
G0 X148.16 Y123.406
G0 X146.709 Y123.601
G0 X143.994 Y124.024
G0 X139.983 Y125.293
G0 X136.257 Y127.152
G0 X132.856 Y129.583
G0 X129.853 Y132.532
G0 X129.401 Y133.128
G0 X128.782 Y134.045
G0 X129.6 Y134.734
G1 F3600 E108.37443
G1 F1125 X129.6 Y165.263 E110.81139
G0 F7200 X128 Y163.083
G1 F1125 X128 Y136.924 E112.89952
G0 F7200 X126.4 Y140.09
G1 F1125 X126.4 Y159.909 E114.48155
G1 F3600 E109.48155
G0 F7200 X125.229 Y159.851
G0 X124.024 Y156.006
G0 X123.795 Y154.076
G0 X124.8 Y153.692
G1 F3600 E114.48155
G1 F1125 X124.8 Y146.326 E115.06954
G1 F3600 E110.06954
G0 F300 X124.8 Y146.326 Z0.48
G0 F7200 X123.762 Y146.051
G0 X123.509 Y147.114
G0 X123.395 Y148.395
G0 X123.406 Y151.84
G0 X123.601 Y153.291
G0 X124.024 Y156.006
G0 X125.293 Y160.017
G0 X126.798 Y163.034
G0 X127.373 Y164.101
G0 X128.518 Y163.874
;TIME_ELAPSED:88.117677
;LAYER:-5
;TYPE:SUPPORT
G1 F3600 E115.06954
G1 F1125 X136.185 Y171.541 E115.93506
G1 X136.058 Y171.453 E115.94739
G1 X135.816 Y171.261 E115.97205
G1 X135.17 Y170.681 E116.04135
G1 X135.162 Y170.69 E116.04231
G1 X134.614 Y170.317 E116.09523
G1 X134.162 Y170.049 E116.13717
G1 X133.679 Y169.712 E116.18418
G1 X133.501 Y169.573 E116.20221
