;FLAVOR:Marlin
;TIME:485
;Filament used: 0.301164m
;Layer height: 0.16
;MINX:82.207
;MINY:92.21
;MINZ:0.2
;MAXX:137.789
;MAXY:127.795
;MAXZ:1.8
;Generated with Creality Slicer 4.8.2-205
M140 S60
M105
M190 S60
M104 S200
M105
M109 S200
M82 ;absolute extrusion mode

G28 ;Home

G92 E0 ;Reset Extruder
G1 Z2.0 F3000 ;Move Z Axis up
G1 X10.1 Y20 Z0.28 F5000.0 ;Move to start position
G1 X10.1 Y200.0 Z0.28 F1500.0 E15 ;Draw the first line
G1 X10.4 Y200.0 Z0.28 F5000.0 ;Move to side a little
G1 X10.4 Y20 Z0.28 F1500.0 E30 ;Draw the second line
G92 E0 ;Reset Extruder
G1 Z2.0 F3000 ;Move Z Axis up

G92 E0
G92 E0
G1 F3600 E-5
;LAYER_COUNT:11
;LAYER:0
M107
G0 F6000 X88.125 Y96.744 Z0.2
;TYPE:SKIRT
G1 F3600 E0
G1 F1200 X88.717 Y96.236 E0.02595
G1 X89.504 Y95.627 E0.05904
G1 X90.152 Y95.177 E0.08528
G1 X91.028 Y94.631 E0.11962
G1 X91.722 Y94.245 E0.14603
G1 X92.616 Y93.807 E0.17914
G1 X93.351 Y93.493 E0.20572
G1 X94.309 Y93.14 E0.23968
G1 X95.044 Y92.91 E0.2653
G1 X96.025 Y92.655 E0.29901
G1 X96.802 Y92.495 E0.32539
G1 X97.804 Y92.341 E0.35911
G1 X98.611 Y92.259 E0.38609
G1 X99.622 Y92.21 E0.41976
G1 X100.382 Y92.21 E0.44503
G1 X101.382 Y92.259 E0.47833
G1 X102.187 Y92.341 E0.50525
G1 X103.2 Y92.497 E0.53934
G1 X103.984 Y92.659 E0.56596
G1 X104.964 Y92.915 E0.59965
G1 X105.699 Y93.146 E0.62528
G1 X106.648 Y93.497 E0.65893
G1 X107.375 Y93.809 E0.68524
G1 X108.285 Y94.255 E0.71895
G1 X108.992 Y94.648 E0.74585
G1 X109.859 Y95.191 E0.77988
G1 X109.996 Y95.287 E0.78544
G1 X110.203 Y95.144 E0.79381
G1 X111.057 Y94.614 E0.82724
G1 X111.762 Y94.225 E0.85402
G1 X112.672 Y93.783 E0.88767
G1 X113.398 Y93.475 E0.9139
G1 X114.343 Y93.129 E0.94737
G1 X115.073 Y92.901 E0.97281
G1 X116.048 Y92.649 E1.0063
G1 X116.83 Y92.489 E1.03285
G1 X117.825 Y92.338 E1.06632
G1 X118.613 Y92.259 E1.09266
G1 X119.489 Y92.216 E1.12183
G1 X120.278 Y92.218 E1.14808
G1 X120.358 Y92.226 E1.15075
G1 X121.254 Y92.253 E1.18056
G1 X122.13 Y92.334 E1.20982
G1 X122.906 Y92.445 E1.2359
G1 X123.895 Y92.638 E1.26941
G1 X124.651 Y92.826 E1.29532
G1 X125.607 Y93.114 E1.32853
G1 X126.358 Y93.382 E1.35505
G1 X127.296 Y93.773 E1.38885
G1 X127.994 Y94.106 E1.41457
G1 X128.874 Y94.58 E1.44782
G1 X129.549 Y94.989 E1.47407
G1 X130.395 Y95.562 E1.50805
G1 X131.025 Y96.037 E1.5343
G1 X131.783 Y96.671 E1.56716
G1 X132.356 Y97.201 E1.59312
G1 X133.064 Y97.925 E1.62681
G1 X133.581 Y98.509 E1.65275
G1 X134.209 Y99.295 E1.68621
G1 X134.671 Y99.938 E1.71254
G1 X135.215 Y100.782 E1.74594
G1 X135.609 Y101.467 E1.77222
G1 X136.067 Y102.366 E1.80578
G1 X136.379 Y103.061 E1.83112
G1 X136.743 Y103.99 E1.86431
G1 X136.996 Y104.747 E1.89085
G1 X137.269 Y105.729 E1.92475
G1 X137.442 Y106.504 E1.95116
G1 X137.609 Y107.481 E1.98413
G1 X137.702 Y108.245 E2.00973
G1 X137.774 Y109.263 E2.04367
G1 X137.789 Y110.061 E2.07022
G1 X137.757 Y111.067 E2.10369
G1 X137.695 Y111.832 E2.12922
G1 X137.566 Y112.817 E2.16226
G1 X137.419 Y113.615 E2.18925
G1 X137.182 Y114.608 E2.22321
G1 X136.967 Y115.346 E2.24877
G1 X136.643 Y116.283 E2.28175
G1 X136.351 Y117.007 E2.30771
G1 X135.923 Y117.933 E2.34164
G1 X135.55 Y118.642 E2.36829
G1 X135.04 Y119.501 E2.40151
G1 X134.615 Y120.142 E2.42709
G1 X134.013 Y120.96 E2.46087
G1 X133.513 Y121.573 E2.48719
G1 X132.842 Y122.314 E2.52043
G1 X132.281 Y122.873 E2.54678
G1 X131.533 Y123.547 E2.58026
G1 X130.93 Y124.038 E2.60613
G1 X130.12 Y124.633 E2.63956
G1 X129.461 Y125.067 E2.6658
G1 X128.597 Y125.576 E2.69915
G1 X127.913 Y125.935 E2.72485
G1 X126.99 Y126.362 E2.75867
G1 X126.243 Y126.662 E2.78545
G1 X125.3 Y126.985 E2.8186
G1 X124.561 Y127.198 E2.84418
G1 X123.572 Y127.431 E2.87797
G1 X122.791 Y127.574 E2.90438
G1 X121.801 Y127.703 E2.93759
G1 X121.026 Y127.765 E2.96345
G1 X120.021 Y127.795 E2.99689
G1 X119.227 Y127.778 E3.0233
G1 X118.215 Y127.705 E3.05705
G1 X117.447 Y127.611 E3.08278
G1 X116.464 Y127.441 E3.11596
G1 X115.682 Y127.264 E3.14263
G1 X114.704 Y126.989 E3.17642
G1 X113.973 Y126.744 E3.20206
G1 X113.04 Y126.379 E3.23538
G1 X112.319 Y126.054 E3.26169
G1 X111.427 Y125.596 E3.29504
G1 X110.745 Y125.201 E3.32125
G1 X109.995 Y124.714 E3.35099
G1 X109.844 Y124.819 E3.35711
G1 X108.978 Y125.36 E3.39107
G1 X108.272 Y125.752 E3.41793
G1 X107.36 Y126.198 E3.4517
G1 X106.63 Y126.51 E3.4781
G1 X105.68 Y126.86 E3.51178
G1 X104.947 Y127.09 E3.53733
G1 X103.967 Y127.345 E3.57101
G1 X103.187 Y127.506 E3.5975
G1 X102.184 Y127.66 E3.63125
G1 X101.378 Y127.741 E3.65819
G1 X100.368 Y127.79 E3.69182
G1 X99.609 Y127.79 E3.71707
G1 X98.608 Y127.741 E3.7504
G1 X97.801 Y127.659 E3.77738
G1 X96.789 Y127.503 E3.81144
G1 X96.007 Y127.341 E3.838
G1 X95.026 Y127.085 E3.87172
G1 X94.292 Y126.854 E3.89731
G1 X93.334 Y126.5 E3.93128
G1 X92.584 Y126.178 E3.95843
G1 X91.691 Y125.737 E3.99155
G1 X91.021 Y125.364 E4.01706
G1 X90.146 Y124.819 E4.05135
G1 X89.492 Y124.363 E4.07786
G1 X88.705 Y123.753 E4.11098
G1 X88.114 Y123.246 E4.13688
G1 X87.372 Y122.542 E4.1709
G1 X86.812 Y121.952 E4.19796
G1 X86.153 Y121.181 E4.23169
G1 X85.685 Y120.577 E4.2571
G1 X85.11 Y119.753 E4.29052
G1 X84.686 Y119.072 E4.3172
G1 X84.193 Y118.183 E4.35101
G1 X83.842 Y117.467 E4.37754
G1 X83.443 Y116.534 E4.41129
G1 X83.168 Y115.787 E4.43776
G1 X82.867 Y114.821 E4.47142
G1 X82.673 Y114.069 E4.49725
G1 X82.469 Y113.075 E4.531
G1 X82.351 Y112.302 E4.557
G1 X82.248 Y111.297 E4.5906
G1 X82.207 Y110.494 E4.61735
G1 X82.208 Y109.482 E4.65101
G1 X82.248 Y108.696 E4.67718
G1 X82.351 Y107.689 E4.71085
G1 X82.473 Y106.9 E4.7374
G1 X82.679 Y105.906 E4.77117
G1 X82.871 Y105.166 E4.7966
G1 X83.172 Y104.201 E4.83022
G1 X83.452 Y103.444 E4.85706
G1 X83.853 Y102.511 E4.89084
G1 X84.199 Y101.805 E4.91699
G1 X84.692 Y100.917 E4.95077
G1 X85.119 Y100.234 E4.97756
G1 X85.695 Y99.41 E5.011
G1 X86.162 Y98.807 E5.03637
G1 X86.815 Y98.044 E5.06977
G1 X87.375 Y97.455 E5.0968
G1 X88.125 Y96.744 E5.13117
G0 F6000 X88.4 Y97.035
G1 F1200 X88.962 Y96.553 E5.1558
G1 X89.749 Y95.944 E5.1889
G1 X90.364 Y95.516 E5.21382
G1 X91.24 Y94.97 E5.24815
G1 X91.898 Y94.605 E5.27318
G1 X92.792 Y94.167 E5.30629
G1 X93.489 Y93.868 E5.33151
G1 X94.447 Y93.515 E5.36547
G1 X95.144 Y93.297 E5.38976
G1 X96.125 Y93.042 E5.42347
G1 X96.863 Y92.89 E5.44853
G1 X97.865 Y92.736 E5.48225
G1 X98.631 Y92.659 E5.50786
G1 X99.642 Y92.61 E5.54152
G1 X100.362 Y92.61 E5.56547
G1 X101.362 Y92.659 E5.59877
G1 X102.126 Y92.736 E5.62431
G1 X103.139 Y92.892 E5.6584
G1 X103.883 Y93.046 E5.68367
G1 X104.863 Y93.302 E5.71736
G1 X105.56 Y93.522 E5.74167
G1 X106.509 Y93.873 E5.77532
G1 X107.199 Y94.168 E5.80028
G1 X108.109 Y94.614 E5.83399
G1 X108.78 Y94.987 E5.85952
G1 X109.647 Y95.53 E5.89355
G1 X109.994 Y95.773 E5.90764
G1 X110.414 Y95.483 E5.92461
G1 X111.268 Y94.953 E5.95804
G1 X111.937 Y94.585 E5.98344
G1 X112.847 Y94.143 E6.01708
G1 X113.536 Y93.85 E6.04199
G1 X114.481 Y93.504 E6.07546
G1 X115.173 Y93.288 E6.09957
G1 X116.148 Y93.036 E6.13306
G1 X116.89 Y92.885 E6.15825
G1 X117.885 Y92.734 E6.19172
G1 X118.632 Y92.659 E6.21669
G1 X119.508 Y92.616 E6.24586
G1 X120.277 Y92.618 E6.27144
G1 X120.435 Y92.621 E6.27669
G1 X121.217 Y92.651 E6.30272
G1 X122.093 Y92.732 E6.33198
G1 X122.829 Y92.838 E6.35672
G1 X123.818 Y93.031 E6.39023
G1 X124.536 Y93.209 E6.41483
G1 X125.492 Y93.497 E6.44804
G1 X126.204 Y93.752 E6.4732
G1 X127.142 Y94.143 E6.507
G1 X127.804 Y94.458 E6.53138
G1 X128.684 Y94.932 E6.56462
G1 X129.325 Y95.32 E6.58955
G1 X130.171 Y95.893 E6.62353
G1 X130.769 Y96.344 E6.64844
G1 X131.527 Y96.978 E6.68131
G1 X132.07 Y97.48 E6.70591
G1 X132.778 Y98.204 E6.73959
G1 X133.268 Y98.759 E6.76421
G1 X133.896 Y99.545 E6.79767
G1 X134.335 Y100.155 E6.82267
G1 X134.879 Y100.999 E6.85607
G1 X135.253 Y101.649 E6.88101
G1 X135.711 Y102.548 E6.91457
G1 X136.007 Y103.207 E6.93859
G1 X136.371 Y104.136 E6.97178
G1 X136.611 Y104.854 E6.99696
G1 X136.884 Y105.836 E7.03086
G1 X137.048 Y106.571 E7.05591
G1 X137.215 Y107.548 E7.08887
G1 X137.303 Y108.273 E7.11316
G1 X137.375 Y109.291 E7.14711
G1 X137.389 Y110.048 E7.17229
G1 X137.357 Y111.054 E7.20577
G1 X137.298 Y111.78 E7.22999
G1 X137.169 Y112.765 E7.26303
G1 X137.03 Y113.522 E7.28863
G1 X136.793 Y114.515 E7.32259
G1 X136.589 Y115.215 E7.34684
G1 X136.265 Y116.152 E7.37981
G1 X135.988 Y116.839 E7.40445
G1 X135.56 Y117.765 E7.43838
G1 X135.206 Y118.438 E7.46367
G1 X134.696 Y119.297 E7.4969
G1 X134.293 Y119.905 E7.52116
G1 X133.691 Y120.723 E7.55494
G1 X133.216 Y121.304 E7.5799
G1 X132.545 Y122.045 E7.61315
G1 X132.014 Y122.575 E7.6381
G1 X131.266 Y123.249 E7.67159
G1 X130.693 Y123.716 E7.69618
G1 X129.883 Y124.311 E7.72961
G1 X129.258 Y124.723 E7.7545
G1 X128.394 Y125.232 E7.78786
G1 X127.745 Y125.572 E7.81222
G1 X126.822 Y125.999 E7.84605
G1 X126.113 Y126.284 E7.87146
G1 X125.17 Y126.607 E7.90462
G1 X124.469 Y126.809 E7.92888
G1 X123.48 Y127.042 E7.96268
G1 X122.739 Y127.177 E7.98773
G1 X121.749 Y127.306 E8.02093
G1 X121.014 Y127.365 E8.04546
G1 X120.009 Y127.395 E8.0789
G1 X119.256 Y127.379 E8.10395
G1 X118.244 Y127.306 E8.1377
G1 X117.515 Y127.217 E8.16212
G1 X116.532 Y127.047 E8.1953
G1 X115.79 Y126.879 E8.22061
G1 X114.812 Y126.604 E8.2544
G1 X114.119 Y126.371 E8.27871
G1 X113.186 Y126.006 E8.31204
G1 X112.502 Y125.698 E8.33699
G1 X111.61 Y125.24 E8.37034
G1 X110.963 Y124.865 E8.39521
G1 X110.112 Y124.313 E8.42895
G1 X109.994 Y124.228 E8.43378
G1 X109.632 Y124.48 E8.44845
G1 X108.766 Y125.021 E8.48242
G1 X108.096 Y125.393 E8.5079
G1 X107.184 Y125.839 E8.54167
G1 X106.491 Y126.135 E8.56673
G1 X105.541 Y126.485 E8.60041
G1 X104.846 Y126.703 E8.62463
G1 X103.866 Y126.958 E8.65831
G1 X103.126 Y127.11 E8.68344
G1 X102.123 Y127.264 E8.71719
G1 X101.359 Y127.341 E8.74273
G1 X100.349 Y127.39 E8.77636
G1 X99.628 Y127.39 E8.80034
G1 X98.627 Y127.341 E8.83368
G1 X97.862 Y127.264 E8.85925
G1 X96.85 Y127.108 E8.89331
G1 X96.108 Y126.954 E8.91851
G1 X95.127 Y126.698 E8.95223
G1 X94.431 Y126.479 E8.9765
G1 X93.473 Y126.125 E9.01047
G1 X92.761 Y125.819 E9.03625
G1 X91.868 Y125.378 E9.06937
G1 X91.233 Y125.024 E9.09355
G1 X90.358 Y124.479 E9.12784
G1 X89.737 Y124.047 E9.153
G1 X88.95 Y123.437 E9.18612
G1 X88.39 Y122.956 E9.21067
G1 X87.648 Y122.252 E9.24469
G1 X87.116 Y121.692 E9.27038
G1 X86.457 Y120.921 E9.30411
G1 X86.013 Y120.348 E9.32822
G1 X85.438 Y119.524 E9.36164
G1 X85.035 Y118.878 E9.38697
G1 X84.542 Y117.989 E9.42078
G1 X84.21 Y117.31 E9.44592
G1 X83.811 Y116.377 E9.47967
G1 X83.55 Y115.668 E9.5048
G1 X83.249 Y114.702 E9.53845
G1 X83.065 Y113.989 E9.56294
G1 X82.861 Y112.995 E9.59669
G1 X82.749 Y112.261 E9.62138
G1 X82.646 Y111.256 E9.65499
G1 X82.607 Y110.495 E9.68033
G1 X82.608 Y109.483 E9.71399
G1 X82.646 Y108.737 E9.73883
G1 X82.749 Y107.73 E9.7725
G1 X82.865 Y106.981 E9.79771
G1 X83.071 Y105.987 E9.83147
G1 X83.253 Y105.286 E9.85556
G1 X83.554 Y104.321 E9.88918
G1 X83.819 Y103.602 E9.91467
G1 X84.22 Y102.669 E9.94845
G1 X84.549 Y101.999 E9.97327
G1 X85.042 Y101.111 E10.00705
G1 X85.447 Y100.463 E10.03247
G1 X86.023 Y99.639 E10.06591
G1 X86.466 Y99.067 E10.08997
G1 X87.119 Y98.304 E10.12337
G1 X87.65 Y97.746 E10.14899
G1 X88.4 Y97.035 E10.18337
G0 F6000 X88.675 Y97.325
G1 F1200 X89.207 Y96.869 E10.20667
G1 X89.994 Y96.26 E10.23977
G1 X90.575 Y95.855 E10.26332
G1 X91.451 Y95.309 E10.29766
G1 X92.074 Y94.964 E10.32134
G1 X92.968 Y94.526 E10.35445
G1 X93.628 Y94.244 E10.37832
G1 X94.586 Y93.891 E10.41228
G1 X95.245 Y93.684 E10.43526
G1 X96.226 Y93.429 E10.46897
G1 X96.924 Y93.285 E10.49267
G1 X97.926 Y93.131 E10.52639
G1 X98.65 Y93.058 E10.55059
G1 X99.661 Y93.009 E10.58426
G1 X100.343 Y93.009 E10.60694
G1 X101.343 Y93.058 E10.64024
G1 X102.065 Y93.132 E10.66438
G1 X103.078 Y93.288 E10.69847
G1 X103.782 Y93.433 E10.72238
G1 X104.762 Y93.689 E10.75607
G1 X105.421 Y93.897 E10.77905
G1 X106.37 Y94.248 E10.81271
G1 X107.023 Y94.527 E10.83632
G1 X107.933 Y94.973 E10.87003
G1 X108.568 Y95.326 E10.89419
G1 X109.435 Y95.869 E10.92822
G1 X109.997 Y96.262 E10.95103
G1 X110.066 Y96.209 E10.95392
G1 X110.625 Y95.823 E10.97652
G1 X111.479 Y95.293 E11.00995
G1 X112.112 Y94.944 E11.03399
G1 X113.022 Y94.502 E11.06764
G1 X113.673 Y94.226 E11.09115
G1 X114.618 Y93.88 E11.12463
G1 X115.273 Y93.676 E11.14744
G1 X116.248 Y93.424 E11.18094
G1 X116.95 Y93.28 E11.20477
G1 X117.945 Y93.129 E11.23824
G1 X118.652 Y93.058 E11.26188
G1 X119.528 Y93.015 E11.29105
G1 X120.276 Y93.019 E11.31593
G1 X120.584 Y93.02 E11.32617
G1 X121.181 Y93.05 E11.34605
G1 X122.057 Y93.131 E11.37531
G1 X122.753 Y93.231 E11.3987
G1 X123.742 Y93.424 E11.43222
G1 X124.42 Y93.592 E11.45545
G1 X125.376 Y93.88 E11.48866
G1 X126.05 Y94.121 E11.51246
G1 X126.988 Y94.512 E11.54626
G1 X127.615 Y94.81 E11.56935
G1 X128.495 Y95.284 E11.6026
G1 X129.1 Y95.651 E11.62613
G1 X129.946 Y96.224 E11.66012
G1 X130.512 Y96.651 E11.6837
G1 X131.27 Y97.285 E11.71657
G1 X131.784 Y97.76 E11.73984
G1 X132.492 Y98.484 E11.77352
G1 X132.956 Y99.009 E11.79683
G1 X133.584 Y99.795 E11.83029
G1 X133.999 Y100.372 E11.85393
G1 X134.543 Y101.216 E11.88733
G1 X134.896 Y101.83 E11.91088
G1 X135.354 Y102.729 E11.94444
G1 X135.635 Y103.353 E11.9672
G1 X135.999 Y104.282 E12.00039
G1 X136.225 Y104.961 E12.02419
G1 X136.498 Y105.943 E12.05809
G1 X136.654 Y106.639 E12.08181
G1 X136.821 Y107.616 E12.11478
G1 X136.904 Y108.301 E12.13773
G1 X136.976 Y109.319 E12.17167
G1 X136.989 Y110.036 E12.19552
G1 X136.957 Y111.042 E12.229
G1 X136.902 Y111.728 E12.25189
G1 X136.773 Y112.713 E12.28493
G1 X136.641 Y113.429 E12.30915
G1 X136.404 Y114.422 E12.3431
G1 X136.211 Y115.085 E12.36607
G1 X135.887 Y116.022 E12.39904
G1 X135.625 Y116.671 E12.42232
G1 X135.197 Y117.597 E12.45625
G1 X134.862 Y118.234 E12.48019
G1 X134.352 Y119.093 E12.51342
G1 X133.971 Y119.668 E12.53636
G1 X133.369 Y120.486 E12.57014
G1 X132.92 Y121.036 E12.59375
G1 X132.249 Y121.777 E12.627
G1 X131.746 Y122.278 E12.65062
G1 X130.998 Y122.952 E12.6841
G1 X130.456 Y123.394 E12.70737
G1 X129.646 Y123.989 E12.74079
G1 X129.055 Y124.378 E12.76433
G1 X128.191 Y124.887 E12.79768
G1 X127.577 Y125.209 E12.82074
G1 X126.654 Y125.636 E12.85456
G1 X125.983 Y125.905 E12.87861
G1 X125.04 Y126.228 E12.91176
G1 X124.377 Y126.419 E12.93471
G1 X123.388 Y126.652 E12.9685
G1 X122.687 Y126.78 E12.99221
G1 X121.697 Y126.909 E13.02541
G1 X121.002 Y126.965 E13.0486
G1 X119.997 Y126.995 E13.08204
G1 X119.284 Y126.98 E13.10576
G1 X118.272 Y126.907 E13.13951
G1 X117.583 Y126.823 E13.1626
G1 X116.6 Y126.653 E13.19578
G1 X115.898 Y126.494 E13.21972
G1 X114.92 Y126.219 E13.25351
G1 X114.265 Y125.999 E13.27649
G1 X113.332 Y125.634 E13.30981
G1 X112.685 Y125.342 E13.33342
G1 X111.793 Y124.884 E13.36677
G1 X111.181 Y124.53 E13.39028
G1 X110.33 Y123.978 E13.42402
G1 X109.998 Y123.738 E13.43765
G1 X109.42 Y124.141 E13.46108
G1 X108.554 Y124.682 E13.49504
G1 X107.92 Y125.033 E13.51915
G1 X107.008 Y125.479 E13.55291
G1 X106.353 Y125.759 E13.57661
G1 X105.403 Y126.109 E13.61028
G1 X104.746 Y126.315 E13.63318
G1 X103.766 Y126.57 E13.66686
G1 X103.065 Y126.715 E13.69067
G1 X102.062 Y126.869 E13.72442
G1 X101.339 Y126.942 E13.74859
G1 X100.329 Y126.991 E13.78222
G1 X99.648 Y126.991 E13.80487
G1 X98.647 Y126.942 E13.8382
G1 X97.923 Y126.868 E13.86241
G1 X96.911 Y126.712 E13.89647
G1 X96.209 Y126.567 E13.92031
G1 X95.228 Y126.311 E13.95403
G1 X94.57 Y126.104 E13.97697
G1 X93.612 Y125.75 E14.01094
G1 X92.938 Y125.46 E14.03535
G1 X92.045 Y125.019 E14.06847
G1 X91.444 Y124.685 E14.09134
G1 X90.569 Y124.14 E14.12563
G1 X89.982 Y123.731 E14.14942
G1 X89.195 Y123.121 E14.18254
G1 X88.665 Y122.666 E14.20577
G1 X87.923 Y121.962 E14.23979
G1 X87.42 Y121.432 E14.26409
G1 X86.761 Y120.661 E14.29783
G1 X86.341 Y120.119 E14.32064
G1 X85.766 Y119.295 E14.35405
G1 X85.385 Y118.684 E14.378
G1 X84.892 Y117.795 E14.41181
G1 X84.578 Y117.152 E14.43561
G1 X84.179 Y116.219 E14.46936
G1 X83.932 Y115.549 E14.49311
G1 X83.631 Y114.583 E14.52677
G1 X83.457 Y113.908 E14.54995
G1 X83.253 Y112.914 E14.5837
G1 X83.146 Y112.221 E14.60702
G1 X83.043 Y111.216 E14.64063
G1 X83.007 Y110.495 E14.66464
G1 X83.008 Y109.483 E14.6983
G1 X83.044 Y108.778 E14.72177
G1 X83.147 Y107.771 E14.75544
G1 X83.257 Y107.062 E14.77931
G1 X83.463 Y106.068 E14.81307
G1 X83.635 Y105.405 E14.83585
G1 X83.936 Y104.44 E14.86947
G1 X84.187 Y103.76 E14.89358
