;FLAVOR:Marlin
;TIME:258
;Filament used: 0.151397m
;Layer height: 0.16
;MINX:92.213
;MINY:92.21
;MINZ:0.2
;MAXX:127.787
;MAXY:127.79
;MAXZ:1.8
;Generated with Creality Slicer 4.8.2-205
M140 S60
M105
M190 S60
M104 S200
M105
M109 S200
M82 ;absolute extrusion mode

G28 ;Home

G92 E0 ;Reset Extruder
G1 Z2.0 F3000 ;Move Z Axis up
G1 X10.1 Y20 Z0.28 F5000.0 ;Move to start position
G1 X10.1 Y200.0 Z0.28 F1500.0 E15 ;Draw the first line
G1 X10.4 Y200.0 Z0.28 F5000.0 ;Move to side a little
G1 X10.4 Y20 Z0.28 F1500.0 E30 ;Draw the second line
G92 E0 ;Reset Extruder
G1 Z2.0 F3000 ;Move Z Axis up

G92 E0
G92 E0
G1 F3600 E-5
;LAYER_COUNT:11
;LAYER:0
M107
G0 F6000 X97.38 Y97.455 Z0.2
;TYPE:SKIRT
G1 F3600 E0
G1 F1200 X98.13 Y96.744 E0.03437
G1 X98.722 Y96.236 E0.06032
G1 X99.509 Y95.627 E0.09342
G1 X100.157 Y95.177 E0.11966
G1 X101.033 Y94.631 E0.15399
G1 X101.727 Y94.245 E0.1804
G1 X102.621 Y93.807 E0.21351
G1 X103.356 Y93.493 E0.2401
G1 X104.314 Y93.14 E0.27405
G1 X105.049 Y92.91 E0.29967
G1 X106.03 Y92.655 E0.33338
G1 X106.807 Y92.495 E0.35977
G1 X107.809 Y92.341 E0.39348
G1 X108.616 Y92.259 E0.42046
G1 X109.627 Y92.21 E0.45413
G1 X110.386 Y92.21 E0.47937
G1 X111.387 Y92.259 E0.51271
G1 X112.194 Y92.341 E0.53969
G1 X113.206 Y92.497 E0.57374
G1 X113.988 Y92.659 E0.6003
G1 X114.969 Y92.915 E0.63402
G1 X115.703 Y93.146 E0.65962
G1 X116.661 Y93.5 E0.69359
G1 X117.407 Y93.821 E0.7206
G1 X118.297 Y94.26 E0.75361
G1 X118.971 Y94.635 E0.77926
G1 X119.849 Y95.182 E0.81366
G1 X120.503 Y95.637 E0.84016
G1 X121.29 Y96.247 E0.87328
G1 X121.881 Y96.754 E0.89918
G1 X122.623 Y97.458 E0.9332
G1 X123.183 Y98.048 E0.96026
G1 X123.842 Y98.819 E0.99399
G1 X124.314 Y99.43 E1.01967
G1 X124.887 Y100.253 E1.05302
G1 X125.306 Y100.924 E1.07933
G1 X125.799 Y101.812 E1.11312
G1 X126.148 Y102.525 E1.13952
G1 X126.548 Y103.458 E1.17328
G1 X126.825 Y104.208 E1.19987
G1 X127.127 Y105.176 E1.2336
G1 X127.321 Y105.928 E1.25943
G1 X127.525 Y106.92 E1.29312
G1 X127.645 Y107.705 E1.31953
G1 X127.747 Y108.712 E1.35319
G1 X127.787 Y109.506 E1.37963
G1 X127.786 Y110.518 E1.41329
G1 X127.746 Y111.296 E1.4392
G1 X127.644 Y112.303 E1.47287
G1 X127.522 Y113.1 E1.49969
G1 X127.316 Y114.094 E1.53345
G1 X127.124 Y114.834 E1.55888
G1 X126.823 Y115.799 E1.5925
G1 X126.54 Y116.562 E1.61956
G1 X126.138 Y117.495 E1.65335
G1 X125.795 Y118.195 E1.67928
G1 X125.302 Y119.083 E1.71306
G1 X124.879 Y119.761 E1.73964
G1 X124.304 Y120.585 E1.77306
G1 X123.833 Y121.193 E1.79864
G1 X123.18 Y121.956 E1.83204
G1 X122.62 Y122.545 E1.85907
G1 X121.87 Y123.256 E1.89345
G1 X121.278 Y123.764 E1.91939
G1 X120.491 Y124.373 E1.95249
G1 X119.841 Y124.825 E1.97882
G1 X118.966 Y125.37 E2.01311
G1 X118.277 Y125.752 E2.03931
G1 X117.382 Y126.191 E2.07247
G1 X116.644 Y126.507 E2.09917
G1 X115.686 Y126.86 E2.13313
G1 X114.951 Y127.09 E2.15874
G1 X113.97 Y127.345 E2.19245
G1 X113.193 Y127.505 E2.21884
G1 X112.191 Y127.659 E2.25256
G1 X111.384 Y127.741 E2.27954
G1 X110.373 Y127.79 E2.3132
G1 X109.614 Y127.79 E2.33845
G1 X108.613 Y127.741 E2.37178
G1 X107.806 Y127.659 E2.39876
G1 X106.794 Y127.503 E2.43282
G1 X106.012 Y127.341 E2.45938
G1 X105.031 Y127.085 E2.4931
G1 X104.297 Y126.854 E2.51869
G1 X103.339 Y126.5 E2.55266
G1 X102.589 Y126.178 E2.57981
G1 X101.696 Y125.737 E2.61293
G1 X101.026 Y125.364 E2.63844
G1 X100.151 Y124.819 E2.67272
G1 X99.497 Y124.363 E2.69924
G1 X98.71 Y123.753 E2.73236
G1 X98.119 Y123.246 E2.75826
G1 X97.377 Y122.542 E2.79228
G1 X96.817 Y121.952 E2.81933
G1 X96.158 Y121.181 E2.85307
G1 X95.687 Y120.571 E2.8787
G1 X95.113 Y119.747 E2.9121
G1 X94.692 Y119.072 E2.93856
G1 X94.199 Y118.183 E2.97237
G1 X93.851 Y117.473 E2.99867
G1 X93.451 Y116.54 E3.03243
G1 X93.173 Y115.787 E3.05913
G1 X92.872 Y114.821 E3.09278
G1 X92.678 Y114.069 E3.11861
G1 X92.474 Y113.075 E3.15236
G1 X92.355 Y112.295 E3.17861
G1 X92.253 Y111.29 E3.2122
G1 X92.213 Y110.494 E3.23871
G1 X92.214 Y109.482 E3.27237
G1 X92.254 Y108.704 E3.29828
G1 X92.356 Y107.697 E3.33195
G1 X92.478 Y106.9 E3.35876
G1 X92.684 Y105.906 E3.39253
G1 X92.876 Y105.166 E3.41796
G1 X93.177 Y104.201 E3.45158
G1 X93.46 Y103.438 E3.47864
G1 X93.862 Y102.505 E3.51243
G1 X94.205 Y101.805 E3.53836
G1 X94.698 Y100.917 E3.57214
G1 X95.121 Y100.239 E3.59872
G1 X95.696 Y99.415 E3.63214
G1 X96.167 Y98.807 E3.65772
G1 X96.82 Y98.044 E3.69112
G1 X97.38 Y97.455 E3.71815
G0 F6000 X97.655 Y97.746
G1 F1200 X98.405 Y97.035 E3.75253
G1 X98.967 Y96.553 E3.77715
G1 X99.754 Y95.944 E3.81025
G1 X100.369 Y95.516 E3.83517
G1 X101.245 Y94.97 E3.8695
G1 X101.903 Y94.605 E3.89453
G1 X102.797 Y94.167 E3.92764
G1 X103.494 Y93.868 E3.95287
G1 X104.452 Y93.515 E3.98682
G1 X105.149 Y93.297 E4.01111
G1 X106.13 Y93.042 E4.04483
G1 X106.868 Y92.89 E4.06989
G1 X107.87 Y92.736 E4.1036
G1 X108.636 Y92.659 E4.12921
G1 X109.647 Y92.61 E4.16288
G1 X110.367 Y92.61 E4.18682
G1 X111.368 Y92.659 E4.22016
G1 X112.133 Y92.736 E4.24573
G1 X113.145 Y92.892 E4.27979
G1 X113.887 Y93.046 E4.30499
G1 X114.868 Y93.302 E4.33871
G1 X115.564 Y93.521 E4.36298
G1 X116.522 Y93.875 E4.39695
G1 X117.231 Y94.179 E4.42261
G1 X118.121 Y94.618 E4.45561
G1 X118.76 Y94.974 E4.47994
G1 X119.638 Y95.521 E4.51435
G1 X120.258 Y95.953 E4.53948
G1 X121.045 Y96.563 E4.5726
G1 X121.605 Y97.044 E4.59715
G1 X122.347 Y97.748 E4.63117
G1 X122.879 Y98.308 E4.65686
G1 X123.538 Y99.079 E4.6906
G1 X123.986 Y99.659 E4.71497
G1 X124.559 Y100.482 E4.74833
G1 X124.956 Y101.118 E4.77326
G1 X125.449 Y102.006 E4.80704
G1 X125.78 Y102.682 E4.83208
G1 X126.18 Y103.615 E4.86584
G1 X126.443 Y104.327 E4.89109
G1 X126.745 Y105.295 E4.92481
G1 X126.929 Y106.008 E4.94931
G1 X127.133 Y107 E4.98299
G1 X127.247 Y107.745 E5.00806
G1 X127.349 Y108.752 E5.04172
G1 X127.387 Y109.505 E5.0668
G1 X127.386 Y110.517 E5.10046
G1 X127.348 Y111.256 E5.12507
G1 X127.246 Y112.263 E5.15873
G1 X127.13 Y113.019 E5.18417
G1 X126.924 Y114.013 E5.21794
G1 X126.742 Y114.714 E5.24202
G1 X126.441 Y115.679 E5.27564
G1 X126.173 Y116.404 E5.30135
G1 X125.771 Y117.337 E5.33514
G1 X125.445 Y118.001 E5.35975
G1 X124.952 Y118.889 E5.39353
G1 X124.551 Y119.532 E5.41873
G1 X123.976 Y120.356 E5.45215
G1 X123.529 Y120.933 E5.47643
G1 X122.876 Y121.696 E5.50983
G1 X122.345 Y122.254 E5.53545
G1 X121.595 Y122.965 E5.56982
G1 X121.033 Y123.447 E5.59445
G1 X120.246 Y124.056 E5.62754
G1 X119.629 Y124.485 E5.65254
G1 X118.754 Y125.03 E5.68683
G1 X118.101 Y125.393 E5.71167
G1 X117.206 Y125.832 E5.74483
G1 X116.506 Y126.132 E5.77016
G1 X115.548 Y126.485 E5.80412
G1 X114.851 Y126.703 E5.82841
G1 X113.87 Y126.958 E5.86212
G1 X113.132 Y127.11 E5.88718
G1 X112.13 Y127.264 E5.9209
G1 X111.364 Y127.341 E5.94651
G1 X110.353 Y127.39 E5.98017
G1 X109.633 Y127.39 E6.00412
G1 X108.632 Y127.341 E6.03745
G1 X107.867 Y127.264 E6.06302
G1 X106.855 Y127.108 E6.09708
G1 X106.113 Y126.954 E6.12229
G1 X105.132 Y126.698 E6.15601
G1 X104.436 Y126.479 E6.18027
G1 X103.478 Y126.125 E6.21424
G1 X102.766 Y125.819 E6.24002
G1 X101.873 Y125.378 E6.27314
G1 X101.238 Y125.024 E6.29732
G1 X100.363 Y124.479 E6.33161
G1 X99.742 Y124.047 E6.35677
G1 X98.955 Y123.437 E6.38989
G1 X98.395 Y122.956 E6.41444
G1 X97.653 Y122.252 E6.44846
G1 X97.121 Y121.692 E6.47415
G1 X96.462 Y120.921 E6.50789
G1 X96.015 Y120.343 E6.53219
G1 X95.441 Y119.519 E6.56559
G1 X95.041 Y118.878 E6.59072
G1 X94.548 Y117.989 E6.62453
G1 X94.219 Y117.316 E6.64945
G1 X93.819 Y116.383 E6.68321
G1 X93.555 Y115.668 E6.70856
G1 X93.254 Y114.702 E6.74221
G1 X93.07 Y113.989 E6.7667
G1 X92.866 Y112.995 E6.80045
G1 X92.753 Y112.254 E6.82538
G1 X92.651 Y111.249 E6.85898
G1 X92.613 Y110.495 E6.88409
G1 X92.614 Y109.483 E6.91775
G1 X92.652 Y108.744 E6.94236
G1 X92.754 Y107.737 E6.97603
G1 X92.87 Y106.981 E7.00147
G1 X93.076 Y105.987 E7.03523
G1 X93.258 Y105.286 E7.05932
G1 X93.559 Y104.321 E7.09294
G1 X93.827 Y103.596 E7.11865
G1 X94.229 Y102.663 E7.15244
G1 X94.555 Y101.999 E7.17704
G1 X95.048 Y101.111 E7.21082
G1 X95.449 Y100.468 E7.23603
G1 X96.024 Y99.644 E7.26945
G1 X96.471 Y99.067 E7.29372
G1 X97.124 Y98.304 E7.32712
G1 X97.655 Y97.746 E7.35274
G0 F6000 X97.93 Y98.036
G1 F1200 X98.68 Y97.325 E7.38712
G1 X99.212 Y96.869 E7.41042
G1 X99.999 Y96.26 E7.44352
G1 X100.58 Y95.855 E7.46707
G1 X101.456 Y95.309 E7.50141
G1 X102.079 Y94.964 E7.52509
G1 X102.973 Y94.526 E7.5582
G1 X103.633 Y94.244 E7.58208
G1 X104.591 Y93.891 E7.61603
G1 X105.25 Y93.684 E7.63901
G1 X106.231 Y93.429 E7.67272
G1 X106.929 Y93.285 E7.69642
G1 X107.931 Y93.131 E7.73014
G1 X108.655 Y93.058 E7.75435
G1 X109.666 Y93.009 E7.78801
G1 X110.347 Y93.009 E7.81066
G1 X111.348 Y93.058 E7.84399
G1 X112.072 Y93.132 E7.8682
G1 X113.084 Y93.288 E7.90226
G1 X113.786 Y93.433 E7.9261
G1 X114.767 Y93.689 E7.95982
G1 X115.425 Y93.896 E7.98276
G1 X116.383 Y94.25 E8.01673
G1 X117.054 Y94.538 E8.04102
G1 X117.944 Y94.977 E8.07402
G1 X118.548 Y95.314 E8.09703
G1 X119.426 Y95.861 E8.13143
G1 X120.013 Y96.269 E8.15521
G1 X120.8 Y96.879 E8.18833
G1 X121.33 Y97.334 E8.21156
G1 X122.072 Y98.038 E8.24558
G1 X122.575 Y98.568 E8.26988
G1 X123.234 Y99.339 E8.30362
G1 X123.658 Y99.887 E8.32666
G1 X124.231 Y100.71 E8.36002
G1 X124.606 Y101.312 E8.38361
G1 X125.099 Y102.2 E8.41739
G1 X125.413 Y102.84 E8.4411
G1 X125.813 Y103.773 E8.47486
G1 X126.061 Y104.446 E8.49872
G1 X126.363 Y105.414 E8.53244
G1 X126.538 Y106.089 E8.55564
G1 X126.742 Y107.081 E8.58932
G1 X126.849 Y107.786 E8.61304
G1 X126.951 Y108.793 E8.6467
G1 X126.987 Y109.505 E8.67041
G1 X126.986 Y110.517 E8.70407
G1 X126.95 Y111.215 E8.72732
G1 X126.848 Y112.222 E8.76098
G1 X126.738 Y112.938 E8.78508
G1 X126.532 Y113.932 E8.81884
G1 X126.36 Y114.595 E8.84162
G1 X126.059 Y115.56 E8.87524
G1 X125.806 Y116.246 E8.89956
G1 X125.404 Y117.179 E8.93335
G1 X125.095 Y117.807 E8.95663
G1 X124.602 Y118.695 E8.99041
G1 X124.223 Y119.303 E9.01424
G1 X123.648 Y120.127 E9.04766
G1 X123.225 Y120.673 E9.07063
G1 X122.572 Y121.436 E9.10404
G1 X122.07 Y121.964 E9.12827
G1 X121.32 Y122.675 E9.16264
G1 X120.788 Y123.131 E9.18595
G1 X120.001 Y123.74 E9.21904
G1 X119.418 Y124.146 E9.24267
G1 X118.543 Y124.691 E9.27696
G1 X117.925 Y125.034 E9.30047
G1 X117.03 Y125.473 E9.33362
G1 X116.367 Y125.756 E9.3576
G1 X115.409 Y126.109 E9.39156
G1 X114.75 Y126.316 E9.41453
G1 X113.769 Y126.571 E9.44824
G1 X113.071 Y126.715 E9.47195
G1 X112.069 Y126.869 E9.50567
G1 X111.345 Y126.942 E9.52987
G1 X110.334 Y126.991 E9.56353
G1 X109.653 Y126.991 E9.58618
G1 X108.652 Y126.942 E9.61952
G1 X107.928 Y126.868 E9.64372
G1 X106.916 Y126.712 E9.67778
G1 X106.214 Y126.567 E9.70162
G1 X105.233 Y126.311 E9.73534
G1 X104.575 Y126.104 E9.75828
G1 X103.617 Y125.75 E9.79225
G1 X102.943 Y125.46 E9.81666
G1 X102.05 Y125.019 E9.84978
G1 X101.449 Y124.685 E9.87265
G1 X100.574 Y124.14 E9.90694
G1 X99.987 Y123.731 E9.93073
G1 X99.2 Y123.121 E9.96385
G1 X98.67 Y122.666 E9.98708
G1 X97.928 Y121.962 E10.0211
G1 X97.425 Y121.432 E10.04541
G1 X96.766 Y120.661 E10.07914
G1 X96.343 Y120.114 E10.10214
G1 X95.769 Y119.29 E10.13554
G1 X95.391 Y118.684 E10.1593
G1 X94.898 Y117.795 E10.19311
G1 X94.586 Y117.158 E10.2167
G1 X94.186 Y116.225 E10.25046
G1 X93.937 Y115.549 E10.27442
G1 X93.636 Y114.583 E10.30807
G1 X93.462 Y113.908 E10.33126
G1 X93.258 Y112.914 E10.36501
G1 X93.151 Y112.214 E10.38856
G1 X93.049 Y111.209 E10.42216
G1 X93.013 Y110.495 E10.44594
G1 X93.014 Y109.483 E10.4796
G1 X93.05 Y108.785 E10.50284
G1 X93.152 Y107.778 E10.53651
G1 X93.262 Y107.062 E10.5606
G1 X93.468 Y106.068 E10.59436
G1 X93.64 Y105.405 E10.61715
G1 X93.941 Y104.44 E10.65077
G1 X94.194 Y103.754 E10.67509
G1 X94.596 Y102.821 E10.70888
G1 X94.905 Y102.193 E10.73215
G1 X95.398 Y101.305 E10.76594
G1 X95.777 Y100.697 E10.78976
G1 X96.352 Y99.873 E10.82318
G1 X96.775 Y99.327 E10.84616
G1 X97.428 Y98.564 E10.87956
G1 X97.93 Y98.036 E10.90379
G0 F6000 X98.205 Y98.326
G1 F1200 X98.955 Y97.615 E10.93816
G1 X99.457 Y97.185 E10.96015
G1 X100.244 Y96.576 E10.99325
G1 X100.792 Y96.195 E11.01544
G1 X101.668 Y95.649 E11.04978
G1 X102.255 Y95.323 E11.07211
G1 X103.149 Y94.885 E11.10522
G1 X103.771 Y94.619 E11.12772
G1 X104.729 Y94.266 E11.16168
G1 X105.351 Y94.071 E11.18336
G1 X106.332 Y93.816 E11.21707
G1 X106.989 Y93.681 E11.23938
G1 X107.991 Y93.527 E11.2731
G1 X108.674 Y93.458 E11.29593
G1 X109.685 Y93.409 E11.3296
G1 X110.328 Y93.409 E11.35098
G1 X111.329 Y93.458 E11.38431
G1 X112.012 Y93.527 E11.40715
G1 X113.024 Y93.683 E11.4412
G1 X113.685 Y93.82 E11.46366
G1 X114.666 Y94.076 E11.49738
G1 X115.287 Y94.271 E11.51903
G1 X116.245 Y94.625 E11.55299
G1 X116.877 Y94.897 E11.57588
G1 X117.767 Y95.336 E11.60889
G1 X118.337 Y95.653 E11.63058
G1 X119.215 Y96.2 E11.66499
G1 X119.768 Y96.586 E11.68742
G1 X120.555 Y97.196 E11.72053
G1 X121.055 Y97.624 E11.74242
G1 X121.797 Y98.328 E11.77644
G1 X122.271 Y98.828 E11.79936
G1 X122.93 Y99.599 E11.83309
G1 X123.329 Y100.116 E11.85481
G1 X123.902 Y100.939 E11.88817
G1 X124.256 Y101.506 E11.9104
G1 X124.749 Y102.394 E11.94418
G1 X125.045 Y102.997 E11.96652
G1 X125.445 Y103.93 E12.00029
G1 X125.679 Y104.565 E12.0228
G1 X125.981 Y105.533 E12.05652
G1 X126.146 Y106.17 E12.07841
G1 X126.35 Y107.162 E12.11209
G1 X126.451 Y107.826 E12.13443
G1 X126.553 Y108.833 E12.1681
G1 X126.587 Y109.505 E12.19047
G1 X126.586 Y110.517 E12.22413
G1 X126.552 Y111.175 E12.24605
G1 X126.45 Y112.182 E12.27971
G1 X126.347 Y112.856 E12.30239
G1 X126.141 Y113.85 E12.33615
G1 X125.979 Y114.476 E12.35766
G1 X125.678 Y115.441 E12.39128
G1 X125.438 Y116.088 E12.41423
G1 X125.036 Y117.021 E12.44802
G1 X124.745 Y117.613 E12.46996
G1 X124.252 Y118.501 E12.50374
G1 X123.894 Y119.074 E12.52622
G1 X123.319 Y119.898 E12.55964
G1 X122.921 Y120.412 E12.58126
G1 X122.268 Y121.175 E12.61466
G1 X121.795 Y121.674 E12.63753
G1 X121.045 Y122.385 E12.6719
G1 X120.543 Y122.815 E12.69389
G1 X119.756 Y123.424 E12.72698
G1 X119.206 Y123.806 E12.74926
G1 X118.331 Y124.351 E12.78354
G1 X117.749 Y124.675 E12.8057
G1 X116.854 Y125.114 E12.83885
G1 X116.229 Y125.381 E12.86146
G1 X115.271 Y125.734 E12.89542
G1 X114.649 Y125.929 E12.9171
G1 X113.668 Y126.184 E12.95081
G1 X113.011 Y126.319 E12.97312
G1 X112.009 Y126.473 E13.00683
G1 X111.326 Y126.542 E13.02967
G1 X110.315 Y126.591 E13.06333
G1 X109.672 Y126.591 E13.08472
G1 X108.671 Y126.542 E13.11805
G1 X107.988 Y126.473 E13.14088
G1 X106.976 Y126.317 E13.17494
G1 X106.315 Y126.18 E13.19739
G1 X105.334 Y125.924 E13.23111
G1 X104.713 Y125.729 E13.25276
G1 X103.755 Y125.375 E13.28673
G1 X103.121 Y125.102 E13.30969
G1 X102.228 Y124.661 E13.34282
G1 X101.661 Y124.345 E13.36441
G1 X100.786 Y123.8 E13.39869
G1 X100.232 Y123.414 E13.42115
G1 X99.445 Y122.804 E13.45427
G1 X98.945 Y122.376 E13.47616
G1 X98.203 Y121.672 E13.51018
G1 X97.729 Y121.172 E13.53309
G1 X97.07 Y120.401 E13.56683
G1 X96.671 Y119.885 E13.58852
G1 X96.097 Y119.061 E13.62192
G1 X95.741 Y118.49 E13.6443
G1 X95.248 Y117.601 E13.67811
G1 X94.954 Y117.001 E13.70034
G1 X94.554 Y116.068 E13.7341
G1 X94.319 Y115.43 E13.75671
G1 X94.018 Y114.464 E13.79037
G1 X93.854 Y113.828 E13.81221
G1 X93.65 Y112.834 E13.84596
G1 X93.549 Y112.173 E13.8682
G1 X93.447 Y111.168 E13.9018
G1 X93.413 Y110.495 E13.92421
G1 X93.414 Y109.483 E13.95787
G1 X93.448 Y108.825 E13.97979
G1 X93.55 Y107.818 E14.01345
G1 X93.653 Y107.144 E14.03613
G1 X93.859 Y106.15 E14.06989
G1 X94.021 Y105.524 E14.0914
G1 X94.322 Y104.559 E14.12502
G1 X94.562 Y103.912 E14.14797
G1 X94.964 Y102.979 E14.18176
G1 X95.255 Y102.387 E14.2037
G1 X95.748 Y101.499 E14.23748
G1 X96.106 Y100.926 E14.25995
G1 X96.681 Y100.102 E14.29337
G1 X97.079 Y99.588 E14.315
G1 X97.732 Y98.825 E14.3484
G1 X98.205 Y98.326 E14.37127
G0 F6000 X98.48 Y98.617
G1 F1200 X99.23 Y97.906 E14.40564
G1 X99.702 Y97.502 E14.4263
G1 X100.489 Y96.893 E14.4594
G1 X101.003 Y96.534 E14.48025
G1 X101.879 Y95.988 E14.51459
G1 X102.431 Y95.682 E14.53558
G1 X103.325 Y95.244 E14.56869
G1 X103.909 Y94.994 E14.58982
G1 X104.867 Y94.641 E14.62377
G1 X105.451 Y94.458 E14.64413
G1 X106.432 Y94.203 E14.67784
G1 X107.05 Y94.076 E14.69883
G1 X108.052 Y93.922 E14.73254
G1 X108.694 Y93.857 E14.75401
G1 X109.705 Y93.808 E14.78767
G1 X110.308 Y93.808 E14.80773
G1 X111.309 Y93.857 E14.84106
G1 X111.951 Y93.922 E14.86252
G1 X112.963 Y94.078 E14.89658
