;FLAVOR:Marlin
;TIME:648
;Filament used: 0.417968m
;Layer height: 0.2
;MINX:102.7
;MINY:97.55
;MINZ:0.2
;MAXX:117.3
;MAXY:123.665
;MAXZ:5.4
;Generated with Creality Slicer 4.8.2-205
M140 S60
M105
M190 S60
M104 S200
M105
M109 S200
M82 ;absolute extrusion mode

G28 ;Home

G92 E0 ;Reset Extruder
G1 Z2.0 F3000 ;Move Z Axis up
G1 X10.1 Y20 Z0.28 F5000.0 ;Move to start position
G1 X10.1 Y200.0 Z0.28 F1500.0 E15 ;Draw the first line
G1 X10.4 Y200.0 Z0.28 F5000.0 ;Move to side a little
G1 X10.4 Y20 Z0.28 F1500.0 E30 ;Draw the second line
G92 E0 ;Reset Extruder
G1 Z2.0 F3000 ;Move Z Axis up

G92 E0
G92 E0
G1 F3600 E-5
;LAYER_COUNT:33
;LAYER:0
M107
;MESH:gbox_err.STL
G0 F6000 X116.9 Y123.235 Z0.2
;TYPE:WALL-INNER
G1 F3600 E0
G1 F1200 X103.1 Y123.235 E0.45899
G1 X103.1 Y113.677 E0.77689
G1 X105.984 Y113.673 E0.87281
G1 X106.26 Y113.667 E0.88199
G1 X106.546 Y113.648 E0.89153
G1 X106.934 Y113.712 E0.90461
G1 X107.178 Y113.655 E0.91294
G1 X112.147 Y113.669 E1.07821
G1 X116.701 Y113.668 E1.22968
G1 X116.9 Y113.668 E1.2363
G1 X116.9 Y113.867 E1.24058
G1 X116.9 Y123.235 E1.55216
G0 F6000 X117.3 Y123.635
;TYPE:WALL-OUTER
G1 F1200 X102.7 Y123.635 E2.03776
G1 X102.7 Y113.278 E2.38223
G1 X105.979 Y113.273 E2.49129
G1 X106.243 Y113.267 E2.50008
G1 X106.568 Y113.246 E2.51091
G1 X106.921 Y113.304 E2.52281
G1 X107.132 Y113.255 E2.53001
G1 X112.148 Y113.269 E2.69684
G1 X117.3 Y113.268 E2.8682
G1 X117.3 Y123.635 E3.21301
G0 F6000 X117.03 Y123.365
G0 X116.79 Y122.845
G0 X116.51 Y122.845
;TYPE:SKIN
G1 F1200 X103.49 Y122.845 E3.64606
G1 X103.49 Y114.067 E3.93801
G1 X105.988 Y114.063 E4.0211
G1 X106.277 Y114.057 E4.03071
G1 X106.533 Y114.04 E4.03924
G1 X106.947 Y114.11 E4.05321
G1 X107.223 Y114.045 E4.06264
G1 X112.145 Y114.059 E4.22635
G1 X116.51 Y114.058 E4.37153
G1 X116.51 Y122.845 E4.66379
G0 F6000 X116.79 Y122.845
G0 X116.718 Y113.85
G0 X115.915 Y113.778
G0 X115.915 Y114.218
G1 F1200 X116.35 Y114.653 E4.68425
G0 F6000 X116.35 Y115.218
G1 F1200 X115.349 Y114.218 E4.73131
G0 F6000 X114.783 Y114.218
G1 F1200 X116.35 Y115.784 E4.80499
G0 F6000 X116.35 Y116.35
G1 F1200 X114.218 Y114.218 E4.90527
G0 F6000 X113.652 Y114.218
G1 F1200 X116.35 Y116.915 E5.03215
G0 F6000 X116.35 Y117.481
G1 F1200 X113.086 Y114.218 E5.18566
G0 F6000 X112.521 Y114.218
G1 F1200 X116.35 Y118.047 E5.36576
G0 F6000 X116.35 Y118.612
G1 F1200 X111.955 Y114.218 E5.57247
G0 F6000 X111.387 Y114.216
G1 F1200 X116.35 Y119.178 E5.80589
G0 F6000 X116.35 Y119.744
G1 F1200 X110.82 Y114.214 E6.066
G0 F6000 X110.253 Y114.213
G1 F1200 X116.35 Y120.309 E6.35276
G0 F6000 X116.35 Y120.875
G1 F1200 X109.685 Y114.211 E6.66624
G0 F6000 X109.118 Y114.209
G1 F1200 X116.35 Y121.441 E7.00641
G0 F6000 X116.35 Y122.007
G1 F1200 X108.551 Y114.208 E7.37325
G0 F6000 X107.984 Y114.206
G1 F1200 X116.35 Y122.572 E7.76676
G0 F6000 X115.896 Y122.684
G1 F1200 X107.416 Y114.204 E8.16564
G0 F6000 X106.911 Y114.265
G1 F1200 X115.33 Y122.684 E8.56164
G0 F6000 X114.764 Y122.684
G1 F1200 X106.296 Y114.216 E8.95995
G0 F6000 X105.737 Y114.223
G1 F1200 X114.199 Y122.684 E9.35795
G0 F6000 X113.633 Y122.684
G1 F1200 X105.173 Y114.224 E9.75589
G0 F6000 X104.608 Y114.225
G1 F1200 X113.067 Y122.684 E10.15377
G0 F6000 X112.502 Y122.684
G1 F1200 X104.043 Y114.226 E10.55163
G0 F6000 X103.649 Y114.397
G1 F1200 X111.936 Y122.684 E10.94143
G0 F6000 X111.37 Y122.684
G1 F1200 X103.649 Y114.963 E11.3046
G0 F6000 X103.649 Y115.529
G1 F1200 X110.805 Y122.684 E11.64117
G0 F6000 X110.239 Y122.684
G1 F1200 X103.649 Y116.094 E11.95115
G0 F6000 X103.649 Y116.66
G1 F1200 X109.673 Y122.684 E12.2345
G0 F6000 X109.107 Y122.684
G1 F1200 X103.649 Y117.226 E12.49122
G0 F6000 X103.649 Y117.791
G1 F1200 X108.542 Y122.684 E12.72138
G0 F6000 X107.976 Y122.684
G1 F1200 X103.649 Y118.357 E12.92491
G0 F6000 X103.649 Y118.923
G1 F1200 X107.41 Y122.684 E13.10181
G0 F6000 X106.845 Y122.684
G1 F1200 X103.649 Y119.489 E13.25212
G0 F6000 X103.649 Y120.054
G1 F1200 X106.279 Y122.684 E13.37583
G0 F6000 X105.713 Y122.684
G1 F1200 X103.649 Y120.62 E13.47291
G0 F6000 X103.649 Y121.186
G1 F1200 X105.148 Y122.684 E13.54339
G0 F6000 X104.582 Y122.684
G1 F1200 X103.649 Y121.751 E13.58728
G0 F6000 X103.649 Y122.317
G1 F1200 X104.016 Y122.684 E13.60454
G0 F6000 X104.016 Y123.035
G1 F3600 E8.60454
;MESH:NONMESH
G0 F300 X104.016 Y123.035 Z0.4
G0 F6000 X104.016 Y123.125
G0 X103.282 Y123.053
G0 X103.282 Y113.859
G0 X110.725 Y113.485
G0 X110.727 Y112.4
G0 X110.75 Y105.145
;TIME_ELAPSED:29.182198
;LAYER:1
M106 S85
;TYPE:WALL-INNER
;MESH:gbox_err.STL
G1 F3600 E13.60454
G1 F1350 X111.159 Y105.108 E13.6182
G1 X111.556 Y105.002 E13.63187
G1 X111.926 Y104.829 E13.64545
G1 X112.262 Y104.594 E13.65909
G1 X112.509 Y104.346 E13.67073
G1 X112.552 Y104.303 E13.67275
G1 X112.788 Y103.967 E13.68641
G1 X112.9 Y103.726 E13.69525
G1 X112.9 Y103.967 E13.6962
G1 X112.9 Y104.303 E13.70236
G1 X112.9 Y104.364 E13.70427
G1 X112.9 Y112.163 E13.96367
G1 X116.9 Y112.164 E14.09671
G1 X116.9 Y123.038 E14.45838
G1 X116.9 Y123.237 E14.465
G1 X116.701 Y123.237 E14.46928
G1 X103.1 Y123.236 E14.92165
G1 X103.1 Y98.081 E15.75831
G1 X116.701 Y98.08 E16.21068
G1 X116.9 Y98.08 E16.2173
G1 X116.9 Y98.279 E16.22158
G1 X116.9 Y100.271 E16.28784
G1 X116.9 Y100.47 E16.29446
G1 X116.701 Y100.47 E16.29874
G1 X113.099 Y100.469 E16.41854
G1 X112.9 Y100.469 E16.42516
G1 X112.9 Y100.668 E16.42944
G1 X112.9 Y101.219 E16.44777
G1 X112.9 Y101.27 E16.44947
G1 X112.9 Y101.606 E16.46064
G1 X112.9 Y101.858 E16.46902
G1 X112.781 Y101.606 E16.47096
G1 X112.544 Y101.27 E16.47984
G1 X112.508 Y101.235 E16.48143
G1 X112.254 Y100.983 E16.49333
G1 X111.918 Y100.75 E16.50693
G1 X111.546 Y100.577 E16.52057
G1 X111.149 Y100.472 E16.53423
G1 X110.74 Y100.438 E16.54788
G1 X110.331 Y100.476 E16.56154
G1 X109.936 Y100.584 E16.57516
G1 X109.566 Y100.759 E16.58877
G1 X109.23 Y100.996 E16.60245
G1 X108.942 Y101.288 E16.61609
G1 X108.708 Y101.625 E16.62974
G1 X108.537 Y101.996 E16.64332
G1 X108.433 Y102.393 E16.65697
G1 X108.397 Y102.794 E16.67037
G1 X108.436 Y103.209 E16.68423
G1 X108.54 Y103.597 E16.69759
G1 X108.718 Y103.976 E16.71152
G1 X108.948 Y104.303 E16.72481
G1 X109.238 Y104.594 E16.73848
G1 X109.574 Y104.829 E16.75211
G1 X109.944 Y105.002 E16.7657
G1 X110.341 Y105.108 E16.77937
G1 X110.75 Y105.145 E16.79303
G0 F6600 X110.75 Y104.743
;TYPE:WALL-OUTER
G1 F1350 X111.089 Y104.713 E16.80434
G1 X111.418 Y104.625 E16.81567
G1 X111.725 Y104.481 E16.82695
G1 X112.004 Y104.286 E16.83827
G1 X112.245 Y104.045 E16.84961
G1 X112.44 Y103.767 E16.8609
G1 X112.583 Y103.458 E16.87223
G1 X112.672 Y103.119 E16.88388
G1 X112.701 Y102.792 E16.8948
G1 X112.669 Y102.443 E16.90646
G1 X112.579 Y102.115 E16.91777
G1 X112.434 Y101.808 E16.92906
G1 X112.238 Y101.53 E16.94038
G1 X111.997 Y101.292 E16.95164
G1 X111.718 Y101.098 E16.96295
G1 X111.41 Y100.955 E16.97424
G1 X111.081 Y100.868 E16.98556
G1 X110.742 Y100.84 E16.99687
G1 X110.403 Y100.871 E17.00819
G1 X110.075 Y100.961 E17.01951
G1 X109.768 Y101.106 E17.0308
G1 X109.49 Y101.302 E17.04211
G1 X109.251 Y101.544 E17.05343
G1 X109.057 Y101.824 E17.06476
G1 X108.915 Y102.132 E17.07604
G1 X108.828 Y102.462 E17.08739
G1 X108.799 Y102.793 E17.09844
G1 X108.831 Y103.138 E17.10996
G1 X108.917 Y103.459 E17.12101
G1 X109.065 Y103.775 E17.13262
G1 X109.255 Y104.045 E17.1436
G1 X109.496 Y104.286 E17.15494
G1 X109.775 Y104.481 E17.16626
G1 X110.082 Y104.625 E17.17754
G1 X110.411 Y104.713 E17.18886
G1 X110.75 Y104.743 E17.20018
G0 F6600 X110.75 Y105.183
G1 F3600 E12.20018
G0 F6600 X112.705 Y104.425
G0 X112.702 Y110.781
G0 X113.245 Y112.335
G0 X116.718 Y112.346
G0 X117.13 Y123.467
G0 X117.3 Y123.637
G1 F3600 E17.20018
G1 F1350 X102.7 Y123.636 E17.68578
G1 X102.7 Y97.681 E18.54905
G1 X117.3 Y97.68 E19.03465
G1 X117.3 Y100.87 E19.14075
G1 X113.3 Y100.869 E19.27379
G1 X113.3 Y111.763 E19.63612
G1 X117.3 Y111.764 E19.76916
G1 X117.3 Y123.637 E20.16406
G0 F6600 X117.13 Y123.467
G0 X116.509 Y123.126
G0 X116.51 Y122.847
;TYPE:SKIN
G1 F1350 X103.49 Y122.846 E20.59711
G1 X103.49 Y98.471 E21.40782
G1 X116.51 Y98.47 E21.84087
G1 X116.51 Y100.08 E21.89442
G1 X112.51 Y100.079 E22.02746
G1 X112.51 Y100.688 E22.04772
G1 X112.504 Y100.682 E22.048
G1 X112.113 Y100.411 E22.06382
G1 X111.679 Y100.209 E22.07974
G1 X111.215 Y100.086 E22.09571
G1 X110.738 Y100.046 E22.11163
G1 X110.261 Y100.09 E22.12756
G1 X109.8 Y100.217 E22.14347
G1 X109.369 Y100.421 E22.15933
G1 X108.977 Y100.698 E22.17529
G1 X108.641 Y101.038 E22.19119
G1 X108.368 Y101.43 E22.20708
G1 X108.168 Y101.864 E22.22297
G1 X108.047 Y102.325 E22.23882
G1 X108.005 Y102.794 E22.25448
G1 X108.05 Y103.278 E22.27065
G1 X108.172 Y103.731 E22.28626
G1 X108.379 Y104.173 E22.30249
G1 X108.648 Y104.555 E22.31803
G1 X108.986 Y104.894 E22.33395
G1 X109.379 Y105.168 E22.34988
G1 X109.81 Y105.37 E22.36572
G1 X110.273 Y105.494 E22.38166
G1 X110.75 Y105.537 E22.39759
G1 X111.227 Y105.494 E22.41352
G1 X111.69 Y105.37 E22.42946
G1 X112.121 Y105.168 E22.44529
G1 X112.51 Y104.897 E22.46106
G1 X112.51 Y112.553 E22.7157
G1 X116.51 Y112.554 E22.84874
G1 X116.51 Y122.847 E23.19109
G0 F6600 X116.033 Y122.685
G1 F1350 X116.349 Y122.369 E23.20595
G0 F6600 X116.349 Y121.804
G1 F1350 X115.467 Y122.685 E23.24741
G0 F6600 X114.902 Y122.685
G1 F1350 X116.349 Y121.238 E23.31547
G0 F6600 X116.349 Y120.672
G1 F1350 X114.336 Y122.685 E23.41016
G0 F6600 X113.77 Y122.685
G1 F1350 X116.349 Y120.107 E23.53145
G0 F6600 X116.349 Y119.541
G1 F1350 X113.204 Y122.685 E23.67935
G0 F6600 X112.639 Y122.685
G1 F1350 X116.349 Y118.975 E23.85386
G0 F6600 X116.349 Y118.409
G1 F1350 X112.073 Y122.685 E24.05499
G0 F6600 X111.507 Y122.685
G1 F1350 X116.349 Y117.844 E24.28272
G0 F6600 X116.349 Y117.278
G1 F1350 X110.942 Y122.685 E24.53705
G0 F6600 X110.376 Y122.685
G1 F1350 X116.349 Y116.712 E24.818
G0 F6600 X116.349 Y116.147
G1 F1350 X109.81 Y122.685 E25.12555
G0 F6600 X109.245 Y122.685
G1 F1350 X116.349 Y115.581 E25.4597
G0 F6600 X116.349 Y115.015
G1 F1350 X108.679 Y122.685 E25.82047
G0 F6600 X108.113 Y122.685
G1 F1350 X116.349 Y114.45 E26.20785
G0 F6600 X116.349 Y113.884
G1 F1350 X107.548 Y122.685 E26.62182
G0 F6600 X106.982 Y122.685
G1 F1350 X116.349 Y113.318 E27.06241
G0 F6600 X116.349 Y112.753
G1 F1350 X106.416 Y122.685 E27.52961
G0 F6600 X105.851 Y122.685
G1 F1350 X115.824 Y112.712 E27.99871
G0 F6600 X115.258 Y112.712
G1 F1350 X105.285 Y122.685 E28.46781
G0 F6600 X104.719 Y122.685
G1 F1350 X114.692 Y112.712 E28.93691
G0 F6600 X114.127 Y112.712
G1 F1350 X104.154 Y122.685 E29.40601
G0 F6600 X103.649 Y122.624
G1 F1350 X113.562 Y112.712 E29.87226
G0 F6600 X112.996 Y112.712
G1 F1350 X103.649 Y122.058 E30.31189
G0 F6600 X103.649 Y121.492
G1 F1350 X112.43 Y112.712 E30.7249
G0 F6600 X112.349 Y112.227
G1 F1350 X103.649 Y120.927 E31.13412
G0 F6600 X103.649 Y120.361
G1 F1350 X112.349 Y111.662 E31.54332
G0 F6600 X112.349 Y111.096
G1 F1350 X103.649 Y119.795 E31.95251
G0 F6600 X103.649 Y119.23
G1 F1350 X112.349 Y110.53 E32.36174
G0 F6600 X112.349 Y109.965
G1 F1350 X103.649 Y118.664 E32.77093
G0 F6600 X103.649 Y118.098
G1 F1350 X112.349 Y109.399 E33.18013
G0 F6600 X112.349 Y108.833
G1 F1350 X103.649 Y117.533 E33.58935
G0 F6600 X103.649 Y116.967
G1 F1350 X112.349 Y108.267 E33.99857
G0 F6600 X112.349 Y107.702
G1 F1350 X103.649 Y116.401 E34.40777
G0 F6600 X103.649 Y115.836
G1 F1350 X112.349 Y107.136 E34.81699
G0 F6600 X112.349 Y106.57
G1 F1350 X103.649 Y115.27 E35.22621
G0 F6600 X103.649 Y114.704
G1 F1350 X112.349 Y106.005 E35.63541
G0 F6600 X112.349 Y105.439
G1 F1350 X103.649 Y114.139 E36.04463
G0 F6600 X103.649 Y113.573
G1 F1350 X111.687 Y105.535 E36.42272
G0 F6600 X110.981 Y105.676
G1 F1350 X103.649 Y113.007 E36.76757
G0 F6600 X103.649 Y112.441
G1 F1350 X110.423 Y105.667 E37.0862
G0 F6600 X109.952 Y105.573
G1 F1350 X103.649 Y111.876 E37.38267
G0 F6600 X103.649 Y111.31
G1 F1350 X109.54 Y105.42 E37.65974
G0 F6600 X109.174 Y105.22
G1 F1350 X103.649 Y110.744 E37.9196
G0 F6600 X103.649 Y110.179
G1 F1350 X108.846 Y104.982 E38.16405
G0 F6600 X108.563 Y104.699
G1 F1350 X103.649 Y109.613 E38.39519
G0 F6600 X103.649 Y109.047
G1 F1350 X108.323 Y104.373 E38.61504
G0 F6600 X108.123 Y104.008
G1 F1350 X103.649 Y108.482 E38.82548
G0 F6600 X103.649 Y107.916
G1 F1350 X107.968 Y103.597 E39.02863
G0 F6600 X107.873 Y103.127
G1 F1350 X103.649 Y107.35 E39.22729
G0 F6600 X103.649 Y106.785
G1 F1350 X107.862 Y102.572 E39.42546
G0 F6600 X107.999 Y101.869
G1 F1350 X103.649 Y106.219 E39.63007
G0 F6600 X103.649 Y105.653
G1 F1350 X110.673 Y98.63 E39.96043
G0 F6600 X110.107 Y98.63
G1 F1350 X103.649 Y105.088 E40.2642
G0 F6600 X103.649 Y104.522
G1 F1350 X109.541 Y98.63 E40.54134
G0 F6600 X108.975 Y98.63
G1 F1350 X103.649 Y103.956 E40.79186
G0 F6600 X103.649 Y103.391
G1 F1350 X108.41 Y98.63 E41.0158
G0 F6600 X107.844 Y98.63
G1 F1350 X103.649 Y102.825 E41.21312
G0 F6600 X103.649 Y102.259
G1 F1350 X107.278 Y98.63 E41.38382
G0 F6600 X106.713 Y98.63
G1 F1350 X103.649 Y101.693 E41.52792
G0 F6600 X103.649 Y101.128
G1 F1350 X106.147 Y98.63 E41.64542
G0 F6600 X105.581 Y98.63
G1 F1350 X103.649 Y100.562 E41.73629
G0 F6600 X103.649 Y99.996
G1 F1350 X105.015 Y98.63 E41.80054
G0 F6600 X104.45 Y98.63
G1 F1350 X103.649 Y99.431 E41.83822
G0 F6600 X103.649 Y98.865
G1 F1350 X103.884 Y98.63 E41.84927
G0 F6600 X103.884 Y98.19
G0 X116.718 Y98.262
G0 X116.718 Y100.288
G0 X112.718 Y100.287
G0 X112.705 Y101.155
G0 X109.938 Y100.469
G0 X109.823 Y100.045
G1 F1350 X111.239 Y98.63 E41.91585
G0 F6600 X111.804 Y98.63
G1 F1350 X110.53 Y99.904 E41.97578
G0 F6600 X111.085 Y99.914
G1 F1350 X112.37 Y98.63 E42.0362
G0 F6600 X112.936 Y98.63
G1 F1350 X111.554 Y100.011 E42.10118
G0 F6600 X111.965 Y100.166
G1 F1350 X113.501 Y98.63 E42.17343
G0 F6600 X114.067 Y98.63
G1 F1350 X112.778 Y99.919 E42.23406
G0 F6600 X113.344 Y99.919
G1 F1350 X114.633 Y98.63 E42.29469
G0 F6600 X115.199 Y98.63
G1 F1350 X113.909 Y99.919 E42.35534
G0 F6600 X114.474 Y99.919
G1 F1350 X115.764 Y98.63 E42.416
G0 F6600 X116.33 Y98.63
G1 F1350 X115.04 Y99.919 E42.47665
G0 F6600 X115.606 Y99.919
G1 F1350 X116.348 Y99.177 E42.51155
G0 F6600 X116.348 Y99.743
G1 F1350 X116.171 Y99.919 E42.51986
G0 F6600 X116.17 Y100.359
G0 X112.79 Y100.807
G0 X112.738 Y100.807
;TYPE:SKIN
G1 F1350 X112.521 Y101.024 E42.52496
G0 F6600 X112.664 Y101.164
G1 F1350 X112.738 Y101.09 E42.5267
G0 F6600 X112.79 Y101.09
G0 X112.818 Y102.053
G0 X112.79 Y104.484
G0 X112.738 Y104.484
G1 F1350 X112.518 Y104.704 E42.53187
G0 F6600 X112.704 Y104.801
G1 F1350 X112.738 Y104.767 E42.53267
G0 F6600 X112.79 Y104.767
G0 X113.059 Y103.598
G0 X113.091 Y103.565
G1 F1350 X112.976 Y103.398 E42.53781
G1 X112.981 Y102.26 E42.56663
G1 X112.863 Y102.096 E42.57175
G0 F6600 X113.032 Y101.902
G1 F3600 E37.57175
;MESH:NONMESH
G0 F300 X113.032 Y101.902 Z0.6
G0 F6600 X112.714 Y103.505
G0 X112.352 Y104.135
G0 X111.902 Y104.513
G0 X110.846 Y105.136
;TIME_ELAPSED:77.595107
;LAYER:2
M106 S170
;TYPE:WALL-INNER
;MESH:gbox_err.STL
G1 F3600 E42.57175
G1 F1500 X111.156 Y105.111 E42.5821
G1 X111.556 Y105.004 E42.59587
G1 X111.926 Y104.831 E42.60945
G1 X112.262 Y104.596 E42.62309
G1 X112.509 Y104.348 E42.63473
G1 X112.552 Y104.305 E42.63676
G1 X112.788 Y103.969 E42.65041
G1 X112.9 Y103.727 E42.65928
G1 X112.9 Y103.969 E42.66024
G1 X112.9 Y104.305 E42.6664
G1 X112.9 Y104.366 E42.66831
G1 X112.9 Y112.165 E42.9277
G1 X116.9 Y112.166 E43.06075
G1 X116.9 Y123.04 E43.42242
G1 X116.9 Y123.239 E43.42903
G1 X116.701 Y123.239 E43.43332
G1 X103.1 Y123.238 E43.88569
G1 X103.1 Y98.083 E44.72235
G1 X116.701 Y98.082 E45.17472
G1 X116.9 Y98.082 E45.18134
G1 X116.9 Y98.281 E45.18562
G1 X116.9 Y100.471 E45.25846
G1 X112.9 Y100.47 E45.3915
G1 X112.9 Y101.22 E45.41644
G1 X112.9 Y101.281 E45.41847
G1 X112.9 Y101.618 E45.42968
G1 X112.9 Y101.86 E45.43773
G1 X112.788 Y101.618 E45.43949
G1 X112.552 Y101.281 E45.44814
G1 X112.509 Y101.238 E45.45004
G1 X112.262 Y100.992 E45.46164
G1 X111.928 Y100.756 E45.47524
G1 X111.555 Y100.582 E45.48893
G1 X111.158 Y100.475 E45.5026
G1 X110.75 Y100.441 E45.51622
G1 X110.342 Y100.475 E45.52984
G1 X109.945 Y100.582 E45.54351
G1 X109.572 Y100.756 E45.5572
G1 X109.238 Y100.992 E45.57081
G1 X108.948 Y101.281 E45.58442
G1 X108.712 Y101.618 E45.59811
G1 X108.54 Y101.99 E45.61174
