;FLAVOR:Marlin
;TIME:6202
;Filament used: 5.62013m
;Layer height: 0.2
;MINX:100.69
;MINY:120.392
;MINZ:0.24
;MAXX:199.296
;MAXY:179.635
;MAXZ:6.09
;Generated with Creality Slicer 4.8.2-205
M140 S60
M105
M190 S60
M104 S200
M105
M109 S200
M82 ;absolute extrusion mode

G28 ;Home

G92 E0 ;Reset Extruder
G1 Z2.0 F3000 ;Move Z Axis up
G1 X10.1 Y20 Z0.28 F5000.0 ;Move to start position
G1 X10.1 Y200.0 Z0.28 F1500.0 E15 ;Draw the first line
G1 X10.4 Y200.0 Z0.28 F5000.0 ;Move to side a little
G1 X10.4 Y20 Z0.28 F1500.0 E30 ;Draw the second line
G92 E0 ;Reset Extruder
G1 Z2.0 F3000 ;Move Z Axis up

G92 E0
G92 E0
G1 F3600 E-5
;LAYER_COUNT:25
;LAYER:-6
M107
G0 F7200 X117.343 Y131.803 Z0.24
;TYPE:SUPPORT-INTERFACE
G1 F3600 E0
G1 F1125 X117.502 Y131.668 E0.01665
G1 X117.847 Y131.394 E0.05182
G1 X117.953 Y131.315 E0.06237
G1 X119.79 Y130.034 E0.24114
G1 X119.909 Y129.957 E0.25245
G1 X120.306 Y129.715 E0.28957
G1 X120.442 Y129.638 E0.30204
G1 X122.405 Y128.611 E0.47889
G1 X122.557 Y128.538 E0.49235
G1 X122.967 Y128.356 E0.52816
G1 X123.118 Y128.294 E0.54119
G1 X125.203 Y127.521 E0.71869
G1 X125.316 Y127.482 E0.72823
G1 X125.789 Y127.34 E0.76765
G1 X125.884 Y127.315 E0.7755
G1 X128.205 Y126.773 E0.96575
G1 X128.417 Y126.731 E0.983
G1 X157.858 Y121.804 E3.36579
G1 X158.13 Y121.765 E3.38773
G1 X158.266 Y121.748 E3.39867
G1 X160.911 Y121.465 E3.61101
G1 X161.054 Y121.453 E3.62246
G1 X161.493 Y121.431 E3.65755
G1 X161.613 Y121.429 E3.66713
G1 X164.264 Y121.456 E3.87876
G1 X164.426 Y121.463 E3.8917
G1 X164.835 Y121.491 E3.92442
G1 X164.954 Y121.502 E3.93396
G1 X167.595 Y121.84 E4.1465
G1 X167.705 Y121.858 E4.1554
G1 X168.136 Y121.939 E4.1904
G1 X168.264 Y121.966 E4.20085
G1 X170.849 Y122.612 E4.41354
G1 X170.991 Y122.652 E4.42531
G1 X171.407 Y122.782 E4.4601
G1 X171.489 Y122.81 E4.46702
G1 X174.011 Y123.764 E4.68226
G1 X174.12 Y123.809 E4.69167
G1 X174.493 Y123.975 E4.72426
G1 X174.632 Y124.043 E4.73661
G1 X177.009 Y125.277 E4.9504
G1 X177.1 Y125.328 E4.95873
G1 X177.45 Y125.536 E4.99123
G1 X177.587 Y125.623 E5.00418
G1 X179.789 Y127.118 E5.21664
G1 X179.9 Y127.198 E5.22756
G1 X180.227 Y127.45 E5.26052
G1 X180.328 Y127.532 E5.2709
G1 X182.344 Y129.275 E5.48363
G1 X182.44 Y129.363 E5.49403
G1 X182.754 Y129.67 E5.52908
G1 X182.838 Y129.757 E5.53874
G1 X184.609 Y131.697 E5.74842
G1 X184.724 Y131.83 E5.76245
G1 X184.975 Y132.137 E5.79411
G1 X185.07 Y132.261 E5.80658
G1 X186.621 Y134.418 E6.01865
G1 X186.69 Y134.52 E6.02848
G1 X186.921 Y134.885 E6.06296
G1 X186.979 Y134.983 E6.07205
G1 X188.273 Y137.318 E6.28515
G1 X188.332 Y137.431 E6.29532
G1 X188.514 Y137.81 E6.32888
G1 X188.583 Y137.966 E6.3425
G1 X189.066 Y139.146 E6.44428
G1 X189.358 Y139.75 E6.49783
G1 X189.732 Y140.321 E6.55232
G1 X190.174 Y140.841 E6.6068
G1 X190.678 Y141.302 E6.66132
G1 X191.237 Y141.695 E6.71586
G1 X191.839 Y142.013 E6.77021
G1 X192.404 Y142.231 E6.81855
G1 X192.629 Y142.302 E6.83739
G1 X193.204 Y142.512 E6.88625
G1 X193.422 Y142.602 E6.90508
G1 X193.726 Y142.744 E6.93186
G1 X193.899 Y142.834 E6.94743
G1 X194.454 Y143.154 E6.99857
G1 X194.615 Y143.256 E7.01378
G1 X194.932 Y143.476 E7.04458
G1 X195.094 Y143.6 E7.06087
G1 X195.565 Y143.994 E7.10988
G1 X195.736 Y144.149 E7.12831
G1 X196.012 Y144.424 E7.15941
G1 X196.109 Y144.525 E7.17059
G1 X196.337 Y144.775 E7.19759
G1 X196.385 Y144.834 E7.20367
G1 X196.584 Y145.094 E7.2298
G1 X196.637 Y145.165 E7.23687
G1 X196.89 Y145.528 E7.27219
G1 X196.996 Y145.696 E7.28805
G1 X197.316 Y146.251 E7.33919
G1 X197.406 Y146.424 E7.35476
G1 X197.548 Y146.728 E7.38154
G1 X197.634 Y146.936 E7.39951
G1 X197.841 Y147.502 E7.44761
G1 X197.913 Y147.727 E7.46647
G1 X198.021 Y148.127 E7.49954
G1 X198.045 Y148.225 E7.5076
G1 X198.123 Y148.576 E7.5363
G1 X198.17 Y148.915 E7.56362
G1 X198.186 Y149.056 E7.57495
G1 X198.229 Y149.534 E7.61326
G1 X198.249 Y149.998 E7.65033
G1 X198.23 Y150.452 E7.6866
G1 X198.187 Y150.934 E7.72523
G1 X198.138 Y151.32 E7.75629
G1 X198.128 Y151.392 E7.76209
G1 X198.114 Y151.465 E7.76802
G1 X198.047 Y151.767 E7.79272
G1 X198.023 Y151.864 E7.80069
G1 X197.913 Y152.273 E7.8345
G1 X197.846 Y152.483 E7.8521
G1 X197.638 Y153.054 E7.90061
G1 X197.548 Y153.272 E7.91943
G1 X197.406 Y153.576 E7.94622
G1 X197.316 Y153.749 E7.96178
G1 X196.996 Y154.304 E8.01292
G1 X196.899 Y154.458 E8.02745
G1 X196.669 Y154.789 E8.05963
G1 X196.548 Y154.946 E8.07545
G1 X196.156 Y155.415 E8.12424
G1 X196 Y155.586 E8.14272
G1 X195.726 Y155.862 E8.17376
G1 X195.625 Y155.959 E8.18494
G1 X195.386 Y156.178 E8.21082
G1 X195.317 Y156.235 E8.21796
G1 X194.985 Y156.487 E8.25123
G1 X194.622 Y156.74 E8.28655
G1 X194.454 Y156.846 E8.30241
G1 X193.902 Y157.164 E8.35326
G1 X193.726 Y157.256 E8.36911
G1 X193.422 Y157.398 E8.3959
G1 X193.207 Y157.487 E8.41447
G1 X192.629 Y157.698 E8.46359
G1 X192.415 Y157.766 E8.48151
G1 X191.791 Y158.008 E8.53494
G1 X191.19 Y158.334 E8.58951
G1 X190.636 Y158.733 E8.64401
G1 X190.136 Y159.199 E8.69857
G1 X189.699 Y159.722 E8.75298
G1 X189.333 Y160.297 E8.80738
G1 X189.067 Y160.853 E8.85658
G1 X188.577 Y162.052 E8.95998
G1 X188.527 Y162.163 E8.96969
G1 X188.326 Y162.582 E9.00679
G1 X188.273 Y162.683 E9.0159
G1 X186.974 Y165.025 E9.22967
G1 X186.922 Y165.113 E9.23783
G1 X186.676 Y165.5 E9.27444
G1 X186.616 Y165.59 E9.28307
G1 X185.056 Y167.757 E9.49621
G1 X184.981 Y167.857 E9.50619
G1 X184.704 Y168.197 E9.5412
G1 X184.636 Y168.276 E9.54952
G1 X182.83 Y170.251 E9.76315
G1 X182.739 Y170.344 E9.77353
G1 X182.429 Y170.645 E9.80803
G1 X182.332 Y170.735 E9.81859
G1 X180.324 Y172.47 E10.03042
G1 X180.232 Y172.546 E10.03995
G1 X179.877 Y172.819 E10.07569
G1 X179.787 Y172.885 E10.0846
G1 X177.58 Y174.381 E10.29743
G1 X177.449 Y174.463 E10.30977
G1 X177.1 Y174.671 E10.3422
G1 X176.985 Y174.736 E10.35275
G1 X174.621 Y175.963 E10.56536
G1 X174.515 Y176.014 E10.57475
G1 X174.094 Y176.201 E10.61152
G1 X173.979 Y176.249 E10.62146
G1 X171.522 Y177.177 E10.83112
G1 X171.374 Y177.229 E10.84364
G1 X170.969 Y177.355 E10.8775
G1 X170.842 Y177.391 E10.88803
G1 X168.258 Y178.036 E11.10063
G1 X168.119 Y178.065 E11.11196
G1 X167.713 Y178.141 E11.14493
G1 X167.594 Y178.16 E11.15455
G1 X164.939 Y178.499 E11.36821
G1 X164.825 Y178.51 E11.37735
G1 X164.413 Y178.538 E11.41031
G1 X164.247 Y178.545 E11.42358
G1 X161.597 Y178.57 E11.63512
G1 X161.464 Y178.568 E11.64574
G1 X161.043 Y178.546 E11.67939
G1 X160.909 Y178.536 E11.69012
G1 X158.179 Y178.242 E11.9093
G1 X157.863 Y178.197 E11.93477
G1 X128.411 Y173.267 E14.31847
G1 X128.143 Y173.213 E14.34029
G1 X125.897 Y172.688 E14.52441
G1 X125.764 Y172.653 E14.53539
G1 X125.294 Y172.511 E14.57458
G1 X125.191 Y172.476 E14.58327
G1 X123.109 Y171.702 E14.76057
G1 X122.931 Y171.629 E14.77593
G1 X122.548 Y171.459 E14.80938
G1 X122.401 Y171.387 E14.82244
G1 X120.428 Y170.354 E15.00022
G1 X120.291 Y170.276 E15.0128
G1 X119.881 Y170.027 E15.05109
G1 X119.783 Y169.964 E15.06039
G1 X117.951 Y168.684 E15.23879
G1 X117.817 Y168.584 E15.25214
G1 X117.476 Y168.311 E15.28701
G1 X117.34 Y168.195 E15.30127
G1 X115.712 Y166.719 E15.47669
G1 X115.603 Y166.613 E15.48882
G1 X115.265 Y166.266 E15.52749
G1 X115.183 Y166.176 E15.53721
G1 X113.733 Y164.483 E15.71514
G1 X113.626 Y164.35 E15.72877
G1 X113.36 Y163.996 E15.76412
G1 X113.262 Y163.856 E15.77776
G1 X112.043 Y162 E15.95501
G1 X111.972 Y161.884 E15.96587
G1 X111.75 Y161.496 E16.00155
G1 X111.678 Y161.357 E16.01404
G1 X111.348 Y160.682 E16.07402
G1 X111.015 Y160.1 E16.12755
G1 X110.606 Y159.555 E16.18194
G1 X110.129 Y159.064 E16.23658
G1 X109.595 Y158.638 E16.29111
G1 X109.012 Y158.284 E16.34555
G1 X108.392 Y158.007 E16.39976
G1 X107.919 Y157.855 E16.43942
G1 X107.583 Y157.765 E16.46719
G1 X107.353 Y157.691 E16.48647
G1 X106.793 Y157.487 E16.53405
G1 X106.578 Y157.398 E16.55262
G1 X106.274 Y157.256 E16.57941
G1 X106.098 Y157.164 E16.59526
G1 X105.546 Y156.846 E16.64611
G1 X105.385 Y156.744 E16.66132
G1 X105.061 Y156.519 E16.69281
G1 X104.904 Y156.398 E16.70863
G1 X104.435 Y156.006 E16.75743
G1 X104.264 Y155.851 E16.77585
G1 X103.982 Y155.57 E16.80763
G1 X103.885 Y155.469 E16.81881
G1 X103.667 Y155.229 E16.84469
G1 X103.615 Y155.167 E16.85115
G1 X103.363 Y154.835 E16.88442
G1 X103.11 Y154.472 E16.91974
G1 X103.004 Y154.304 E16.93559
G1 X102.684 Y153.749 E16.98673
G1 X102.594 Y153.576 E17.0023
G1 X102.452 Y153.272 E17.02908
G1 X102.362 Y153.054 E17.04791
G1 X102.154 Y152.483 E17.09642
G1 X102.087 Y152.273 E17.11401
G1 X101.977 Y151.864 E17.14782
G1 X101.953 Y151.767 E17.1558
G1 X101.886 Y151.465 E17.18049
G1 X101.872 Y151.392 E17.18643
G1 X101.828 Y151.066 E17.21268
G1 X101.813 Y150.934 E17.22329
G1 X101.77 Y150.452 E17.26192
G1 X101.751 Y149.998 E17.29819
G1 X101.77 Y149.548 E17.33414
G1 X101.813 Y149.065 E17.37285
G1 X101.829 Y148.923 E17.38426
G1 X101.874 Y148.593 E17.41084
G1 X101.953 Y148.233 E17.44026
G1 X101.977 Y148.136 E17.44824
G1 X102.087 Y147.727 E17.48205
G1 X102.154 Y147.517 E17.49964
G1 X102.366 Y146.936 E17.54901
G1 X102.452 Y146.728 E17.56698
G1 X102.594 Y146.424 E17.59376
G1 X102.684 Y146.251 E17.60933
G1 X103.004 Y145.696 E17.66047
G1 X103.11 Y145.528 E17.67632
G1 X103.331 Y145.211 E17.70717
G1 X103.452 Y145.054 E17.72299
G1 X103.844 Y144.585 E17.77179
G1 X103.999 Y144.414 E17.79021
G1 X104.274 Y144.138 E17.82131
G1 X104.375 Y144.041 E17.83249
G1 X104.621 Y143.817 E17.85905
G1 X104.683 Y143.765 E17.86551
G1 X105.015 Y143.513 E17.89878
G1 X105.378 Y143.26 E17.9341
G1 X105.546 Y143.154 E17.94995
G1 X106.101 Y142.834 E18.00109
G1 X106.274 Y142.744 E18.01666
G1 X106.578 Y142.602 E18.04344
G1 X106.796 Y142.512 E18.06227
G1 X107.363 Y142.306 E18.11042
G1 X107.576 Y142.237 E18.1283
G1 X107.914 Y142.147 E18.15622
G1 X108.549 Y141.933 E18.20971
G1 X109.163 Y141.634 E18.26422
G1 X109.735 Y141.261 E18.31873
G1 X110.255 Y140.818 E18.37326
G1 X110.715 Y140.314 E18.42773
G1 X111.105 Y139.758 E18.48194
G1 X111.347 Y139.317 E18.5221
G1 X111.686 Y138.625 E18.58361
G1 X111.747 Y138.509 E18.59407
G1 X111.977 Y138.106 E18.63111
G1 X112.049 Y137.988 E18.64214
G1 X113.27 Y136.132 E18.81948
G1 X113.371 Y135.988 E18.83352
G1 X113.638 Y135.634 E18.86892
G1 X113.735 Y135.513 E18.8813
G1 X115.189 Y133.818 E19.05956
G1 X115.287 Y133.71 E19.0712
G1 X115.624 Y133.365 E19.1097
G1 X115.711 Y133.281 E19.11935
G1 X117.343 Y131.803 E19.29511
G0 F7200 X116.8 Y132.294
G1 F1125 X116.8 Y167.705 E22.12177
G0 F7200 X118.4 Y168.997
G1 F1125 X118.4 Y131.003 E25.15461
G0 F7200 X120 Y129.901
G1 F1125 X120 Y170.099 E28.36339
G0 F7200 X121.6 Y170.967
G1 F1125 X121.6 Y129.032 E31.71082
G0 F7200 X123.2 Y128.263
G1 F1125 X123.2 Y171.735 E35.18095
G0 F7200 X124.8 Y172.33
G1 F1125 X124.8 Y127.67 E38.7459
G0 F7200 X126.4 Y127.194
G1 F1125 X126.4 Y172.805 E42.38677
G0 F7200 X128 Y173.179
G1 F1125 X128 Y126.82 E46.08734
G0 F7200 X129.6 Y126.533
G1 F1125 X129.6 Y173.466 E49.83374
G0 F7200 X131.2 Y173.733
G1 F1125 X131.2 Y126.265 E53.62284
G0 F7200 X132.8 Y125.997
G1 F1125 X132.8 Y174.001 E57.45473
G0 F7200 X134.4 Y174.269
G1 F1125 X134.4 Y125.729 E61.3294
G0 F7200 X136 Y125.461
G1 F1125 X136 Y174.537 E65.24686
G0 F7200 X137.6 Y174.805
G1 F1125 X137.6 Y125.194 E69.20702
G0 F7200 X139.2 Y124.926
G1 F1125 X139.2 Y175.072 E73.20989
G0 F7200 X140.8 Y175.34
G1 F1125 X140.8 Y124.658 E77.25555
G0 F7200 X142.4 Y124.39
G1 F1125 X142.4 Y175.608 E81.34399
G0 F7200 X144 Y175.876
G1 F1125 X144 Y124.123 E85.47514
G0 F7200 X145.6 Y123.855
G1 F1125 X145.6 Y176.144 E89.64907
G0 F7200 X147.2 Y176.412
G1 F1125 X147.2 Y123.587 E93.86579
G0 F7200 X148.8 Y123.319
G1 F1125 X148.8 Y176.679 E98.12522
G0 F7200 X150.4 Y176.947
G1 F1125 X150.4 Y123.052 E102.42735
G0 F7200 X152 Y122.784
G1 F1125 X152 Y177.215 E106.77227
G0 F7200 X153.6 Y177.483
G1 F1125 X153.6 Y122.516 E111.15997
G0 F7200 X155.2 Y122.248
G1 F1125 X155.2 Y177.751 E115.59046
G0 F7200 X156.8 Y178.019
G1 F1125 X156.8 Y121.981 E120.06366
G0 F7200 X158.4 Y121.733
G1 F1125 X158.4 Y178.265 E124.57629
G0 F7200 X160 Y178.438
G1 F1125 X160 Y121.562 E129.11637
G0 F7200 X161.6 Y121.429
G1 F1125 X161.6 Y178.57 E133.67762
G0 F7200 X163.2 Y178.555
G1 F1125 X163.2 Y121.446 E138.2363
G0 F7200 X164.8 Y121.489
G1 F1125 X164.8 Y178.512 E142.78813
G0 F7200 X166.4 Y178.313
G1 F1125 X166.4 Y121.688 E147.30818
G0 F7200 X168 Y121.914
G1 F1125 X168 Y178.088 E151.79223
G0 F7200 X169.6 Y177.702
G1 F1125 X169.6 Y122.3 E156.21466
G0 F7200 X171.2 Y122.718
G1 F1125 X171.2 Y177.284 E160.57035
G0 F7200 X172.8 Y176.695
G1 F1125 X172.8 Y123.306 E164.83209
G0 F7200 X174.4 Y123.934
G1 F1125 X174.4 Y176.066 E168.99349
G0 F7200 X176 Y175.248
G1 F1125 X176 Y124.754 E173.02414
G0 F7200 X177.6 Y125.632
G1 F1125 X177.6 Y174.368 E176.91446
G0 F7200 X179.2 Y173.283
G1 F1125 X179.2 Y126.719 E180.6314
G0 F7200 X180.8 Y127.941
G1 F1125 X180.8 Y172.059 E184.15309
G0 F7200 X182.4 Y170.672
G1 F1125 X182.4 Y129.327 E187.45343
G0 F7200 X184 Y131.03
G1 F1125 X184 Y168.972 E190.48212
G0 F7200 X185.6 Y167.002
G1 F1125 X185.6 Y132.999 E193.19639
G0 F7200 X187.2 Y135.382
G1 F1125 X187.2 Y164.618 E195.53013
G0 F7200 X188.8 Y161.507
G1 F1125 X188.8 Y138.497 E197.36689
G0 F7200 X190.4 Y141.048
G1 F1125 X190.4 Y158.953 E198.79614
G0 F7200 X192 Y157.927
G1 F1125 X192 Y142.076 E200.06144
G0 F7200 X193.6 Y142.686
G1 F1125 X193.6 Y157.315 E201.22919
G0 F7200 X195.2 Y156.324
G1 F1125 X195.2 Y143.689 E202.23777
G0 F7200 X196.8 Y145.399
G1 F1125 X196.8 Y154.601 E202.97231
G1 F3600 E197.97231
G0 F7200 X197.528 Y155.417
G0 X196.469 Y156.624
G0 X183.487 Y171.102
G0 X180.518 Y173.669
G0 X177.483 Y175.676
G0 X174.375 Y177.237
G0 X171.122 Y178.418
G0 X167.743 Y179.215
G0 X164.281 Y179.609
G0 X160.807 Y179.595
G0 X157.692 Y179.247
G0 X127.904 Y174.249
G0 X124.977 Y173.528
G0 X122.098 Y172.423
G0 X119.321 Y170.932
G0 X116.793 Y169.127
G0 X114.494 Y167
G0 X115.2 Y166.194
G1 F3600 E202.97231
G1 F1125 X115.2 Y133.805 E205.55774
G0 F7200 X113.6 Y135.684
G1 F1125 X113.6 Y164.315 E207.84319
G0 F7200 X112 Y161.929
G1 F1125 X112 Y138.068 E209.74788
G0 F7200 X110.4 Y140.659
G1 F1125 X110.4 Y159.342 E211.23924
G0 F7200 X108.8 Y158.189
G1 F1125 X108.8 Y141.81 E212.54668
G0 F7200 X107.2 Y142.365
G1 F1125 X107.2 Y157.635 E213.7656
G0 F7200 X105.6 Y156.877
G1 F1125 X105.6 Y143.122 E214.86358
G0 F7200 X104 Y144.412
G1 F1125 X104 Y155.587 E215.75562
G0 F7200 X102.4 Y153.146
G1 F1125 X102.4 Y146.853 E216.25796
G1 F3600 E211.25796
G0 F300 X102.4 Y146.853 Z0.54
G0 F7200 X101.15 Y147.165
G0 X100.811 Y148.507
G0 X100.69 Y150.117
G0 X100.842 Y151.675
G0 X101.016 Y152.331
G0 X101.474 Y153.693
G0 X102.594 Y153.575
;TIME_ELAPSED:158.438788
;LAYER:-5
;TYPE:SUPPORT
G1 F3600 E216.25796
G1 F1125 X102.683 Y153.748 E216.27737
G1 X103.004 Y154.303 E216.34134
G1 X103.109 Y154.471 E216.36111
G1 X103.362 Y154.834 E216.40526
G1 X103.615 Y155.166 E216.44691
G1 X103.667 Y155.228 E216.45498
G1 X103.884 Y155.468 E216.48727
G1 X103.981 Y155.569 E216.50124
G1 X104.264 Y155.85 E216.54103
G1 X104.434 Y156.005 E216.56399
G1 X104.904 Y156.397 E216.62506
G1 X105.06 Y156.518 E216.64475
G1 X105.385 Y156.743 E216.6842
G1 X105.546 Y156.845 E216.70321
G1 X106.097 Y157.163 E216.76669
G1 X106.273 Y157.254 E216.78646
G1 X106.404 Y157.315 E216.80088
G1 X102.532 Y153.444 E217.34719
G1 X102.451 Y153.271 E217.36625
G1 X102.362 Y153.053 E217.38975
G1 X102.154 Y152.481 E217.45048
G1 X102.087 Y152.271 E217.47247
G1 X101.976 Y151.863 E217.51466
G1 X101.953 Y151.766 E217.52461
G1 X101.886 Y151.464 E217.55548
G1 X101.872 Y151.39 E217.56299
G1 X101.868 Y151.366 E217.56542
G1 X108.603 Y158.1 E218.51573
G0 F7200 X109.011 Y158.283
G1 F1125 X109.595 Y158.637 E218.58387
G1 X110.129 Y159.063 E218.65203
G1 X110.605 Y159.554 E218.72027
G1 X111.015 Y160.099 E218.78832
G1 X111.348 Y160.681 E218.85522
G1 X111.504 Y161.001 E218.89074
G1 X121.326 Y170.823 E220.27673
G1 X122.4 Y171.386 E220.39773
G1 X122.547 Y171.458 E220.41406
G1 X122.931 Y171.628 E220.45597
G1 X123.108 Y171.701 E220.47507
G1 X123.919 Y172.002 E220.56139
G1 X101.757 Y149.84 E223.68868
G1 X101.769 Y149.547 E223.71794
G1 X101.812 Y149.064 E223.76633
G1 X101.829 Y148.922 E223.7806
G1 X101.873 Y148.592 E223.81382
G1 X101.882 Y148.551 E223.818
G1 X126.055 Y172.724 E227.22908
G1 X127.9 Y173.155 E227.41813
G1 X102.182 Y147.437 E231.04721
