;FLAVOR:Marlin
;TIME:349
;Filament used: 0.262362m
;Layer height: 0.28
;MINX:128.932
;MINY:129.393
;MINZ:0.28
;MAXX:171.038
;MAXY:170.534
;MAXZ:0.84
;Generated with Creality Slicer 4.8.2-205
M140 S60
M105
M190 S60
M104 S200
M105
M109 S200
M82 ;absolute extrusion mode

G28 ;Home

G92 E0 ;Reset Extruder
G1 Z2.0 F3000 ;Move Z Axis up
G1 X10.1 Y20 Z0.28 F5000.0 ;Move to start position
G1 X10.1 Y200.0 Z0.28 F1500.0 E15 ;Draw the first line
G1 X10.4 Y200.0 Z0.28 F5000.0 ;Move to side a little
G1 X10.4 Y20 Z0.28 F1500.0 E30 ;Draw the second line
G92 E0 ;Reset Extruder
G1 Z2.0 F3000 ;Move Z Axis up

G92 E0
G92 E0
G1 F3600 E-5
;LAYER_COUNT:3
;LAYER:0
M107
;MESH:test2.STL
G0 F6000 X142.38 Y144.639 Z0.28
;TYPE:WALL-INNER
G1 F3600 E0
G1 F1200 X142.788 Y144.602 E0.01908
G1 X143.157 Y144.503 E0.03687
G1 X143.184 Y144.496 E0.03816
G1 X143.339 Y144.424 E0.04612
G1 X143.557 Y144.323 E0.05731
G1 X143.8 Y144.152 E0.07115
G1 X143.668 Y144.385 E0.0728
G1 X143.504 Y144.676 E0.08245
G1 X143.478 Y144.722 E0.08395
G1 X143.468 Y144.748 E0.08524
G1 X142.897 Y146.206 E0.15815
G1 X142.508 Y147.85 E0.23682
G1 X144.238 Y155.827 E0.6169
G1 X145.274 Y157.161 E0.69555
G1 X146.357 Y158.212 E0.76582
G1 X146.418 Y158.271 E0.76977
G1 X146.576 Y158.387 E0.7789
G1 X146.858 Y158.593 E0.79516
G1 X146.945 Y158.656 E0.80016
G1 X146.835 Y158.626 E0.80067
G1 X146.427 Y158.592 E0.80897
G1 X146.343 Y158.599 E0.81254
G1 X146.019 Y158.626 E0.82768
G1 X145.622 Y158.733 E0.84682
G1 X145.251 Y158.906 E0.86589
G1 X144.915 Y159.142 E0.88501
G1 X144.625 Y159.432 E0.9041
G1 X144.39 Y159.768 E0.92319
G1 X144.217 Y160.138 E0.94221
G1 X144.111 Y160.535 E0.96135
G1 X144.074 Y160.944 E0.98047
G1 X144.111 Y161.353 E0.99959
G1 X144.217 Y161.749 E1.01868
G1 X144.39 Y162.12 E1.03774
G1 X144.625 Y162.456 E1.05683
G1 X144.915 Y162.746 E1.07593
G1 X145.251 Y162.981 E1.09502
G1 X145.622 Y163.154 E1.11409
G1 X146.018 Y163.26 E1.13317
G1 X146.427 Y163.297 E1.1523
G1 X146.836 Y163.26 E1.17142
G1 X147.233 Y163.154 E1.19055
G1 X147.603 Y162.981 E1.20957
G1 X147.939 Y162.746 E1.22866
G1 X148.229 Y162.456 E1.24776
G1 X148.465 Y162.12 E1.26688
G1 X148.638 Y161.749 E1.28594
G1 X148.745 Y161.352 E1.30509
G1 X148.779 Y160.944 E1.32415
G1 X148.745 Y160.536 E1.34322
G1 X148.643 Y160.158 E1.36145
G1 X148.638 Y160.138 E1.36241
G1 X148.465 Y159.768 E1.38143
G1 X148.295 Y159.524 E1.39527
G1 X148.528 Y159.648 E1.39698
G1 X148.816 Y159.802 E1.40801
G1 X148.834 Y159.811 E1.40893
G1 X149.113 Y159.96 E1.42366
G1 X150.613 Y160.506 E1.49799
G1 X152.172 Y160.835 E1.57218
G1 X153.764 Y160.942 E1.64648
G1 X155.354 Y160.826 E1.72071
G1 X156.912 Y160.488 E1.79495
G1 X158.408 Y159.935 E1.86921
G1 X159.811 Y159.178 E1.94344
G1 X161.094 Y158.231 E2.0177
G1 X162.232 Y157.115 E2.09192
G1 X162.417 Y156.873 E2.1061
G1 X162.522 Y156.736 E2.11414
G1 X162.733 Y156.461 E2.13028
G1 X162.799 Y156.375 E2.13533
G1 X162.769 Y156.487 E2.13585
G1 X162.732 Y156.896 E2.14456
G1 X162.747 Y157.068 E2.15133
G1 X162.769 Y157.305 E2.16241
G1 X162.875 Y157.702 E2.18155
G1 X163.048 Y158.072 E2.20056
G1 X163.283 Y158.408 E2.21966
G1 X163.573 Y158.698 E2.23875
G1 X163.909 Y158.934 E2.25787
G1 X164.282 Y159.107 E2.27702
G1 X164.676 Y159.212 E2.29601
G1 X165.085 Y159.249 E2.31513
G1 X165.493 Y159.212 E2.3342
G1 X165.889 Y159.107 E2.35328
G1 X166.261 Y158.934 E2.37238
G1 X166.597 Y158.699 E2.39148
G1 X166.888 Y158.408 E2.41064
G1 X167.123 Y158.072 E2.42973
G1 X167.296 Y157.702 E2.44875
G1 X167.403 Y157.304 E2.46794
G1 X167.437 Y156.896 E2.48701
G1 X167.403 Y156.488 E2.50607
G1 X167.296 Y156.091 E2.52522
G1 X167.123 Y155.72 E2.54428
G1 X166.887 Y155.384 E2.5634
G1 X166.597 Y155.094 E2.58249
G1 X166.261 Y154.859 E2.60158
G1 X165.891 Y154.686 E2.6206
G1 X165.494 Y154.58 E2.63974
G1 X165.085 Y154.543 E2.65886
G1 X164.676 Y154.58 E2.67798
G1 X164.304 Y154.68 E2.69592
G1 X164.28 Y154.686 E2.69707
G1 X164.132 Y154.755 E2.70468
G1 X163.909 Y154.859 E2.71613
G1 X163.702 Y155.004 E2.7279
G1 X163.805 Y154.806 E2.72909
G1 X163.955 Y154.518 E2.73809
G1 X163.99 Y154.451 E2.74053
G1 X163.999 Y154.428 E2.74168
G1 X164.568 Y152.976 E2.8143
G1 X164.956 Y151.332 E2.89295
G1 X163.227 Y143.356 E3.27297
G1 X162.191 Y142.021 E3.35166
G1 X161.108 Y140.969 E3.42196
G1 X161.047 Y140.91 E3.42592
G1 X160.889 Y140.795 E3.43501
G1 X160.607 Y140.589 E3.45128
G1 X160.521 Y140.527 E3.45621
G1 X160.63 Y140.556 E3.45668
G1 X161.037 Y140.59 E3.46492
G1 X161.122 Y140.583 E3.46854
G1 X161.445 Y140.556 E3.48363
G1 X161.843 Y140.449 E3.50282
G1 X162.213 Y140.276 E3.52184
G1 X162.549 Y140.041 E3.54093
G1 X162.84 Y139.75 E3.56009
G1 X163.075 Y139.414 E3.57919
G1 X163.248 Y139.044 E3.59821
G1 X163.355 Y138.646 E3.6174
G1 X163.389 Y138.238 E3.63646
G1 X163.355 Y137.83 E3.65552
G1 X163.248 Y137.433 E3.67467
G1 X163.075 Y137.062 E3.69373
G1 X162.839 Y136.726 E3.71285
G1 X162.549 Y136.436 E3.73195
G1 X162.213 Y136.201 E3.75104
G1 X161.843 Y136.028 E3.77006
G1 X161.446 Y135.922 E3.78919
G1 X161.037 Y135.885 E3.80832
G1 X160.629 Y135.922 E3.82739
G1 X160.233 Y136.028 E3.84648
G1 X159.86 Y136.201 E3.86563
G1 X159.526 Y136.437 E3.88467
G1 X159.236 Y136.726 E3.90373
G1 X159 Y137.062 E3.92285
G1 X158.827 Y137.433 E3.94191
G1 X158.721 Y137.829 E3.961
G1 X158.684 Y138.238 E3.98012
G1 X158.721 Y138.647 E3.99925
G1 X158.822 Y139.025 E4.01747
G1 X158.827 Y139.044 E4.01838
G1 X159 Y139.414 E4.0374
G1 X159.171 Y139.659 E4.05131
G1 X158.937 Y139.535 E4.05305
G1 X158.648 Y139.381 E4.06415
G1 X158.631 Y139.372 E4.06502
G1 X158.351 Y139.222 E4.07982
G1 X156.852 Y138.676 E4.1541
G1 X155.293 Y138.347 E4.22829
G1 X153.701 Y138.24 E4.30259
G1 X152.111 Y138.356 E4.37683
G1 X150.553 Y138.694 E4.45106
G1 X149.064 Y139.244 E4.52497
G1 X148.137 Y139.716 E4.57341
G1 X147.643 Y140.012 E4.60023
G1 X146.37 Y140.951 E4.67388
G1 X145.232 Y142.067 E4.7481
G1 X145.048 Y142.307 E4.76218
G1 X144.942 Y142.445 E4.77029
G1 X144.731 Y142.721 E4.78646
G1 X144.667 Y142.804 E4.79134
G1 X144.696 Y142.695 E4.79187
G1 X144.733 Y142.286 E4.80051
G1 X144.718 Y142.112 E4.80733
G1 X144.696 Y141.877 E4.81832
G1 X144.59 Y141.48 E4.83746
G1 X144.417 Y141.11 E4.85648
G1 X144.182 Y140.774 E4.87557
G1 X143.891 Y140.484 E4.8947
G1 X143.557 Y140.248 E4.91374
G1 X143.184 Y140.075 E4.93289
G1 X142.787 Y139.968 E4.95203
G1 X142.38 Y139.934 E4.97105
G1 X141.972 Y139.968 E4.99012
G1 X141.574 Y140.075 E5.00931
G1 X141.204 Y140.248 E5.02833
G1 X140.868 Y140.483 E5.04742
G1 X140.577 Y140.774 E5.06658
G1 X140.342 Y141.11 E5.08567
G1 X140.169 Y141.48 E5.10469
G1 X140.062 Y141.878 E5.12388
G1 X140.028 Y142.286 E5.14295
G1 X140.062 Y142.694 E5.16201
G1 X140.169 Y143.091 E5.18116
G1 X140.342 Y143.462 E5.20022
G1 X140.578 Y143.798 E5.21934
G1 X140.868 Y144.088 E5.23843
G1 X141.204 Y144.323 E5.25753
G1 X141.574 Y144.496 E5.27655
G1 X141.971 Y144.602 E5.29568
G1 X142.38 Y144.639 E5.3148
G0 F6000 X142.38 Y144.237
;TYPE:WALL-OUTER
G1 F1200 X142.718 Y144.207 E5.3306
G1 X143.047 Y144.119 E5.34646
G1 X143.356 Y143.975 E5.36233
G1 X143.633 Y143.78 E5.37811
G1 X143.874 Y143.54 E5.39395
G1 X144.069 Y143.261 E5.4098
G1 X144.213 Y142.953 E5.42563
G1 X144.301 Y142.625 E5.44144
G1 X144.331 Y142.286 E5.45729
G1 X144.301 Y141.947 E5.47313
G1 X144.213 Y141.618 E5.48899
G1 X144.069 Y141.311 E5.50478
G1 X143.874 Y141.032 E5.52063
G1 X143.633 Y140.791 E5.5365
G1 X143.356 Y140.596 E5.55228
G1 X143.047 Y140.452 E5.56815
G1 X142.718 Y140.364 E5.58401
G1 X142.38 Y140.335 E5.59981
G1 X142.041 Y140.364 E5.61565
G1 X141.712 Y140.452 E5.63151
G1 X141.405 Y140.596 E5.6473
G1 X141.126 Y140.791 E5.66315
G1 X140.885 Y141.032 E5.67902
G1 X140.69 Y141.311 E5.69487
G1 X140.546 Y141.618 E5.71066
G1 X140.458 Y141.947 E5.72651
G1 X140.429 Y142.286 E5.74236
G1 X140.458 Y142.625 E5.7582
G1 X140.546 Y142.953 E5.77401
G1 X140.69 Y143.261 E5.78984
G1 X140.885 Y143.54 E5.80569
G1 X141.126 Y143.78 E5.82153
G1 X141.405 Y143.975 E5.83738
G1 X141.712 Y144.119 E5.85317
G1 X142.041 Y144.207 E5.86903
G1 X142.38 Y144.237 E5.88488
G0 F6000 X142.38 Y144.677
G1 F3600 E0.88488
G0 F6000 X144.479 Y143.477
G0 X145.428 Y142.241
G0 X146.54 Y141.15
G0 X147.788 Y140.229
G0 X149.169 Y139.483
G0 X150.626 Y138.945
G0 X152.149 Y138.615
G0 X153.702 Y138.501
G0 X155.257 Y138.606
G0 X156.49 Y138.866
G0 X160.682 Y140.358
G0 X160.699 Y140.16
G1 F3600 E5.88488
G1 F1200 X161.037 Y140.189 E5.90067
G1 X161.376 Y140.16 E5.91652
G1 X161.705 Y140.072 E5.93237
G1 X162.012 Y139.928 E5.94816
G1 X162.291 Y139.733 E5.96401
G1 X162.532 Y139.492 E5.97988
G1 X162.727 Y139.213 E5.99573
G1 X162.871 Y138.906 E6.01152
G1 X162.959 Y138.577 E6.02738
G1 X162.988 Y138.238 E6.04323
G1 X162.959 Y137.899 E6.05907
G1 X162.871 Y137.571 E6.07488
G1 X162.727 Y137.263 E6.09071
G1 X162.532 Y136.984 E6.10656
G1 X162.291 Y136.744 E6.1224
G1 X162.012 Y136.549 E6.13825
G1 X161.705 Y136.405 E6.15404
G1 X161.376 Y136.317 E6.1699
G1 X161.037 Y136.287 E6.18575
G1 X160.699 Y136.317 E6.20155
G1 X160.37 Y136.405 E6.2174
G1 X160.061 Y136.549 E6.23328
G1 X159.784 Y136.744 E6.24905
G1 X159.543 Y136.984 E6.26489
G1 X159.348 Y137.263 E6.28074
G1 X159.204 Y137.571 E6.29657
G1 X159.116 Y137.899 E6.31238
G1 X159.086 Y138.238 E6.32823
G1 X159.116 Y138.577 E6.34408
G1 X159.204 Y138.906 E6.35994
G1 X159.348 Y139.213 E6.37573
G1 X159.543 Y139.492 E6.39158
G1 X159.784 Y139.733 E6.40745
G1 X160.061 Y139.928 E6.42322
G1 X160.37 Y140.072 E6.43909
G1 X160.699 Y140.16 E6.45495
G0 F6000 X160.624 Y140.593
G1 F3600 E1.45495
G0 F6000 X161.996 Y142.195
G0 X162.984 Y143.47
G0 X164.689 Y151.329
G0 X163.742 Y155.295
G0 X163.275 Y155.852
G0 X163.026 Y156.534
G0 X163.026 Y157.258
G0 X163.275 Y157.941
G0 X163.741 Y158.498
G0 X164.251 Y158.791
G0 X165.068 Y159.045
G0 X165.085 Y158.847
G1 F3600 E6.45495
G1 F1200 X165.424 Y158.817 E6.4708
G1 X165.752 Y158.73 E6.4866
G1 X166.06 Y158.586 E6.50243
G1 X166.339 Y158.391 E6.51828
G1 X166.58 Y158.15 E6.53415
G1 X166.775 Y157.871 E6.55
G1 X166.919 Y157.564 E6.56579
G1 X167.007 Y157.235 E6.58165
G1 X167.036 Y156.896 E6.59749
G1 X167.007 Y156.557 E6.61334
G1 X166.919 Y156.229 E6.62915
G1 X166.775 Y155.921 E6.64498
G1 X166.58 Y155.642 E6.66083
G1 X166.339 Y155.402 E6.67667
G1 X166.06 Y155.207 E6.69252
G1 X165.753 Y155.063 E6.70831
G1 X165.424 Y154.975 E6.72417
G1 X165.085 Y154.945 E6.74001
G1 X164.746 Y154.975 E6.75586
G1 X164.418 Y155.063 E6.77167
G1 X164.11 Y155.207 E6.78751
G1 X163.831 Y155.402 E6.80336
G1 X163.591 Y155.642 E6.81916
G1 X163.396 Y155.921 E6.83501
G1 X163.252 Y156.229 E6.85084
G1 X163.164 Y156.557 E6.86665
G1 X163.134 Y156.896 E6.8825
G1 X163.164 Y157.235 E6.89835
G1 X163.252 Y157.564 E6.91421
G1 X163.396 Y157.871 E6.93
G1 X163.591 Y158.15 E6.94585
G1 X163.831 Y158.391 E6.96168
G1 X164.11 Y158.586 E6.97753
G1 X164.419 Y158.73 E6.99341
G1 X164.746 Y158.817 E7.00916
G1 X165.085 Y158.847 E7.02501
G0 F6000 X165.085 Y159.287
G1 F3600 E2.02501
G0 F6000 X162.899 Y158.158
G0 X162.547 Y157.026
G0 X158.438 Y160.137
G0 X153.75 Y160.739
G0 X153.763 Y160.541
G1 F3600 E7.02501
G1 F1200 X155.297 Y160.429 E7.09663
G1 X156.8 Y160.103 E7.16824
G1 X158.243 Y159.57 E7.23987
G1 X159.596 Y158.839 E7.31148
G1 X160.834 Y157.926 E7.38311
G1 X161.932 Y156.849 E7.45473
G1 X162.866 Y155.63 E7.52623
G1 X163.258 Y154.991 E7.56114
G1 X163.625 Y154.285 E7.59819
G1 X164.185 Y152.856 E7.66966
G1 X164.546 Y151.328 E7.74277
G1 X162.855 Y143.529 E8.11436
G1 X161.892 Y142.288 E8.1875
G1 X160.789 Y141.217 E8.25909
G1 X159.545 Y140.311 E8.33075
G1 X158.188 Y139.588 E8.40235
G1 X156.742 Y139.062 E8.474
G1 X155.238 Y138.744 E8.54558
G1 X153.702 Y138.641 E8.61726
G1 X152.168 Y138.753 E8.68888
G1 X150.665 Y139.079 E8.76049
G1 X149.225 Y139.611 E8.83198
G1 X148.331 Y140.066 E8.87869
G1 X147.865 Y140.345 E8.90398
G1 X146.63 Y141.256 E8.97544
G1 X145.532 Y142.333 E9.04705
G1 X144.596 Y143.554 E9.11869
G1 X143.84 Y144.894 E9.19033
G1 X143.28 Y146.326 E9.26193
G1 X142.918 Y147.854 E9.33505
G1 X144.61 Y155.653 E9.70665
G1 X145.573 Y156.894 E9.7798
G1 X146.676 Y157.964 E9.85135
G1 X147.919 Y158.871 E9.923
G1 X149.276 Y159.594 E9.9946
G1 X150.723 Y160.12 E10.06629
G1 X152.227 Y160.438 E10.13787
G1 X153.763 Y160.541 E10.20955
G0 F6000 X153.764 Y160.981
G1 F3600 E5.20955
G0 F6000 X148.798 Y160.017
G0 X148.411 Y162.517
G0 X146.41 Y163.093
G0 X146.427 Y162.895
G1 F3600 E10.20955
G1 F1200 X146.766 Y162.865 E10.2254
G1 X147.095 Y162.777 E10.24126
G1 X147.402 Y162.633 E10.25705
G1 X147.681 Y162.438 E10.2729
G1 X147.922 Y162.198 E10.28874
G1 X148.117 Y161.919 E10.30459
G1 X148.261 Y161.611 E10.32042
G1 X148.349 Y161.283 E10.33623
G1 X148.378 Y160.944 E10.35207
G1 X148.349 Y160.605 E10.36792
G1 X148.261 Y160.276 E10.38378
G1 X148.117 Y159.969 E10.39957
G1 X147.922 Y159.69 E10.41542
G1 X147.681 Y159.449 E10.43129
G1 X147.402 Y159.254 E10.44714
G1 X147.095 Y159.11 E10.46293
G1 X146.766 Y159.022 E10.47878
G1 X146.427 Y158.993 E10.49463
G1 X146.088 Y159.022 E10.51047
G1 X145.76 Y159.11 E10.52628
G1 X145.452 Y159.254 E10.54211
G1 X145.173 Y159.449 E10.55796
G1 X144.933 Y159.69 E10.5738
G1 X144.738 Y159.969 E10.58965
G1 X144.594 Y160.276 E10.60544
G1 X144.506 Y160.605 E10.6213
G1 X144.476 Y160.944 E10.63715
G1 X144.506 Y161.283 E10.65299
G1 X144.594 Y161.611 E10.66881
G1 X144.738 Y161.919 E10.68464
G1 X144.933 Y162.198 E10.70049
G1 X145.173 Y162.438 E10.71629
G1 X145.452 Y162.633 E10.73214
G1 X145.76 Y162.777 E10.74797
G1 X146.088 Y162.865 E10.76379
G1 X146.427 Y162.895 E10.77963
G0 F6000 X146.427 Y163.335
G1 F3600 E5.77963
G0 F6000 X147.699 Y163.147
G0 X146.969 Y161.881
G0 X150.595 Y167.989
G0 X150.912 Y166.548
G0 X170.579 Y170.051
;TYPE:WALL-INNER
G1 F3600 E10.77963
G1 F1200 X170.318 Y170.008 E10.79195
G1 X150.873 Y166.754 E11.70998
G1 X149.106 Y166.364 E11.79424
G1 X147.38 Y165.79 E11.87894
G1 X145.756 Y165.054 E11.96196
G1 X144.193 Y164.142 E12.04623
G1 X142.735 Y163.073 E12.13041
G1 X141.407 Y161.873 E12.21375
G1 X140.196 Y160.522 E12.29824
G1 X139.137 Y159.062 E12.38222
G1 X138.242 Y157.513 E12.46552
G1 X137.5 Y155.853 E12.55019
G1 X136.928 Y154.11 E12.63561
G1 X136.742 Y153.596 E12.66106
G1 X136.456 Y153.082 E12.68845
G1 X136.089 Y152.624 E12.71578
G1 X135.654 Y152.23 E12.74311
G1 X135.159 Y151.912 E12.7705
G1 X134.62 Y151.679 E12.79785
G1 X134.051 Y151.537 E12.82516
G1 X133.489 Y151.491 E12.85141
G1 X131.261 Y151.491 E12.95516
G1 X130.9 Y151.46 E12.97203
G1 X130.58 Y151.374 E12.98746
G1 X130.289 Y151.238 E13.00241
G1 X130.009 Y151.042 E13.01833
G1 X129.781 Y150.814 E13.03334
G1 X129.585 Y150.534 E13.04926
G1 X129.449 Y150.243 E13.06422
G1 X129.362 Y149.918 E13.07988
G1 X129.333 Y149.591 E13.09517
G1 X129.362 Y149.264 E13.11045
G1 X129.449 Y148.939 E13.12612
G1 X129.585 Y148.648 E13.14108
G1 X129.781 Y148.368 E13.15699
G1 X130.009 Y148.14 E13.17201
G1 X130.289 Y147.944 E13.18792
G1 X130.58 Y147.808 E13.20288
G1 X130.9 Y147.722 E13.21831
G1 X131.261 Y147.691 E13.23518
G1 X133.489 Y147.691 E13.33892
G1 X134.051 Y147.645 E13.36518
G1 X134.62 Y147.503 E13.39249
G1 X135.159 Y147.269 E13.41985
G1 X135.654 Y146.952 E13.44722
G1 X136.089 Y146.558 E13.47455
G1 X136.456 Y146.1 E13.50188
G1 X136.742 Y145.586 E13.52927
G1 X136.928 Y145.072 E13.55472
G1 X137.5 Y143.329 E13.64014
G1 X138.244 Y141.665 E13.72502
G1 X138.864 Y140.553 E13.7843
G1 X139.126 Y140.134 E13.80731
G1 X140.196 Y138.66 E13.89212
G1 X141.409 Y137.307 E13.97674
G1 X142.735 Y136.109 E14.05995
G1 X144.193 Y135.04 E14.14413
G1 X145.756 Y134.128 E14.22839
G1 X147.38 Y133.392 E14.31142
G1 X149.106 Y132.818 E14.39612
G1 X150.873 Y132.428 E14.48038
G1 X165.65 Y129.955 E15.17802
G1 X165.856 Y129.921 E15.18775
G1 X165.88 Y130.128 E15.19393
G1 X170.549 Y169.788 E17.05342
G1 X170.579 Y170.051 E17.06082
G0 F6000 X171.038 Y170.534
;TYPE:WALL-OUTER
G1 F1200 X150.799 Y167.148 E18.01633
G1 X148.999 Y166.75 E18.10217
G1 X147.24 Y166.165 E18.18848
G1 X145.571 Y165.409 E18.2738
G1 X143.967 Y164.473 E18.36028
G1 X142.486 Y163.387 E18.44579
G1 X141.123 Y162.155 E18.53134
G1 X139.883 Y160.773 E18.6178
G1 X138.804 Y159.285 E18.70339
G1 X137.885 Y157.694 E18.78894
G1 X137.125 Y155.995 E18.87561
G1 X136.55 Y154.24 E18.9616
G1 X136.377 Y153.762 E18.98527
G1 X136.123 Y153.306 E19.00958
G1 X135.797 Y152.899 E19.03386
G1 X135.41 Y152.549 E19.05816
