;FLAVOR:Marlin
;TIME:5708
;Filament used: 4.47598m
;Layer height: 0.16
;MINX:58.55
;MINY:78.228
;MINZ:0.2
;MAXX:161.45
;MAXY:141.771
;MAXZ:4.8
;Generated with Creality Slicer 4.8.2-205
M140 S60
M105
M190 S60
M104 S200
M105
M109 S200
M82 ;absolute extrusion mode

G28 ;Home

G92 E0 ;Reset Extruder
G1 Z2.0 F3000 ;Move Z Axis up
G1 X10.1 Y20 Z0.28 F5000.0 ;Move to start position
G1 X10.1 Y200.0 Z0.28 F1500.0 E15 ;Draw the first line
G1 X10.4 Y200.0 Z0.28 F5000.0 ;Move to side a little
G1 X10.4 Y20 Z0.28 F1500.0 E30 ;Draw the second line
G92 E0 ;Reset Extruder
G1 Z2.0 F3000 ;Move Z Axis up

G92 E0
G92 E0
G1 F3600 E-5
;LAYER_COUNT:26
;LAYER:0
M107
G0 F6000 X75.284 Y89.351 Z0.2
;TYPE:SKIRT
G1 F3600 E0
G1 F1200 X76.06 Y88.733 E0.03299
G1 X78.03 Y87.36 E0.11286
G1 X78.873 Y86.848 E0.14567
G1 X81.007 Y85.731 E0.22578
G1 X81.911 Y85.329 E0.25868
G1 X84.162 Y84.494 E0.33854
G1 X85.099 Y84.212 E0.37108
G1 X87.447 Y83.663 E0.45128
G1 X87.936 Y83.565 E0.46787
G1 X117.4 Y78.636 E1.46147
G1 X117.855 Y78.574 E1.47674
G1 X120.66 Y78.273 E1.57057
G1 X121.572 Y78.228 E1.60094
G1 X124.383 Y78.257 E1.69444
G1 X125.291 Y78.32 E1.72471
G1 X128.064 Y78.674 E1.81769
G1 X128.966 Y78.844 E1.84822
G1 X131.704 Y79.528 E1.94208
G1 X132.574 Y79.8 E1.9724
G1 X135.204 Y80.795 E2.06593
G1 X136.039 Y81.168 E2.09634
G1 X138.534 Y82.464 E2.18986
G1 X139.32 Y82.932 E2.22028
G1 X141.649 Y84.513 E2.31391
G1 X142.37 Y85.067 E2.34415
G1 X144.49 Y86.9 E2.43736
G1 X145.147 Y87.539 E2.46784
G1 X147.048 Y89.62 E2.56159
G1 X147.622 Y90.328 E2.59191
G1 X149.259 Y92.605 E2.68518
G1 X149.749 Y93.379 E2.71565
G1 X151.112 Y95.84 E2.80922
G1 X151.508 Y96.666 E2.83968
G1 X152.439 Y98.941 E2.92144
G1 X152.787 Y99.021 E2.93332
G1 X153.376 Y99.179 E2.9536
G1 X154.127 Y99.422 E2.97985
G1 X154.664 Y99.649 E2.99924
G1 X155.202 Y99.901 E3.019
G1 X155.899 Y100.272 E3.04527
G1 X156.357 Y100.568 E3.0634
G1 X156.86 Y100.919 E3.0838
G1 X157.484 Y101.404 E3.11009
G1 X157.892 Y101.781 E3.12857
G1 X158.317 Y102.203 E3.14849
G1 X158.848 Y102.787 E3.17474
G1 X159.207 Y103.259 E3.19446
G1 X159.571 Y103.778 E3.21555
G1 X159.991 Y104.447 E3.24182
G1 X160.249 Y104.949 E3.26059
G1 X160.5 Y105.485 E3.28028
G1 X160.798 Y106.216 E3.30653
G1 X160.968 Y106.767 E3.32571
G1 X161.127 Y107.358 E3.34607
G1 X161.279 Y108.045 E3.36947
G1 X161.368 Y108.715 E3.39195
G1 X161.42 Y109.304 E3.41162
G1 X161.45 Y110.008 E3.43505
G1 X161.418 Y110.711 E3.45846
G1 X161.363 Y111.319 E3.47876
G1 X161.252 Y112.101 E3.50503
G1 X161.128 Y112.64 E3.52343
G1 X160.97 Y113.228 E3.54368
G1 X160.727 Y113.979 E3.56993
G1 X160.503 Y114.508 E3.58904
G1 X160.251 Y115.047 E3.60883
G1 X159.881 Y115.744 E3.63508
G1 X159.582 Y116.207 E3.65341
G1 X159.231 Y116.71 E3.67381
G1 X158.746 Y117.334 E3.70009
G1 X158.369 Y117.742 E3.71857
G1 X157.947 Y118.167 E3.73849
G1 X157.363 Y118.698 E3.76474
G1 X156.891 Y119.057 E3.78447
G1 X156.372 Y119.421 E3.80555
G1 X155.703 Y119.841 E3.83182
G1 X155.202 Y120.099 E3.85057
G1 X154.664 Y120.351 E3.87033
G1 X153.932 Y120.649 E3.89661
G1 X153.376 Y120.821 E3.91597
G1 X152.787 Y120.979 E3.93625
G1 X152.442 Y121.053 E3.94799
G1 X151.505 Y123.344 E4.03032
G1 X151.105 Y124.177 E4.06105
G1 X149.741 Y126.635 E4.15455
G1 X149.252 Y127.406 E4.18491
G1 X147.614 Y129.682 E4.27818
G1 X147.038 Y130.391 E4.30856
G1 X145.134 Y132.472 E4.40238
G1 X144.481 Y133.107 E4.43267
G1 X142.361 Y134.94 E4.52588
G1 X141.637 Y135.496 E4.55625
G1 X139.307 Y137.076 E4.64988
G1 X138.521 Y137.544 E4.68031
G1 X136.025 Y138.839 E4.77383
G1 X135.191 Y139.211 E4.8042
G1 X132.561 Y140.205 E4.89772
G1 X131.69 Y140.477 E4.92807
G1 X128.963 Y141.157 E5.02154
G1 X128.062 Y141.326 E5.05203
G1 X125.277 Y141.681 E5.14541
G1 X124.366 Y141.744 E5.17579
G1 X121.555 Y141.771 E5.26928
G1 X120.646 Y141.726 E5.29955
G1 X117.847 Y141.425 E5.39319
G1 X117.394 Y141.363 E5.40839
G1 X87.93 Y136.434 E6.40199
G1 X87.439 Y136.336 E6.41864
G1 X85.085 Y135.785 E6.49905
G1 X84.143 Y135.501 E6.53178
G1 X81.893 Y134.664 E6.61162
G1 X80.993 Y134.262 E6.64441
G1 X78.859 Y133.144 E6.72453
G1 X78.013 Y132.63 E6.75746
G1 X76.044 Y131.255 E6.83734
G1 X75.27 Y130.638 E6.87026
G1 X73.489 Y129.023 E6.95022
G1 X72.805 Y128.319 E6.98287
G1 X71.24 Y126.492 E7.06288
G1 X70.644 Y125.699 E7.09587
G1 X69.325 Y123.69 E7.17581
G1 X68.838 Y122.836 E7.20851
G1 X68.008 Y121.139 E7.27134
G1 X67.752 Y121.103 E7.27994
G1 X67.213 Y120.979 E7.29833
G1 X66.624 Y120.821 E7.31862
G1 X65.873 Y120.578 E7.34487
G1 X65.336 Y120.351 E7.36426
G1 X64.798 Y120.099 E7.38402
G1 X64.101 Y119.728 E7.41028
G1 X63.643 Y119.432 E7.42842
G1 X63.14 Y119.081 E7.44882
G1 X62.516 Y118.596 E7.4751
G1 X62.108 Y118.219 E7.49358
G1 X61.681 Y117.795 E7.5136
G1 X61.15 Y117.211 E7.53985
G1 X60.788 Y116.734 E7.55976
G1 X60.426 Y116.217 E7.58076
G1 X60.006 Y115.548 E7.60703
G1 X59.749 Y115.047 E7.62576
G1 X59.497 Y114.508 E7.64555
G1 X59.199 Y113.776 E7.67183
G1 X59.03 Y113.228 E7.69091
G1 X58.872 Y112.64 E7.71116
G1 X58.706 Y111.868 E7.73742
G1 X58.637 Y111.321 E7.75576
G1 X58.582 Y110.715 E7.776
G1 X58.55 Y109.992 E7.80007
G1 X58.582 Y109.289 E7.82347
G1 X58.637 Y108.681 E7.84378
G1 X58.748 Y107.899 E7.87005
G1 X58.872 Y107.36 E7.88844
G1 X59.03 Y106.772 E7.9087
G1 X59.273 Y106.021 E7.93495
G1 X59.497 Y105.492 E7.95406
G1 X59.749 Y104.953 E7.97385
G1 X60.119 Y104.256 E8.00009
G1 X60.418 Y103.793 E8.01842
G1 X60.769 Y103.29 E8.03882
G1 X61.254 Y102.666 E8.06511
G1 X61.631 Y102.258 E8.08359
G1 X62.053 Y101.833 E8.10351
G1 X62.637 Y101.302 E8.12976
G1 X63.109 Y100.943 E8.14948
G1 X63.628 Y100.579 E8.17057
G1 X64.297 Y100.159 E8.19684
G1 X64.798 Y99.901 E8.21558
G1 X65.336 Y99.649 E8.23534
G1 X66.068 Y99.351 E8.26163
G1 X66.624 Y99.179 E8.28099
G1 X67.213 Y99.021 E8.30127
G1 X67.985 Y98.856 E8.32753
G1 X68.012 Y98.853 E8.32843
G1 X68.845 Y97.151 E8.39145
G1 X69.335 Y96.293 E8.42432
G1 X70.656 Y94.285 E8.50426
G1 X71.251 Y93.494 E8.53718
G1 X72.817 Y91.668 E8.61719
G1 X73.502 Y90.965 E8.64984
G1 X75.284 Y89.351 E8.7298
G0 F6000 X75.552 Y89.647
G1 F1200 X76.289 Y89.061 E8.76112
G1 X78.259 Y87.688 E8.84099
G1 X79.058 Y87.203 E8.87207
G1 X81.192 Y86.086 E8.95219
G1 X82.05 Y85.704 E8.98342
G1 X84.301 Y84.869 E9.06328
G1 X85.19 Y84.601 E9.09416
G1 X87.538 Y84.052 E9.17436
G1 X88.002 Y83.959 E9.1901
G1 X117.466 Y79.03 E10.18369
G1 X117.897 Y78.971 E10.19816
G1 X120.702 Y78.67 E10.29199
G1 X121.568 Y78.628 E10.32083
G1 X124.379 Y78.657 E10.41433
G1 X125.24 Y78.717 E10.44304
G1 X128.013 Y79.071 E10.53602
G1 X128.87 Y79.232 E10.56502
G1 X131.608 Y79.916 E10.65888
G1 X132.432 Y80.174 E10.6876
G1 X135.062 Y81.169 E10.78113
G1 X135.855 Y81.523 E10.81001
G1 X138.35 Y82.819 E10.90352
G1 X139.095 Y83.263 E10.93237
G1 X141.424 Y84.844 E11.02599
G1 X142.108 Y85.369 E11.05467
G1 X144.228 Y87.202 E11.14788
G1 X144.852 Y87.809 E11.17684
G1 X146.753 Y89.89 E11.27058
G1 X147.297 Y90.561 E11.29931
G1 X148.934 Y92.838 E11.39259
G1 X149.399 Y93.573 E11.42152
G1 X150.762 Y96.034 E11.51508
G1 X151.138 Y96.817 E11.54397
G1 X152.149 Y99.288 E11.63277
G1 X152.192 Y99.294 E11.63422
G1 X152.683 Y99.408 E11.65098
G1 X153.272 Y99.566 E11.67127
G1 X154.004 Y99.803 E11.69686
G1 X154.494 Y100.012 E11.71457
G1 X155.032 Y100.264 E11.73433
G1 X155.711 Y100.626 E11.75993
G1 X156.128 Y100.896 E11.77645
G1 X156.631 Y101.247 E11.79685
G1 X157.238 Y101.72 E11.82244
G1 X157.61 Y102.065 E11.83932
G1 X158.035 Y102.487 E11.85924
G1 X158.552 Y103.056 E11.88481
G1 X158.879 Y103.489 E11.90286
G1 X159.243 Y104.008 E11.92394
G1 X159.652 Y104.66 E11.94954
G1 X159.887 Y105.119 E11.96669
G1 X160.138 Y105.655 E11.98638
G1 X160.427 Y106.367 E12.01193
G1 X160.582 Y106.87 E12.02944
G1 X160.741 Y107.461 E12.0498
G1 X160.885 Y108.115 E12.07207
G1 X160.969 Y108.75 E12.09337
G1 X161.021 Y109.339 E12.11304
G1 X161.05 Y110.008 E12.13531
G1 X161.02 Y110.675 E12.15752
G1 X160.965 Y111.283 E12.17782
G1 X160.856 Y112.044 E12.20339
G1 X160.741 Y112.536 E12.2202
G1 X160.583 Y113.124 E12.24045
G1 X160.346 Y113.856 E12.26604
G1 X160.141 Y114.338 E12.28346
G1 X159.889 Y114.877 E12.30325
G1 X159.527 Y115.556 E12.32884
G1 X159.254 Y115.978 E12.34556
G1 X158.903 Y116.481 E12.36596
G1 X158.43 Y117.088 E12.39155
G1 X158.085 Y117.46 E12.40843
G1 X157.663 Y117.885 E12.42835
G1 X157.094 Y118.402 E12.45392
G1 X156.661 Y118.729 E12.47197
G1 X156.142 Y119.093 E12.49305
G1 X155.49 Y119.502 E12.51865
G1 X155.032 Y119.736 E12.53576
G1 X154.494 Y119.988 E12.55552
G1 X153.781 Y120.278 E12.58112
G1 X153.272 Y120.434 E12.59882
G1 X152.683 Y120.592 E12.61911
G1 X152.151 Y120.706 E12.6372
G1 X151.135 Y123.192 E12.72653
G1 X150.756 Y123.983 E12.7557
G1 X149.392 Y126.441 E12.8492
G1 X148.927 Y127.173 E12.87804
G1 X147.289 Y129.449 E12.97131
G1 X146.743 Y130.121 E13.0001
G1 X144.839 Y132.202 E13.09392
G1 X144.219 Y132.805 E13.12268
G1 X142.099 Y134.638 E13.2159
G1 X141.412 Y135.165 E13.2447
G1 X139.082 Y136.745 E13.33833
G1 X138.337 Y137.189 E13.36717
G1 X135.841 Y138.484 E13.4607
G1 X135.049 Y138.837 E13.48954
G1 X132.419 Y139.831 E13.58305
G1 X131.593 Y140.089 E13.61184
G1 X128.866 Y140.769 E13.70531
G1 X128.012 Y140.93 E13.73422
G1 X125.227 Y141.285 E13.8276
G1 X124.362 Y141.344 E13.85643
G1 X121.551 Y141.371 E13.94993
G1 X120.689 Y141.329 E13.97864
G1 X117.89 Y141.028 E14.07227
G1 X117.46 Y140.969 E14.0867
G1 X87.996 Y136.04 E15.0803
G1 X87.53 Y135.946 E15.09611
G1 X85.176 Y135.395 E15.17652
G1 X84.283 Y135.126 E15.20754
G1 X82.033 Y134.289 E15.28739
G1 X81.179 Y133.908 E15.31849
G1 X79.045 Y132.79 E15.39862
G1 X78.242 Y132.302 E15.42987
G1 X76.273 Y130.927 E15.50975
G1 X75.539 Y130.342 E15.54096
G1 X73.758 Y128.727 E15.62093
G1 X73.109 Y128.059 E15.65191
G1 X71.544 Y126.232 E15.73192
G1 X70.978 Y125.479 E15.76325
G1 X69.659 Y123.47 E15.84318
G1 X69.198 Y122.661 E15.87415
G1 X68.274 Y120.773 E15.94406
G1 X67.808 Y120.706 E15.95972
G1 X67.317 Y120.592 E15.97649
G1 X66.728 Y120.434 E15.99677
G1 X65.996 Y120.197 E16.02236
G1 X65.506 Y119.988 E16.04008
G1 X64.968 Y119.736 E16.05984
G1 X64.289 Y119.374 E16.08543
G1 X63.872 Y119.104 E16.10195
G1 X63.369 Y118.753 E16.12236
G1 X62.762 Y118.28 E16.14795
G1 X62.39 Y117.935 E16.16482
G1 X61.963 Y117.511 E16.18484
G1 X61.446 Y116.941 E16.21043
G1 X61.115 Y116.504 E16.22867
G1 X60.753 Y115.987 E16.24966
G1 X60.345 Y115.335 E16.27524
G1 X60.111 Y114.877 E16.29235
G1 X59.859 Y114.338 E16.31214
G1 X59.57 Y113.625 E16.33773
G1 X59.417 Y113.124 E16.35515
G1 X59.259 Y112.536 E16.3754
G1 X59.098 Y111.784 E16.40098
G1 X59.035 Y111.285 E16.41771
G1 X58.98 Y110.679 E16.43794
G1 X58.95 Y109.992 E16.46082
G1 X58.98 Y109.325 E16.48302
G1 X59.035 Y108.717 E16.50333
G1 X59.144 Y107.956 E16.5289
G1 X59.259 Y107.464 E16.5457
G1 X59.417 Y106.876 E16.56595
G1 X59.654 Y106.144 E16.59154
G1 X59.859 Y105.662 E16.60896
G1 X60.111 Y105.123 E16.62875
G1 X60.473 Y104.444 E16.65435
G1 X60.746 Y104.022 E16.67106
G1 X61.097 Y103.519 E16.69146
G1 X61.57 Y102.912 E16.71706
G1 X61.915 Y102.54 E16.73393
G1 X62.337 Y102.115 E16.75385
G1 X62.906 Y101.598 E16.77942
G1 X63.339 Y101.271 E16.79747
G1 X63.858 Y100.907 E16.81856
G1 X64.51 Y100.498 E16.84415
G1 X64.968 Y100.264 E16.86126
G1 X65.506 Y100.012 E16.88102
G1 X66.219 Y99.722 E16.90662
G1 X66.728 Y99.566 E16.92433
G1 X67.317 Y99.408 E16.94461
G1 X68.069 Y99.247 E16.97019
G1 X68.277 Y99.221 E16.97716
G1 X69.204 Y97.327 E17.0473
G1 X69.669 Y96.513 E17.07848
G1 X70.99 Y94.505 E17.15842
G1 X71.555 Y93.755 E17.18965
G1 X73.121 Y91.929 E17.26966
G1 X73.77 Y91.261 E17.30064
G1 X75.552 Y89.647 E17.3806
G0 F6000 X75.821 Y89.944
G1 F1200 X76.518 Y89.389 E17.41024
G1 X78.488 Y88.016 E17.4901
G1 X79.244 Y87.557 E17.51952
G1 X81.378 Y86.44 E17.59963
G1 X82.189 Y86.079 E17.62916
G1 X84.44 Y85.244 E17.70901
G1 X85.281 Y84.991 E17.73822
G1 X87.629 Y84.442 E17.81842
G1 X88.068 Y84.354 E17.83331
G1 X117.532 Y79.425 E18.82691
G1 X117.94 Y79.369 E18.84061
G1 X120.745 Y79.068 E18.93444
G1 X121.564 Y79.028 E18.96171
G1 X124.375 Y79.057 E19.05521
G1 X125.189 Y79.113 E19.08234
G1 X127.962 Y79.467 E19.17532
G1 X128.773 Y79.62 E19.20277
G1 X131.511 Y80.304 E19.29664
G1 X132.291 Y80.548 E19.32382
G1 X134.921 Y81.543 E19.41735
G1 X135.671 Y81.878 E19.44467
G1 X138.166 Y83.174 E19.53818
G1 X138.871 Y83.594 E19.56547
G1 X141.2 Y85.175 E19.6591
G1 X141.846 Y85.672 E19.68621
G1 X143.966 Y87.505 E19.77942
G1 X144.556 Y88.079 E19.8068
G1 X146.457 Y90.16 E19.90054
G1 X146.973 Y90.795 E19.92776
G1 X148.61 Y93.072 E20.02103
G1 X149.05 Y93.767 E20.04839
G1 X150.413 Y96.228 E20.14196
G1 X150.768 Y96.969 E20.16929
G1 X151.832 Y99.57 E20.26275
G1 X151.859 Y99.65 E20.26556
G1 X152.135 Y99.69 E20.27484
G1 X152.58 Y99.794 E20.29004
G1 X153.169 Y99.952 E20.31032
G1 X153.88 Y100.184 E20.3352
G1 X154.324 Y100.374 E20.35126
G1 X154.862 Y100.626 E20.37102
G1 X155.522 Y100.979 E20.39591
G1 X155.899 Y101.224 E20.41087
G1 X156.402 Y101.575 E20.43127
G1 X156.992 Y102.036 E20.45617
G1 X157.328 Y102.349 E20.47144
G1 X157.753 Y102.771 E20.49136
G1 X158.255 Y103.325 E20.51623
G1 X158.552 Y103.719 E20.53264
G1 X158.916 Y104.238 E20.55372
G1 X159.312 Y104.872 E20.57859
G1 X159.524 Y105.288 E20.59412
G1 X159.775 Y105.824 E20.6138
G1 X160.056 Y106.518 E20.6387
G1 X160.196 Y106.974 E20.65457
G1 X160.355 Y107.565 E20.67493
G1 X160.491 Y108.185 E20.69604
G1 X160.571 Y108.785 E20.71617
G1 X160.623 Y109.374 E20.73584
G1 X160.65 Y110.008 E20.75694
G1 X160.622 Y110.639 E20.77795
G1 X160.567 Y111.247 E20.79826
G1 X160.459 Y111.987 E20.82313
G1 X160.355 Y112.433 E20.83836
G1 X160.197 Y113.021 E20.85861
G1 X159.965 Y113.732 E20.88349
G1 X159.778 Y114.169 E20.8993
G1 X159.526 Y114.708 E20.91909
G1 X159.174 Y115.367 E20.94393
G1 X158.926 Y115.749 E20.95908
G1 X158.575 Y116.252 E20.97948
G1 X158.114 Y116.842 E21.00439
G1 X157.801 Y117.178 E21.01966
G1 X157.379 Y117.603 E21.03958
G1 X156.825 Y118.105 E21.06445
G1 X156.431 Y118.402 E21.08086
G1 X155.912 Y118.766 E21.10194
G1 X155.278 Y119.162 E21.1268
G1 X154.862 Y119.374 E21.14233
G1 X154.324 Y119.626 E21.16209
G1 X153.631 Y119.907 E21.18696
G1 X153.169 Y120.048 E21.20303
G1 X152.58 Y120.206 E21.22331
G1 X151.855 Y120.36 E21.24796
G1 X151.827 Y120.441 E21.25081
G1 X150.764 Y123.041 E21.34424
G1 X150.406 Y123.789 E21.37182
G1 X149.042 Y126.247 E21.46532
G1 X148.603 Y126.939 E21.49257
G1 X146.965 Y129.215 E21.58584
G1 X146.448 Y129.851 E21.6131
G1 X144.544 Y131.932 E21.70692
G1 X143.957 Y132.502 E21.73413
G1 X141.837 Y134.335 E21.82734
G1 X141.188 Y134.834 E21.85457
G1 X138.858 Y136.414 E21.9482
G1 X138.153 Y136.833 E21.97548
G1 X135.657 Y138.128 E22.06901
G1 X134.908 Y138.463 E22.0963
G1 X132.278 Y139.457 E22.18981
G1 X131.497 Y139.701 E22.21702
G1 X128.77 Y140.381 E22.3105
G1 X127.961 Y140.533 E22.33788
G1 X125.176 Y140.888 E22.43126
G1 X124.358 Y140.944 E22.45853
G1 X121.547 Y140.971 E22.55203
G1 X120.732 Y140.931 E22.57917
G1 X117.933 Y140.63 E22.6728
G1 X117.526 Y140.574 E22.68646
G1 X88.062 Y135.645 E23.68006
G1 X87.622 Y135.557 E23.69498
G1 X85.268 Y135.006 E23.77539
G1 X84.422 Y134.751 E23.80478
G1 X82.172 Y133.914 E23.88463
G1 X81.365 Y133.554 E23.91402
G1 X79.231 Y132.436 E23.99415
G1 X78.471 Y131.974 E24.02373
G1 X76.502 Y130.599 E24.10361
G1 X75.808 Y130.046 E24.13312
G1 X74.027 Y128.431 E24.21308
G1 X73.413 Y127.799 E24.24239
G1 X71.848 Y125.972 E24.3224
G1 X71.312 Y125.26 E24.35204
G1 X69.993 Y123.251 E24.43198
G1 X69.557 Y122.485 E24.46129
G1 X68.541 Y120.408 E24.5382
G1 X67.865 Y120.31 E24.56092
G1 X67.42 Y120.206 E24.57612
G1 X66.831 Y120.048 E24.5964
G1 X66.12 Y119.816 E24.62127
G1 X65.676 Y119.626 E24.63734
G1 X65.138 Y119.374 E24.6571
G1 X64.478 Y119.021 E24.68199
G1 X64.101 Y118.776 E24.69694
G1 X63.598 Y118.425 E24.71735
G1 X63.008 Y117.964 E24.74225
G1 X62.672 Y117.651 E24.75752
G1 X62.245 Y117.227 E24.77754
G1 X61.743 Y116.672 E24.80243
G1 X61.443 Y116.275 E24.81898
G1 X61.081 Y115.758 E24.83997
G1 X60.685 Y115.123 E24.86486
G1 X60.474 Y114.708 E24.88034
G1 X60.222 Y114.169 E24.90013
G1 X59.942 Y113.475 E24.92502
G1 X59.803 Y113.021 E24.94082
G1 X59.645 Y112.433 E24.96107
G1 X59.49 Y111.701 E24.98595
G1 X59.434 Y111.249 E25.0011
G1 X59.379 Y110.643 E25.02134
G1 X59.35 Y109.992 E25.04301
G1 X59.378 Y109.361 E25.06402
